(G-CODE GENERATED BY FLATCAM v8.913 - www.flatcam.org - Version Date: 2019/04/13)

(Name: slip_ring-NPTH.drl_mill_cnc)
(Type: G-code from Geometry)
(Units: MM)

(Created on Thursday, 06 June 2019 at 23:59)

(TOOL DIAMETER: 0.8 mm)

(Feedrate: 50.0 mm/min)
(Feedrate_Z: 50.0 mm/min)
(Feedrate rapids 76.2 mm/min)

(Z_Cut: -2.0 mm)
(Z_Move: 2.54 mm)
(Z Toolchange: 20.0 mm)
(X,Y Toolchange: 0.0000, 0.0000 mm)
(Z Start: None mm)
(Z End: 20.0 mm)
(Steps per circle: 64)
(Postprocessor Geometry: grbl_11)

(X range:  -30.5000 ...   31.9000  mm)
(Y range:  -69.6300 ...   -7.2300  mm)

(Spindle Speed: 20000 RPM)


G21
G90
G94
G17

G01 F50.00
G00 Z2.5400

M03 S20000
G4 P1.0
G00 X-28.1000 Y-8.4300
G01 F50.00
G01 Z-2.0000
G01 F50.00
G01 X-28.1058 Y-8.5476 F50.00
G01 X-28.1231 Y-8.6641 F50.00
G01 X-28.1517 Y-8.7783 F50.00
G01 X-28.1913 Y-8.8892 F50.00
G01 X-28.2417 Y-8.9957 F50.00
G01 X-28.3022 Y-9.0967 F50.00
G01 X-28.3724 Y-9.1913 F50.00
G01 X-28.4515 Y-9.2785 F50.00
G01 X-28.5387 Y-9.3576 F50.00
G01 X-28.6333 Y-9.4278 F50.00
G01 X-28.7343 Y-9.4883 F50.00
G01 X-28.8408 Y-9.5387 F50.00
G01 X-28.9517 Y-9.5783 F50.00
G01 X-29.0659 Y-9.6069 F50.00
G01 X-29.1824 Y-9.6242 F50.00
G01 X-29.3000 Y-9.6300 F50.00
G01 X-29.4176 Y-9.6242 F50.00
G01 X-29.5341 Y-9.6069 F50.00
G01 X-29.6483 Y-9.5783 F50.00
G01 X-29.7592 Y-9.5387 F50.00
G01 X-29.8657 Y-9.4883 F50.00
G01 X-29.9667 Y-9.4278 F50.00
G01 X-30.0613 Y-9.3576 F50.00
G01 X-30.1485 Y-9.2785 F50.00
G01 X-30.2276 Y-9.1913 F50.00
G01 X-30.2978 Y-9.0967 F50.00
G01 X-30.3583 Y-8.9957 F50.00
G01 X-30.4087 Y-8.8892 F50.00
G01 X-30.4483 Y-8.7783 F50.00
G01 X-30.4769 Y-8.6641 F50.00
G01 X-30.4942 Y-8.5476 F50.00
G01 X-30.5000 Y-8.4300 F50.00
G01 X-30.4942 Y-8.3124 F50.00
G01 X-30.4769 Y-8.1959 F50.00
G01 X-30.4483 Y-8.0817 F50.00
G01 X-30.4087 Y-7.9708 F50.00
G01 X-30.3583 Y-7.8643 F50.00
G01 X-30.2978 Y-7.7633 F50.00
G01 X-30.2276 Y-7.6687 F50.00
G01 X-30.1485 Y-7.5815 F50.00
G01 X-30.0613 Y-7.5024 F50.00
G01 X-29.9667 Y-7.4322 F50.00
G01 X-29.8657 Y-7.3717 F50.00
G01 X-29.7592 Y-7.3213 F50.00
G01 X-29.6483 Y-7.2817 F50.00
G01 X-29.5341 Y-7.2531 F50.00
G01 X-29.4176 Y-7.2358 F50.00
G01 X-29.3000 Y-7.2300 F50.00
G01 X-29.1824 Y-7.2358 F50.00
G01 X-29.0659 Y-7.2531 F50.00
G01 X-28.9517 Y-7.2817 F50.00
G01 X-28.8408 Y-7.3213 F50.00
G01 X-28.7343 Y-7.3717 F50.00
G01 X-28.6333 Y-7.4322 F50.00
G01 X-28.5387 Y-7.5024 F50.00
G01 X-28.4515 Y-7.5815 F50.00
G01 X-28.3724 Y-7.6687 F50.00
G01 X-28.3022 Y-7.7633 F50.00
G01 X-28.2417 Y-7.8643 F50.00
G01 X-28.1913 Y-7.9708 F50.00
G01 X-28.1517 Y-8.0817 F50.00
G01 X-28.1231 Y-8.1959 F50.00
G01 X-28.1058 Y-8.3124 F50.00
G01 X-28.1000 Y-8.4300 F50.00
G01 X-28.1058 Y-8.5476 F50.00
G00 Z2.5400
G00 X15.3000 Y-38.4300
G01 F50.00
G01 Z-2.0000
G01 F50.00
G01 X15.2297 Y-39.8611 F50.00
G01 X15.0195 Y-41.2783 F50.00
G01 X14.6713 Y-42.6682 F50.00
G01 X14.1886 Y-44.0172 F50.00
G01 X13.5761 Y-45.3124 F50.00
G01 X12.8395 Y-46.5413 F50.00
G01 X11.9860 Y-47.6921 F50.00
G01 X11.0238 Y-48.7538 F50.00
G01 X9.9621 Y-49.7160 F50.00
G01 X8.8113 Y-50.5695 F50.00
G01 X7.5824 Y-51.3061 F50.00
G01 X6.2872 Y-51.9186 F50.00
G01 X4.9382 Y-52.4013 F50.00
G01 X3.5483 Y-52.7495 F50.00
G01 X2.1311 Y-52.9597 F50.00
G01 X0.7000 Y-53.0300 F50.00
G01 X-0.7311 Y-52.9597 F50.00
G01 X-2.1483 Y-52.7495 F50.00
G01 X-3.5382 Y-52.4013 F50.00
G01 X-4.8872 Y-51.9186 F50.00
G01 X-6.1824 Y-51.3061 F50.00
G01 X-7.4113 Y-50.5695 F50.00
G01 X-8.5621 Y-49.7160 F50.00
G01 X-9.6238 Y-48.7538 F50.00
G01 X-10.5860 Y-47.6921 F50.00
G01 X-11.4395 Y-46.5413 F50.00
G01 X-12.1761 Y-45.3124 F50.00
G01 X-12.7886 Y-44.0172 F50.00
G01 X-13.2713 Y-42.6682 F50.00
G01 X-13.6195 Y-41.2783 F50.00
G01 X-13.8297 Y-39.8611 F50.00
G01 X-13.9000 Y-38.4300 F50.00
G01 X-13.8297 Y-36.9989 F50.00
G01 X-13.6195 Y-35.5817 F50.00
G01 X-13.2713 Y-34.1918 F50.00
G01 X-12.7886 Y-32.8428 F50.00
G01 X-12.1761 Y-31.5476 F50.00
G01 X-11.4395 Y-30.3187 F50.00
G01 X-10.5860 Y-29.1679 F50.00
G01 X-9.6238 Y-28.1062 F50.00
G01 X-8.5621 Y-27.1440 F50.00
G01 X-7.4113 Y-26.2905 F50.00
G01 X-6.1824 Y-25.5539 F50.00
G01 X-4.8872 Y-24.9414 F50.00
G01 X-3.5382 Y-24.4587 F50.00
G01 X-2.1483 Y-24.1105 F50.00
G01 X-0.7311 Y-23.9003 F50.00
G01 X0.7000 Y-23.8300 F50.00
G01 X2.1311 Y-23.9003 F50.00
G01 X3.5483 Y-24.1105 F50.00
G01 X4.9382 Y-24.4587 F50.00
G01 X6.2872 Y-24.9414 F50.00
G01 X7.5824 Y-25.5539 F50.00
G01 X8.8113 Y-26.2905 F50.00
G01 X9.9621 Y-27.1440 F50.00
G01 X11.0238 Y-28.1062 F50.00
G01 X11.9860 Y-29.1679 F50.00
G01 X12.8395 Y-30.3187 F50.00
G01 X13.5761 Y-31.5476 F50.00
G01 X14.1886 Y-32.8428 F50.00
G01 X14.6713 Y-34.1918 F50.00
G01 X15.0195 Y-35.5817 F50.00
G01 X15.2297 Y-36.9989 F50.00
G01 X15.3000 Y-38.4300 F50.00
G01 X15.2297 Y-39.8611 F50.00
G00 Z2.5400
G00 X31.9000 Y-8.4300
G01 F50.00
G01 Z-2.0000
G01 F50.00
G01 X31.8942 Y-8.5476 F50.00
G01 X31.8769 Y-8.6641 F50.00
G01 X31.8483 Y-8.7783 F50.00
G01 X31.8087 Y-8.8892 F50.00
G01 X31.7583 Y-8.9957 F50.00
G01 X31.6978 Y-9.0967 F50.00
G01 X31.6276 Y-9.1913 F50.00
G01 X31.5485 Y-9.2785 F50.00
G01 X31.4613 Y-9.3576 F50.00
G01 X31.3667 Y-9.4278 F50.00
G01 X31.2657 Y-9.4883 F50.00
G01 X31.1592 Y-9.5387 F50.00
G01 X31.0483 Y-9.5783 F50.00
G01 X30.9341 Y-9.6069 F50.00
G01 X30.8176 Y-9.6242 F50.00
G01 X30.7000 Y-9.6300 F50.00
G01 X30.5824 Y-9.6242 F50.00
G01 X30.4659 Y-9.6069 F50.00
G01 X30.3517 Y-9.5783 F50.00
G01 X30.2408 Y-9.5387 F50.00
G01 X30.1343 Y-9.4883 F50.00
G01 X30.0333 Y-9.4278 F50.00
G01 X29.9387 Y-9.3576 F50.00
G01 X29.8515 Y-9.2785 F50.00
G01 X29.7724 Y-9.1913 F50.00
G01 X29.7022 Y-9.0967 F50.00
G01 X29.6417 Y-8.9957 F50.00
G01 X29.5913 Y-8.8892 F50.00
G01 X29.5517 Y-8.7783 F50.00
G01 X29.5231 Y-8.6641 F50.00
G01 X29.5058 Y-8.5476 F50.00
G01 X29.5000 Y-8.4300 F50.00
G01 X29.5058 Y-8.3124 F50.00
G01 X29.5231 Y-8.1959 F50.00
G01 X29.5517 Y-8.0817 F50.00
G01 X29.5913 Y-7.9708 F50.00
G01 X29.6417 Y-7.8643 F50.00
G01 X29.7022 Y-7.7633 F50.00
G01 X29.7724 Y-7.6687 F50.00
G01 X29.8515 Y-7.5815 F50.00
G01 X29.9387 Y-7.5024 F50.00
G01 X30.0333 Y-7.4322 F50.00
G01 X30.1343 Y-7.3717 F50.00
G01 X30.2408 Y-7.3213 F50.00
G01 X30.3517 Y-7.2817 F50.00
G01 X30.4659 Y-7.2531 F50.00
G01 X30.5824 Y-7.2358 F50.00
G01 X30.7000 Y-7.2300 F50.00
G01 X30.8176 Y-7.2358 F50.00
G01 X30.9341 Y-7.2531 F50.00
G01 X31.0483 Y-7.2817 F50.00
G01 X31.1592 Y-7.3213 F50.00
G01 X31.2657 Y-7.3717 F50.00
G01 X31.3667 Y-7.4322 F50.00
G01 X31.4613 Y-7.5024 F50.00
G01 X31.5485 Y-7.5815 F50.00
G01 X31.6276 Y-7.6687 F50.00
G01 X31.6978 Y-7.7633 F50.00
G01 X31.7583 Y-7.8643 F50.00
G01 X31.8087 Y-7.9708 F50.00
G01 X31.8483 Y-8.0817 F50.00
G01 X31.8769 Y-8.1959 F50.00
G01 X31.8942 Y-8.3124 F50.00
G01 X31.9000 Y-8.4300 F50.00
G01 X31.8942 Y-8.5476 F50.00
G00 Z2.5400
G00 X31.9000 Y-68.4300
G01 F50.00
G01 Z-2.0000
G01 F50.00
G01 X31.8942 Y-68.5476 F50.00
G01 X31.8769 Y-68.6641 F50.00
G01 X31.8483 Y-68.7783 F50.00
G01 X31.8087 Y-68.8892 F50.00
G01 X31.7583 Y-68.9957 F50.00
G01 X31.6978 Y-69.0967 F50.00
G01 X31.6276 Y-69.1913 F50.00
G01 X31.5485 Y-69.2785 F50.00
G01 X31.4613 Y-69.3576 F50.00
G01 X31.3667 Y-69.4278 F50.00
G01 X31.2657 Y-69.4883 F50.00
G01 X31.1592 Y-69.5387 F50.00
G01 X31.0483 Y-69.5783 F50.00
G01 X30.9341 Y-69.6069 F50.00
G01 X30.8176 Y-69.6242 F50.00
G01 X30.7000 Y-69.6300 F50.00
G01 X30.5824 Y-69.6242 F50.00
G01 X30.4659 Y-69.6069 F50.00
G01 X30.3517 Y-69.5783 F50.00
G01 X30.2408 Y-69.5387 F50.00
G01 X30.1343 Y-69.4883 F50.00
G01 X30.0333 Y-69.4278 F50.00
G01 X29.9387 Y-69.3576 F50.00
G01 X29.8515 Y-69.2785 F50.00
G01 X29.7724 Y-69.1913 F50.00
G01 X29.7022 Y-69.0967 F50.00
G01 X29.6417 Y-68.9957 F50.00
G01 X29.5913 Y-68.8892 F50.00
G01 X29.5517 Y-68.7783 F50.00
G01 X29.5231 Y-68.6641 F50.00
G01 X29.5058 Y-68.5476 F50.00
G01 X29.5000 Y-68.4300 F50.00
G01 X29.5058 Y-68.3124 F50.00
G01 X29.5231 Y-68.1959 F50.00
G01 X29.5517 Y-68.0817 F50.00
G01 X29.5913 Y-67.9708 F50.00
G01 X29.6417 Y-67.8643 F50.00
G01 X29.7022 Y-67.7633 F50.00
G01 X29.7724 Y-67.6687 F50.00
G01 X29.8515 Y-67.5815 F50.00
G01 X29.9387 Y-67.5024 F50.00
G01 X30.0333 Y-67.4322 F50.00
G01 X30.1343 Y-67.3717 F50.00
G01 X30.2408 Y-67.3213 F50.00
G01 X30.3517 Y-67.2817 F50.00
G01 X30.4659 Y-67.2531 F50.00
G01 X30.5824 Y-67.2358 F50.00
G01 X30.7000 Y-67.2300 F50.00
G01 X30.8176 Y-67.2358 F50.00
G01 X30.9341 Y-67.2531 F50.00
G01 X31.0483 Y-67.2817 F50.00
G01 X31.1592 Y-67.3213 F50.00
G01 X31.2657 Y-67.3717 F50.00
G01 X31.3667 Y-67.4322 F50.00
G01 X31.4613 Y-67.5024 F50.00
G01 X31.5485 Y-67.5815 F50.00
G01 X31.6276 Y-67.6687 F50.00
G01 X31.6978 Y-67.7633 F50.00
G01 X31.7583 Y-67.8643 F50.00
G01 X31.8087 Y-67.9708 F50.00
G01 X31.8483 Y-68.0817 F50.00
G01 X31.8769 Y-68.1959 F50.00
G01 X31.8942 Y-68.3124 F50.00
G01 X31.9000 Y-68.4300 F50.00
G01 X31.8942 Y-68.5476 F50.00
G00 Z2.5400
G00 X-28.1000 Y-68.4300
G01 F50.00
G01 Z-2.0000
G01 F50.00
G01 X-28.1058 Y-68.5476 F50.00
G01 X-28.1231 Y-68.6641 F50.00
G01 X-28.1517 Y-68.7783 F50.00
G01 X-28.1913 Y-68.8892 F50.00
G01 X-28.2417 Y-68.9957 F50.00
G01 X-28.3022 Y-69.0967 F50.00
G01 X-28.3724 Y-69.1913 F50.00
G01 X-28.4515 Y-69.2785 F50.00
G01 X-28.5387 Y-69.3576 F50.00
G01 X-28.6333 Y-69.4278 F50.00
G01 X-28.7343 Y-69.4883 F50.00
G01 X-28.8408 Y-69.5387 F50.00
G01 X-28.9517 Y-69.5783 F50.00
G01 X-29.0659 Y-69.6069 F50.00
G01 X-29.1824 Y-69.6242 F50.00
G01 X-29.3000 Y-69.6300 F50.00
G01 X-29.4176 Y-69.6242 F50.00
G01 X-29.5341 Y-69.6069 F50.00
G01 X-29.6483 Y-69.5783 F50.00
G01 X-29.7592 Y-69.5387 F50.00
G01 X-29.8657 Y-69.4883 F50.00
G01 X-29.9667 Y-69.4278 F50.00
G01 X-30.0613 Y-69.3576 F50.00
G01 X-30.1485 Y-69.2785 F50.00
G01 X-30.2276 Y-69.1913 F50.00
G01 X-30.2978 Y-69.0967 F50.00
G01 X-30.3583 Y-68.9957 F50.00
G01 X-30.4087 Y-68.8892 F50.00
G01 X-30.4483 Y-68.7783 F50.00
G01 X-30.4769 Y-68.6641 F50.00
G01 X-30.4942 Y-68.5476 F50.00
G01 X-30.5000 Y-68.4300 F50.00
G01 X-30.4942 Y-68.3124 F50.00
G01 X-30.4769 Y-68.1959 F50.00
G01 X-30.4483 Y-68.0817 F50.00
G01 X-30.4087 Y-67.9708 F50.00
G01 X-30.3583 Y-67.8643 F50.00
G01 X-30.2978 Y-67.7633 F50.00
G01 X-30.2276 Y-67.6687 F50.00
G01 X-30.1485 Y-67.5815 F50.00
G01 X-30.0613 Y-67.5024 F50.00
G01 X-29.9667 Y-67.4322 F50.00
G01 X-29.8657 Y-67.3717 F50.00
G01 X-29.7592 Y-67.3213 F50.00
G01 X-29.6483 Y-67.2817 F50.00
G01 X-29.5341 Y-67.2531 F50.00
G01 X-29.4176 Y-67.2358 F50.00
G01 X-29.3000 Y-67.2300 F50.00
G01 X-29.1824 Y-67.2358 F50.00
G01 X-29.0659 Y-67.2531 F50.00
G01 X-28.9517 Y-67.2817 F50.00
G01 X-28.8408 Y-67.3213 F50.00
G01 X-28.7343 Y-67.3717 F50.00
G01 X-28.6333 Y-67.4322 F50.00
G01 X-28.5387 Y-67.5024 F50.00
G01 X-28.4515 Y-67.5815 F50.00
G01 X-28.3724 Y-67.6687 F50.00
G01 X-28.3022 Y-67.7633 F50.00
G01 X-28.2417 Y-67.8643 F50.00
G01 X-28.1913 Y-67.9708 F50.00
G01 X-28.1517 Y-68.0817 F50.00
G01 X-28.1231 Y-68.1959 F50.00
G01 X-28.1058 Y-68.3124 F50.00
G01 X-28.1000 Y-68.4300 F50.00
G01 X-28.1058 Y-68.5476 F50.00
G00 Z2.5400
M05
G00 Z2.5400
G00 Z20.00
G00 X0.0 Y0.0

M02