(G-CODE GENERATED BY FLATCAM v8.913 - www.flatcam.org - Version Date: 2019/04/13)

(Name: slip_ring-F.Cu.gbr_iso_cnc)
(Type: G-code from Geometry)
(Units: MM)

(Created on Thursday, 06 June 2019 at 22:27)

(TOOL DIAMETER: 0.18 mm)

(Feedrate: 200.0 mm/min)
(Feedrate_Z: 100.0 mm/min)
(Feedrate rapids 76.2 mm/min)

(Z_Cut: -0.1 mm)
(Z_Move: 2.54 mm)
(Z Toolchange: 20.0 mm)
(X,Y Toolchange: 0.0000, 0.0000 mm)
(Z Start: None mm)
(Z End: 20.0 mm)
(Steps per circle: 64)
(Postprocessor Geometry: grbl_11)

(X range:  -47.4180 ...   39.4430  mm)
(Y range:  -77.1721 ...    0.3046  mm)

(Spindle Speed: 20000 RPM)


G21
G90
G94
G17

G01 F200.00
G00 Z2.5400

M03 S20000
G4 P1.0
G00 X-14.5552 Y-38.2170
G01 F100.00
G01 Z-0.1000
G01 F200.00
G01 X-14.5032 Y-39.7066 F200.00
G01 X-14.3061 Y-41.1841 F200.00
G01 X-13.9657 Y-42.6353 F200.00
G01 X-13.4853 Y-44.0464 F200.00
G01 X-12.8696 Y-45.4038 F200.00
G01 X-12.1243 Y-46.6947 F200.00
G01 X-11.2566 Y-47.9067 F200.00
G01 X-10.2748 Y-49.0282 F200.00
G01 X-9.1882 Y-50.0486 F200.00
G01 X-8.0072 Y-50.9580 F200.00
G01 X-6.7431 Y-51.7479 F200.00
G01 X-5.4080 Y-52.4107 F200.00
G01 X-4.0146 Y-52.9400 F200.00
G01 X-2.5762 Y-53.3308 F200.00
G01 X-1.1065 Y-53.5794 F200.00
G01 X0.3805 Y-53.6834 F200.00
G01 X1.8705 Y-53.6417 F200.00
G01 X3.3493 Y-53.4549 F200.00
G01 X4.8028 Y-53.1247 F200.00
G01 X6.2172 Y-52.6542 F200.00
G01 X7.5789 Y-52.0479 F200.00
G01 X8.8750 Y-51.3117 F200.00
G01 X10.0930 Y-50.4525 F200.00
G01 X11.2213 Y-49.4785 F200.00
G01 X12.2493 Y-48.3990 F200.00
G01 X13.1669 Y-47.2245 F200.00
G01 X13.9656 Y-45.9659 F200.00
G01 X14.6377 Y-44.6355 F200.00
G01 X15.1767 Y-43.2458 F200.00
G01 X15.5776 Y-41.8101 F200.00
G01 X15.8364 Y-40.3422 F200.00
G01 X15.9511 Y-38.8518 F200.00
G01 X15.9569 Y-38.4342 F200.00
G01 X15.8839 Y-36.9412 F200.00
G01 X15.6661 Y-35.4666 F200.00
G01 X15.3055 Y-34.0203 F200.00
G01 X14.8055 Y-32.6161 F200.00
G01 X14.1709 Y-31.2674 F200.00
G01 X13.4076 Y-29.9871 F200.00
G01 X12.5231 Y-28.7873 F200.00
G01 X11.5257 Y-27.6796 F200.00
G01 X10.4250 Y-26.6745 F200.00
G01 X9.2314 Y-25.7816 F200.00
G01 X7.9565 Y-25.0095 F200.00
G01 X6.6122 Y-24.3654 F200.00
G01 X5.2115 Y-23.8556 F200.00
G01 X3.7678 Y-23.4849 F200.00
G01 X2.2948 Y-23.2569 F200.00
G01 X0.8065 Y-23.1737 F200.00
G01 X-0.6828 Y-23.2361 F200.00
G01 X-2.1588 Y-23.4435 F200.00
G01 X-3.6076 Y-23.7940 F200.00
G01 X-5.0153 Y-24.2842 F200.00
G01 X-6.3684 Y-24.9094 F200.00
G01 X-7.6540 Y-25.6637 F200.00
G01 X-8.8599 Y-26.5399 F200.00
G01 X-9.9746 Y-27.5295 F200.00
G01 X-10.9873 Y-28.6232 F200.00
G01 X-11.8885 Y-29.8105 F200.00
G01 X-12.6696 Y-31.0800 F200.00
G01 X-13.3230 Y-32.4197 F200.00
G01 X-13.8426 Y-33.8168 F200.00
G01 X-14.2233 Y-35.2580 F200.00
G01 X-14.4616 Y-36.7294 F200.00
G01 X-14.5552 Y-38.2170 F200.00
G01 X-14.5032 Y-39.7066 F200.00
G00 Z2.5400
G00 X-14.7084 Y-38.2148
G01 F100.00
G01 Z-0.1000
G01 F200.00
G01 X-14.6558 Y-39.7195 F200.00
G01 X-14.4567 Y-41.2118 F200.00
G01 X-14.1129 Y-42.6775 F200.00
G01 X-13.6278 Y-44.1028 F200.00
G01 X-13.0058 Y-45.4738 F200.00
G01 X-12.2530 Y-46.7777 F200.00
G01 X-11.3766 Y-48.0018 F200.00
G01 X-10.3849 Y-49.1346 F200.00
G01 X-9.2875 Y-50.1652 F200.00
G01 X-8.0946 Y-51.0838 F200.00
G01 X-6.8179 Y-51.8816 F200.00
G01 X-5.4693 Y-52.5511 F200.00
G01 X-4.0619 Y-53.0857 F200.00
G01 X-2.6090 Y-53.4804 F200.00
G01 X-1.1246 Y-53.7315 F200.00
G01 X0.3773 Y-53.8365 F200.00
G01 X1.8822 Y-53.7945 F200.00
G01 X3.3759 Y-53.6058 F200.00
G01 X4.8440 Y-53.2722 F200.00
G01 X6.2726 Y-52.7970 F200.00
G01 X7.6480 Y-52.1847 F200.00
G01 X8.9570 Y-51.4410 F200.00
G01 X10.1873 Y-50.5732 F200.00
G01 X11.3270 Y-49.5894 F200.00
G01 X12.3652 Y-48.4991 F200.00
G01 X13.2921 Y-47.3128 F200.00
G01 X14.0988 Y-46.0416 F200.00
G01 X14.7776 Y-44.6978 F200.00
G01 X15.3221 Y-43.2941 F200.00
G01 X15.7269 Y-41.8440 F200.00
G01 X15.9884 Y-40.3614 F200.00
G01 X16.1040 Y-38.8587 F200.00
G01 X16.1100 Y-38.4316 F200.00
G01 X16.0363 Y-36.9263 F200.00
G01 X15.8164 Y-35.4369 F200.00
G01 X15.4522 Y-33.9761 F200.00
G01 X14.9472 Y-32.5577 F200.00
G01 X14.3061 Y-31.1955 F200.00
G01 X13.5352 Y-29.9023 F200.00
G01 X12.6418 Y-28.6905 F200.00
G01 X11.6344 Y-27.5717 F200.00
G01 X10.5226 Y-26.5565 F200.00
G01 X9.3171 Y-25.6546 F200.00
G01 X8.0293 Y-24.8747 F200.00
G01 X6.6716 Y-24.2242 F200.00
G01 X5.2568 Y-23.7093 F200.00
G01 X3.7986 Y-23.3349 F200.00
G01 X2.3108 Y-23.1045 F200.00
G01 X0.8076 Y-23.0205 F200.00
G01 X-0.6966 Y-23.0835 F200.00
G01 X-2.1875 Y-23.2931 F200.00
G01 X-3.6509 Y-23.6471 F200.00
G01 X-5.0726 Y-24.1422 F200.00
G01 X-6.4393 Y-24.7737 F200.00
G01 X-7.7379 Y-25.5356 F200.00
G01 X-8.9559 Y-26.4205 F200.00
G01 X-10.0817 Y-27.4201 F200.00
G01 X-11.1047 Y-28.5247 F200.00
G01 X-12.0149 Y-29.7239 F200.00
G01 X-12.8038 Y-31.0062 F200.00
G01 X-13.4638 Y-32.3594 F200.00
G01 X-13.9886 Y-33.7705 F200.00
G01 X-14.3731 Y-35.2261 F200.00
G01 X-14.6139 Y-36.7123 F200.00
G01 X-14.7084 Y-38.2148 F200.00
G01 X-14.6558 Y-39.7195 F200.00
G00 Z2.5400
G00 X-20.2187 Y-38.2829
G01 F100.00
G01 Z-0.1000
G01 F200.00
G01 X-20.2363 Y-38.3254 F200.00
G01 X-20.2520 Y-38.3782 F200.00
G01 X-20.2623 Y-38.4380 F200.00
G01 X-20.2652 Y-38.4909 F200.00
G01 X-20.2623 Y-38.5438 F200.00
G01 X-20.2520 Y-38.6036 F200.00
G01 X-20.2363 Y-38.6564 F200.00
G01 X-20.2144 Y-38.7080 F200.00
G01 X-20.1911 Y-38.7500 F200.00
G01 X-20.1590 Y-38.7956 F200.00
G01 X-20.1217 Y-38.8374 F200.00
G01 X-20.0799 Y-38.8747 F200.00
G01 X-20.0343 Y-38.9068 F200.00
G01 X-19.9832 Y-38.9344 F200.00
G01 X-19.9323 Y-38.9549 F200.00
G01 X-19.8879 Y-38.9677 F200.00
G01 X-19.8722 Y-38.9708 F200.00
G01 X-19.7618 Y-40.7241 F200.00
G01 X-19.4390 Y-42.7152 F200.00
G01 X-18.9258 Y-44.6570 F200.00
G01 X-18.2245 Y-46.5424 F200.00
G01 X-17.3452 Y-48.3454 F200.00
G01 X-16.2911 Y-50.0595 F200.00
G01 X-15.0716 Y-51.6664 F200.00
G01 X-13.7067 Y-53.1403 F200.00
G01 X-12.2039 Y-54.4748 F200.00
G01 X-10.5727 Y-55.6600 F200.00
G01 X-8.8413 Y-56.6758 F200.00
G01 X-7.0172 Y-57.5190 F200.00
G01 X-5.1165 Y-58.1813 F200.00
G01 X-3.1590 Y-58.6551 F200.00
G01 X-1.1669 Y-58.9352 F200.00
G01 X0.8431 Y-59.0195 F200.00
G01 X2.8528 Y-58.9071 F200.00
G01 X4.8397 Y-58.5995 F200.00
G01 X6.7905 Y-58.0986 F200.00
G01 X8.6806 Y-57.4104 F200.00
G01 X10.4969 Y-56.5398 F200.00
G01 X12.2174 Y-55.4973 F200.00
G01 X13.8258 Y-54.2939 F200.00
G01 X15.3098 Y-52.9386 F200.00
G01 X16.6584 Y-51.4406 F200.00
G01 X17.8473 Y-49.8279 F200.00
G01 X18.8809 Y-48.0944 F200.00
G01 X19.7354 Y-46.2785 F200.00
G01 X20.4113 Y-44.3810 F200.00
G01 X20.8974 Y-42.4313 F200.00
G01 X21.1917 Y-40.4394 F200.00
G01 X21.2900 Y-38.4300 F200.00
G01 X21.2817 Y-37.8507 F200.00
G01 X21.1281 Y-35.8538 F200.00
G01 X20.7788 Y-33.8706 F200.00
G01 X20.2373 Y-31.9307 F200.00
G01 X19.5099 Y-30.0553 F200.00
G01 X18.6033 Y-28.2605 F200.00
G01 X17.5275 Y-26.5649 F200.00
G01 X16.2893 Y-24.9795 F200.00
G01 X14.9008 Y-23.5208 F200.00
G01 X13.3796 Y-22.2074 F200.00
G01 X11.7363 Y-21.0477 F200.00
G01 X9.9832 Y-20.0515 F200.00
G01 X8.1499 Y-19.2351 F200.00
G01 X6.2387 Y-18.5990 F200.00
G01 X4.2797 Y-18.1537 F200.00
G01 X2.2817 Y-17.9009 F200.00
G01 X0.2707 Y-17.8445 F200.00
G01 X-1.7362 Y-17.9847 F200.00
G01 X-3.7216 Y-18.3204 F200.00
G01 X-5.6584 Y-18.8465 F200.00
G01 X-7.5391 Y-19.5604 F200.00
G01 X-9.3448 Y-20.4564 F200.00
G01 X-11.0536 Y-21.5244 F200.00
G01 X-12.6450 Y-22.7501 F200.00
G01 X-14.1101 Y-24.1259 F200.00
G01 X-15.4377 Y-25.6425 F200.00
G01 X-16.6048 Y-27.2726 F200.00
G01 X-17.6110 Y-29.0145 F200.00
G01 X-18.4427 Y-30.8469 F200.00
G01 X-19.0911 Y-32.7504 F200.00
G01 X-19.5515 Y-34.7117 F200.00
G01 X-19.8177 Y-36.7056 F200.00
G01 X-19.8634 Y-38.0095 F200.00
G01 X-19.8879 Y-38.0141 F200.00
G01 X-19.9323 Y-38.0269 F200.00
G01 X-19.9832 Y-38.0474 F200.00
G01 X-20.0343 Y-38.0750 F200.00
G01 X-20.0799 Y-38.1071 F200.00
G01 X-20.1217 Y-38.1444 F200.00
G01 X-20.1590 Y-38.1863 F200.00
G01 X-20.1911 Y-38.2318 F200.00
G01 X-20.2144 Y-38.2738 F200.00
G01 X-20.2187 Y-38.2829 F200.00
G01 X-20.2363 Y-38.3254 F200.00
G00 Z2.5400
G00 X-20.3600 Y-38.2244
G01 F100.00
G01 Z-0.1000
G01 F200.00
G01 X-20.3784 Y-38.2685 F200.00
G01 X-20.3863 Y-38.2915 F200.00
G01 X-20.3996 Y-38.3380 F200.00
G01 X-20.4048 Y-38.3612 F200.00
G01 X-20.4123 Y-38.4054 F200.00
G01 X-20.4147 Y-38.4241 F200.00
G01 X-20.4178 Y-38.4773 F200.00
G01 X-20.4178 Y-38.5045 F200.00
G01 X-20.4153 Y-38.5493 F200.00
G01 X-20.4123 Y-38.5764 F200.00
G01 X-20.4048 Y-38.6206 F200.00
G01 X-20.3996 Y-38.6438 F200.00
G01 X-20.3863 Y-38.6903 F200.00
G01 X-20.3784 Y-38.7133 F200.00
G01 X-20.3601 Y-38.7574 F200.00
G01 X-20.3483 Y-38.7820 F200.00
G01 X-20.3223 Y-38.8287 F200.00
G01 X-20.3121 Y-38.8443 F200.00
G01 X-20.2798 Y-38.8895 F200.00
G01 X-20.2692 Y-38.9022 F200.00
G01 X-20.2299 Y-38.9456 F200.00
G01 X-20.1865 Y-38.9848 F200.00
G01 X-20.1738 Y-38.9954 F200.00
G01 X-20.1287 Y-39.0278 F200.00
G01 X-20.1131 Y-39.0380 F200.00
G01 X-20.0663 Y-39.0640 F200.00
G01 X-20.0418 Y-39.0758 F200.00
G01 X-20.0182 Y-39.0855 F200.00
G01 X-19.9140 Y-40.7393 F200.00
G01 X-19.5919 Y-42.7310 F200.00
G01 X-19.5870 Y-42.7543 F200.00
G01 X-19.0709 Y-44.7054 F200.00
G01 X-18.3643 Y-46.6045 F200.00
G01 X-17.4827 Y-48.4125 F200.00
G01 X-17.4713 Y-48.4333 F200.00
G01 X-16.4209 Y-50.1406 F200.00
G01 X-16.4084 Y-50.1587 F200.00
G01 X-15.1975 Y-51.7541 F200.00
G01 X-15.1868 Y-51.7672 F200.00
G01 X-13.8149 Y-53.2485 F200.00
G01 X-12.3035 Y-54.5909 F200.00
G01 X-12.2882 Y-54.6030 F200.00
G01 X-10.6679 Y-55.7803 F200.00
G01 X-10.6538 Y-55.7897 F200.00
G01 X-8.9156 Y-56.8096 F200.00
G01 X-8.8995 Y-56.8178 F200.00
G01 X-7.0814 Y-57.6579 F200.00
G01 X-7.0593 Y-57.6668 F200.00
G01 X-5.1648 Y-58.3265 F200.00
G01 X-5.1451 Y-58.3321 F200.00
G01 X-3.1890 Y-58.8052 F200.00
G01 X-1.1821 Y-59.0874 F200.00
G01 X0.8431 Y-59.1725 F200.00
G01 X2.8697 Y-59.0592 F200.00
G01 X4.8698 Y-58.7496 F200.00
G01 X6.8224 Y-58.2486 F200.00
G01 X6.8389 Y-58.2437 F200.00
G01 X8.7272 Y-57.5565 F200.00
G01 X8.7428 Y-57.5503 F200.00
G01 X10.5553 Y-56.6819 F200.00
G01 X10.5762 Y-56.6706 F200.00
G01 X12.2893 Y-55.6331 F200.00
G01 X12.3090 Y-55.6198 F200.00
G01 X13.9128 Y-54.4201 F200.00
G01 X13.9253 Y-54.4100 F200.00
G01 X15.4180 Y-53.0468 F200.00
G01 X16.7669 Y-51.5492 F200.00
G01 X16.7808 Y-51.5324 F200.00
G01 X17.9705 Y-49.9187 F200.00
G01 X17.9836 Y-49.8990 F200.00
G01 X19.0092 Y-48.1786 F200.00
G01 X19.0178 Y-48.1628 F200.00
G01 X19.8752 Y-46.3406 F200.00
G01 X19.8821 Y-46.3235 F200.00
G01 X20.5578 Y-44.4250 F200.00
G01 X21.0468 Y-42.4645 F200.00
G01 X21.0500 Y-42.4473 F200.00
G01 X21.3440 Y-40.4546 F200.00
G01 X21.4430 Y-38.4300 F200.00
G01 X21.4343 Y-37.8390 F200.00
G01 X21.2806 Y-35.8420 F200.00
G01 X21.2777 Y-35.8185 F200.00
G01 X20.9288 Y-33.8406 F200.00
G01 X20.9246 Y-33.8229 F200.00
G01 X20.3825 Y-31.8824 F200.00
G01 X19.6497 Y-29.9932 F200.00
G01 X18.7371 Y-28.1862 F200.00
G01 X17.6566 Y-26.4829 F200.00
G01 X17.6430 Y-26.4635 F200.00
G01 X16.4099 Y-24.8853 F200.00
G01 X16.3944 Y-24.8673 F200.00
G01 X15.0090 Y-23.4127 F200.00
G01 X14.9960 Y-23.4005 F200.00
G01 X13.4792 Y-22.0913 F200.00
G01 X13.4611 Y-22.0772 F200.00
G01 X11.8245 Y-20.9227 F200.00
G01 X11.8045 Y-20.9100 F200.00
G01 X10.0517 Y-19.9146 F200.00
G01 X8.2120 Y-19.0953 F200.00
G01 X8.1900 Y-19.0868 F200.00
G01 X6.2827 Y-18.4524 F200.00
G01 X6.2667 Y-18.4482 F200.00
G01 X4.3136 Y-18.0045 F200.00
G01 X4.2902 Y-18.0004 F200.00
G01 X2.2969 Y-17.7486 F200.00
G01 X2.2795 Y-17.7475 F200.00
G01 X0.2707 Y-17.6915 F200.00
G01 X0.2537 Y-17.6921 F200.00
G01 X-1.7515 Y-17.8324 F200.00
G01 X-1.7678 Y-17.8346 F200.00
G01 X-3.7548 Y-18.1710 F200.00
G01 X-5.6986 Y-18.6988 F200.00
G01 X-5.7211 Y-18.7062 F200.00
G01 X-7.5934 Y-19.4174 F200.00
G01 X-7.6152 Y-19.4269 F200.00
G01 X-9.4191 Y-20.3227 F200.00
G01 X-11.1284 Y-21.3904 F200.00
G01 X-11.1454 Y-21.4020 F200.00
G01 X-12.7446 Y-22.6340 F200.00
G01 X-14.2183 Y-24.0177 F200.00
G01 X-14.2293 Y-24.0294 F200.00
G01 X-15.5486 Y-25.5364 F200.00
G01 X-15.5601 Y-25.5507 F200.00
G01 X-16.7292 Y-27.1835 F200.00
G01 X-16.7421 Y-27.2035 F200.00
G01 X-17.7435 Y-28.9380 F200.00
G01 X-17.7543 Y-28.9591 F200.00
G01 X-18.5825 Y-30.7848 F200.00
G01 X-18.5905 Y-30.8051 F200.00
G01 X-19.2359 Y-32.7011 F200.00
G01 X-19.2424 Y-32.7239 F200.00
G01 X-19.7015 Y-34.6817 F200.00
G01 X-19.7041 Y-34.6972 F200.00
G01 X-19.9699 Y-36.6904 F200.00
G01 X-19.9710 Y-36.7061 F200.00
G01 X-20.0124 Y-37.8939 F200.00
G01 X-20.0418 Y-37.9060 F200.00
G01 X-20.0663 Y-37.9178 F200.00
G01 X-20.1131 Y-37.9438 F200.00
G01 X-20.1287 Y-37.9540 F200.00
G01 X-20.1738 Y-37.9864 F200.00
G01 X-20.1865 Y-37.9970 F200.00
G01 X-20.2299 Y-38.0362 F200.00
G01 X-20.2692 Y-38.0796 F200.00
G01 X-20.2798 Y-38.0923 F200.00
G01 X-20.3121 Y-38.1375 F200.00
G01 X-20.3223 Y-38.1531 F200.00
G01 X-20.3483 Y-38.1998 F200.00
G01 X-20.3600 Y-38.2244 F200.00
G01 X-20.3784 Y-38.2685 F200.00
G00 Z2.5400
G00 X-20.5546 Y-38.1332
G01 F100.00
G01 Z-0.1000
G01 F200.00
G01 X-20.4822 Y-40.2087 F200.00
G01 X-20.2075 Y-42.2672 F200.00
G01 X-19.7333 Y-44.2891 F200.00
G01 X-19.0640 Y-46.2551 F200.00
G01 X-18.2061 Y-48.1464 F200.00
G01 X-17.1677 Y-49.9449 F200.00
G01 X-15.9587 Y-51.6336 F200.00
G01 X-14.5908 Y-53.1962 F200.00
G01 X-13.0769 Y-54.6178 F200.00
G01 X-11.4315 Y-55.8849 F200.00
G01 X-9.6703 Y-56.9855 F200.00
G01 X-7.8101 Y-57.9089 F200.00
G01 X-5.8687 Y-58.6463 F200.00
G01 X-3.8646 Y-59.1908 F200.00
G01 X-1.8169 Y-59.5372 F200.00
G01 X0.2548 Y-59.6820 F200.00
G01 X2.3308 Y-59.6241 F200.00
G01 X4.3912 Y-59.3638 F200.00
G01 X6.4164 Y-58.9037 F200.00
G01 X8.3869 Y-58.2481 F200.00
G01 X10.2842 Y-57.4034 F200.00
G01 X12.0899 Y-56.3776 F200.00
G01 X13.7869 Y-55.1805 F200.00
G01 X15.3590 Y-53.8235 F200.00
G01 X16.7912 Y-52.3196 F200.00
G01 X18.0698 Y-50.6831 F200.00
G01 X19.1826 Y-48.9296 F200.00
G01 X20.1190 Y-47.0759 F200.00
G01 X20.8700 Y-45.1397 F200.00
G01 X21.4285 Y-43.1394 F200.00
G01 X21.7891 Y-41.0942 F200.00
G01 X21.9487 Y-39.0193 F200.00
G01 X21.9569 Y-38.4342 F200.00
G01 X21.8553 Y-36.3557 F200.00
G01 X21.5519 Y-34.3012 F200.00
G01 X21.0495 Y-32.2861 F200.00
G01 X20.3528 Y-30.3297 F200.00
G01 X19.4686 Y-28.4506 F200.00
G01 X18.4052 Y-26.6667 F200.00
G01 X17.1728 Y-24.9951 F200.00
G01 X15.7831 Y-23.4518 F200.00
G01 X14.2495 Y-22.0514 F200.00
G01 X12.5866 Y-20.8074 F200.00
G01 X10.8102 Y-19.7316 F200.00
G01 X8.9373 Y-18.8342 F200.00
G01 X6.9858 Y-18.1239 F200.00
G01 X4.9743 Y-17.6075 F200.00
G01 X2.9219 Y-17.2897 F200.00
G01 X0.8484 Y-17.1738 F200.00
G01 X-1.2265 Y-17.2608 F200.00
G01 X-3.2831 Y-17.5498 F200.00
G01 X-5.3017 Y-18.0381 F200.00
G01 X-7.2629 Y-18.7211 F200.00
G01 X-9.1481 Y-19.5922 F200.00
G01 X-10.9394 Y-20.6431 F200.00
G01 X-12.6195 Y-21.8638 F200.00
G01 X-14.1725 Y-23.2427 F200.00
G01 X-15.5836 Y-24.7665 F200.00
G01 X-16.8392 Y-26.4207 F200.00
G01 X-17.9274 Y-28.1895 F200.00
G01 X-18.8378 Y-30.0561 F200.00
G01 X-19.5617 Y-32.0026 F200.00
G01 X-20.0922 Y-34.0105 F200.00
G01 X-20.4242 Y-36.0605 F200.00
G01 X-20.5546 Y-38.1332 F200.00
G01 X-20.4822 Y-40.2087 F200.00
G00 Z2.5400
G00 X-20.7078 Y-38.1311
G01 F100.00
G01 Z-0.1000
G01 F200.00
G01 X-20.6348 Y-40.2215 F200.00
G01 X-20.3582 Y-42.2949 F200.00
G01 X-19.8805 Y-44.3314 F200.00
G01 X-19.2064 Y-46.3115 F200.00
G01 X-18.3423 Y-48.2164 F200.00
G01 X-17.2964 Y-50.0279 F200.00
G01 X-16.0788 Y-51.7287 F200.00
G01 X-14.7010 Y-53.3026 F200.00
G01 X-13.1762 Y-54.7345 F200.00
G01 X-11.5189 Y-56.0107 F200.00
G01 X-9.7450 Y-57.1192 F200.00
G01 X-7.8714 Y-58.0492 F200.00
G01 X-5.9160 Y-58.7920 F200.00
G01 X-3.8975 Y-59.3404 F200.00
G01 X-1.8350 Y-59.6893 F200.00
G01 X0.2516 Y-59.8352 F200.00
G01 X2.3425 Y-59.7768 F200.00
G01 X4.4178 Y-59.5146 F200.00
G01 X6.4575 Y-59.0512 F200.00
G01 X8.4423 Y-58.3910 F200.00
G01 X10.3532 Y-57.5402 F200.00
G01 X12.1720 Y-56.5070 F200.00
G01 X13.8812 Y-55.3012 F200.00
G01 X15.4647 Y-53.9344 F200.00
G01 X16.9072 Y-52.4197 F200.00
G01 X18.1950 Y-50.7714 F200.00
G01 X19.3158 Y-49.0052 F200.00
G01 X20.2589 Y-47.1382 F200.00
G01 X21.0153 Y-45.1880 F200.00
G01 X21.5778 Y-43.1733 F200.00
G01 X21.9411 Y-41.1134 F200.00
G01 X22.1017 Y-39.0262 F200.00
G01 X22.1100 Y-38.4316 F200.00
G01 X22.0077 Y-36.3408 F200.00
G01 X21.7021 Y-34.2715 F200.00
G01 X21.1961 Y-32.2419 F200.00
G01 X20.4944 Y-30.2713 F200.00
G01 X19.6038 Y-28.3787 F200.00
G01 X18.5328 Y-26.5819 F200.00
G01 X17.2915 Y-24.8983 F200.00
G01 X15.8918 Y-23.3439 F200.00
G01 X14.3472 Y-21.9334 F200.00
G01 X12.6723 Y-20.6804 F200.00
G01 X10.8831 Y-19.5968 F200.00
G01 X8.9967 Y-18.6930 F200.00
G01 X7.0311 Y-17.9776 F200.00
G01 X5.0051 Y-17.4574 F200.00
G01 X2.9379 Y-17.1374 F200.00
G01 X0.8495 Y-17.0206 F200.00
G01 X-1.2404 Y-17.1082 F200.00
G01 X-3.3118 Y-17.3993 F200.00
G01 X-5.3449 Y-17.8912 F200.00
G01 X-7.3203 Y-18.5791 F200.00
G01 X-9.2191 Y-19.4565 F200.00
G01 X-11.0233 Y-20.5150 F200.00
G01 X-12.7155 Y-21.7445 F200.00
G01 X-14.2797 Y-23.1332 F200.00
G01 X-15.7009 Y-24.6680 F200.00
G01 X-16.9656 Y-26.3341 F200.00
G01 X-18.0616 Y-28.1157 F200.00
G01 X-18.9786 Y-29.9957 F200.00
G01 X-19.7077 Y-31.9563 F200.00
G01 X-20.2420 Y-33.9786 F200.00
G01 X-20.5765 Y-36.0435 F200.00
G01 X-20.7078 Y-38.1311 F200.00
G01 X-20.6348 Y-40.2215 F200.00
G00 Z2.5400
G00 X-26.2101 Y-38.2570
G01 F100.00
G01 Z-0.1000
G01 F200.00
G01 X-26.2277 Y-38.2994 F200.00
G01 X-26.2434 Y-38.3523 F200.00
G01 X-26.2537 Y-38.4120 F200.00
G01 X-26.2566 Y-38.4649 F200.00
G01 X-26.2537 Y-38.5179 F200.00
G01 X-26.2434 Y-38.5776 F200.00
G01 X-26.2277 Y-38.6305 F200.00
G01 X-26.2058 Y-38.6820 F200.00
G01 X-26.1825 Y-38.7241 F200.00
G01 X-26.1504 Y-38.7696 F200.00
G01 X-26.1131 Y-38.8114 F200.00
G01 X-26.0713 Y-38.8487 F200.00
G01 X-26.0257 Y-38.8808 F200.00
G01 X-25.9837 Y-38.9041 F200.00
G01 X-25.9322 Y-38.9261 F200.00
G01 X-25.8787 Y-38.9419 F200.00
G01 X-25.7244 Y-41.3929 F200.00
G01 X-25.3079 Y-43.9627 F200.00
G01 X-24.6449 Y-46.4713 F200.00
G01 X-23.7393 Y-48.9060 F200.00
G01 X-22.6030 Y-51.2359 F200.00
G01 X-21.2418 Y-53.4493 F200.00
G01 X-19.6679 Y-55.5231 F200.00
G01 X-17.9047 Y-57.4272 F200.00
G01 X-15.9636 Y-59.1508 F200.00
G01 X-13.8581 Y-60.6806 F200.00
G01 X-11.6211 Y-61.9931 F200.00
G01 X-9.2648 Y-63.0821 F200.00
G01 X-6.8105 Y-63.9372 F200.00
G01 X-4.2833 Y-64.5489 F200.00
G01 X-1.7107 Y-64.9105 F200.00
G01 X0.8850 Y-65.0194 F200.00
G01 X3.4799 Y-64.8743 F200.00
G01 X6.0462 Y-64.4770 F200.00
G01 X8.5647 Y-63.8303 F200.00
G01 X11.0057 Y-62.9416 F200.00
G01 X13.3507 Y-61.8177 F200.00
G01 X15.5725 Y-60.4716 F200.00
G01 X17.6503 Y-58.9169 F200.00
G01 X19.5673 Y-57.1664 F200.00
G01 X21.3080 Y-55.2328 F200.00
G01 X22.8449 Y-53.1483 F200.00
G01 X24.1786 Y-50.9112 F200.00
G01 X25.2827 Y-48.5649 F200.00
G01 X26.1552 Y-46.1152 F200.00
G01 X26.7832 Y-43.5967 F200.00
G01 X27.1631 Y-41.0249 F200.00
G01 X27.2900 Y-38.4300 F200.00
G01 X27.2794 Y-37.6832 F200.00
G01 X27.0808 Y-35.1018 F200.00
G01 X26.6297 Y-32.5413 F200.00
G01 X25.9306 Y-30.0368 F200.00
G01 X24.9912 Y-27.6149 F200.00
G01 X23.8203 Y-25.2968 F200.00
G01 X22.4303 Y-23.1063 F200.00
G01 X20.8313 Y-21.0589 F200.00
G01 X19.0386 Y-19.1758 F200.00
G01 X17.0736 Y-17.4794 F200.00
G01 X14.9513 Y-15.9818 F200.00
G01 X12.6885 Y-14.6960 F200.00
G01 X10.3196 Y-13.6412 F200.00
G01 X7.8522 Y-12.8200 F200.00
G01 X5.3216 Y-12.2448 F200.00
G01 X2.7420 Y-11.9185 F200.00
G01 X0.1450 Y-11.8458 F200.00
G01 X-2.4467 Y-12.0269 F200.00
G01 X-5.0100 Y-12.4603 F200.00
G01 X-7.5125 Y-13.1402 F200.00
G01 X-9.9412 Y-14.0623 F200.00
G01 X-12.2720 Y-15.2189 F200.00
G01 X-14.4779 Y-16.5975 F200.00
G01 X-16.5337 Y-18.1809 F200.00
G01 X-18.4261 Y-19.9579 F200.00
G01 X-20.1399 Y-21.9156 F200.00
G01 X-21.6482 Y-24.0223 F200.00
G01 X-22.9475 Y-26.2719 F200.00
G01 X-24.0213 Y-28.6381 F200.00
G01 X-24.8586 Y-31.0966 F200.00
G01 X-25.4523 Y-33.6257 F200.00
G01 X-25.7966 Y-36.2036 F200.00
G01 X-25.8590 Y-37.9843 F200.00
G01 X-25.8793 Y-37.9881 F200.00
G01 X-25.9236 Y-38.0009 F200.00
G01 X-25.9746 Y-38.0214 F200.00
G01 X-26.0257 Y-38.0491 F200.00
G01 X-26.0713 Y-38.0812 F200.00
G01 X-26.1131 Y-38.1185 F200.00
G01 X-26.1504 Y-38.1603 F200.00
G01 X-26.1825 Y-38.2058 F200.00
G01 X-26.2058 Y-38.2479 F200.00
G01 X-26.2101 Y-38.2570 F200.00
G01 X-26.2277 Y-38.2994 F200.00
G00 Z2.5400
G00 X-26.3514 Y-38.1985
G01 F100.00
G01 Z-0.1000
G01 F200.00
G01 X-26.3698 Y-38.2426 F200.00
G01 X-26.3777 Y-38.2656 F200.00
G01 X-26.3910 Y-38.3120 F200.00
G01 X-26.3962 Y-38.3352 F200.00
G01 X-26.4037 Y-38.3795 F200.00
G01 X-26.4061 Y-38.3982 F200.00
G01 X-26.4092 Y-38.4513 F200.00
G01 X-26.4092 Y-38.4786 F200.00
G01 X-26.4067 Y-38.5234 F200.00
G01 X-26.4037 Y-38.5504 F200.00
G01 X-26.3962 Y-38.5947 F200.00
G01 X-26.3910 Y-38.6179 F200.00
G01 X-26.3777 Y-38.6643 F200.00
G01 X-26.3698 Y-38.6873 F200.00
G01 X-26.3515 Y-38.7315 F200.00
G01 X-26.3397 Y-38.7560 F200.00
G01 X-26.3137 Y-38.8028 F200.00
G01 X-26.3035 Y-38.8184 F200.00
G01 X-26.2712 Y-38.8635 F200.00
G01 X-26.2307 Y-38.9097 F200.00
G01 X-26.2114 Y-38.9290 F200.00
G01 X-26.1652 Y-38.9695 F200.00
G01 X-26.1201 Y-39.0018 F200.00
G01 X-26.1045 Y-39.0120 F200.00
G01 X-26.0577 Y-39.0380 F200.00
G01 X-26.0250 Y-39.0532 F200.00
G01 X-25.8766 Y-41.4081 F200.00
G01 X-25.4592 Y-43.9873 F200.00
G01 X-24.7901 Y-46.5196 F200.00
G01 X-23.8791 Y-48.9682 F200.00
G01 X-22.7405 Y-51.3030 F200.00
G01 X-22.7291 Y-51.3238 F200.00
G01 X-21.3716 Y-53.5304 F200.00
G01 X-21.3591 Y-53.5485 F200.00
G01 X-19.7937 Y-55.6108 F200.00
G01 X-19.7831 Y-55.6239 F200.00
G01 X-18.0129 Y-57.5354 F200.00
G01 X-16.0631 Y-59.2670 F200.00
G01 X-16.0478 Y-59.2790 F200.00
G01 X-13.9533 Y-60.8008 F200.00
G01 X-13.9392 Y-60.8103 F200.00
G01 X-11.6954 Y-62.1268 F200.00
G01 X-11.6793 Y-62.1350 F200.00
G01 X-9.3290 Y-63.2210 F200.00
G01 X-9.3070 Y-63.2299 F200.00
G01 X-6.8589 Y-64.0823 F200.00
G01 X-6.8392 Y-64.0880 F200.00
G01 X-4.3133 Y-64.6989 F200.00
G01 X-1.7259 Y-65.0627 F200.00
G01 X0.8850 Y-65.1724 F200.00
G01 X3.4968 Y-65.0263 F200.00
G01 X6.0762 Y-64.6270 F200.00
G01 X8.5967 Y-63.9802 F200.00
G01 X8.6131 Y-63.9754 F200.00
G01 X11.0523 Y-63.0877 F200.00
G01 X11.0679 Y-63.0814 F200.00
G01 X13.4090 Y-61.9598 F200.00
G01 X13.4299 Y-61.9485 F200.00
G01 X15.6445 Y-60.6073 F200.00
G01 X15.6642 Y-60.5941 F200.00
G01 X17.7373 Y-59.0432 F200.00
G01 X17.7499 Y-59.0331 F200.00
G01 X19.6755 Y-57.2746 F200.00
G01 X21.4166 Y-55.3414 F200.00
G01 X21.4304 Y-55.3246 F200.00
G01 X22.9680 Y-53.2391 F200.00
G01 X22.9811 Y-53.2193 F200.00
G01 X24.3068 Y-50.9954 F200.00
G01 X24.3155 Y-50.9797 F200.00
G01 X25.4225 Y-48.6271 F200.00
G01 X25.4294 Y-48.6099 F200.00
G01 X26.3017 Y-46.1592 F200.00
G01 X26.9325 Y-43.6299 F200.00
G01 X26.9357 Y-43.6127 F200.00
G01 X27.3153 Y-41.0401 F200.00
G01 X27.4430 Y-38.4300 F200.00
G01 X27.4320 Y-37.6714 F200.00
G01 X27.2333 Y-35.0900 F200.00
G01 X27.2303 Y-35.0665 F200.00
G01 X26.7797 Y-32.5113 F200.00
G01 X26.7755 Y-32.4936 F200.00
G01 X26.0757 Y-29.9885 F200.00
G01 X25.1310 Y-27.5528 F200.00
G01 X23.9540 Y-25.2225 F200.00
G01 X22.5595 Y-23.0243 F200.00
G01 X22.5458 Y-23.0049 F200.00
G01 X20.9519 Y-20.9647 F200.00
G01 X20.9363 Y-20.9468 F200.00
G01 X19.1467 Y-19.0676 F200.00
G01 X19.1337 Y-19.0555 F200.00
G01 X17.1732 Y-17.3632 F200.00
G01 X17.1551 Y-17.3491 F200.00
G01 X15.0395 Y-15.8567 F200.00
G01 X15.0194 Y-15.8440 F200.00
G01 X12.7569 Y-14.5591 F200.00
G01 X10.3817 Y-13.5014 F200.00
G01 X10.3598 Y-13.4928 F200.00
G01 X7.8962 Y-12.6734 F200.00
G01 X7.8802 Y-12.6692 F200.00
G01 X5.3555 Y-12.0956 F200.00
G01 X5.3321 Y-12.0915 F200.00
G01 X2.7572 Y-11.7663 F200.00
G01 X2.7398 Y-11.7652 F200.00
G01 X0.1450 Y-11.6928 F200.00
G01 X0.1281 Y-11.6934 F200.00
G01 X-2.4619 Y-11.8746 F200.00
G01 X-2.4782 Y-11.8768 F200.00
G01 X-5.0432 Y-12.3110 F200.00
G01 X-7.5527 Y-12.9925 F200.00
G01 X-7.5752 Y-12.9998 F200.00
G01 X-9.9955 Y-13.9192 F200.00
G01 X-10.0173 Y-13.9287 F200.00
G01 X-12.3463 Y-15.0851 F200.00
G01 X-14.5527 Y-16.4635 F200.00
G01 X-14.5697 Y-16.4751 F200.00
G01 X-16.6333 Y-18.0647 F200.00
G01 X-18.5343 Y-19.8497 F200.00
G01 X-18.5453 Y-19.8615 F200.00
G01 X-20.2507 Y-21.8095 F200.00
G01 X-20.2623 Y-21.8238 F200.00
G01 X-21.7726 Y-23.9333 F200.00
G01 X-21.7855 Y-23.9532 F200.00
G01 X-23.0800 Y-26.1954 F200.00
G01 X-23.0908 Y-26.2165 F200.00
G01 X-24.1611 Y-28.5760 F200.00
G01 X-24.1691 Y-28.5964 F200.00
G01 X-25.0035 Y-31.0473 F200.00
G01 X-25.0100 Y-31.0701 F200.00
G01 X-25.6012 Y-33.5908 F200.00
G01 X-25.6055 Y-33.6141 F200.00
G01 X-25.9489 Y-36.1884 F200.00
G01 X-25.9499 Y-36.2041 F200.00
G01 X-26.0081 Y-37.8697 F200.00
G01 X-26.0332 Y-37.8801 F200.00
G01 X-26.0577 Y-37.8919 F200.00
G01 X-26.1045 Y-37.9179 F200.00
G01 X-26.1201 Y-37.9281 F200.00
G01 X-26.1652 Y-37.9604 F200.00
G01 X-26.1779 Y-37.9710 F200.00
G01 X-26.2213 Y-38.0103 F200.00
G01 X-26.2605 Y-38.0536 F200.00
G01 X-26.2712 Y-38.0664 F200.00
G01 X-26.3035 Y-38.1115 F200.00
G01 X-26.3137 Y-38.1271 F200.00
G01 X-26.3397 Y-38.1739 F200.00
G01 X-26.3514 Y-38.1985 F200.00
G01 X-26.3698 Y-38.2426 F200.00
G00 Z2.5400
G00 X-26.5541 Y-38.0494
G01 F100.00
G01 Z-0.1000
G01 F200.00
G01 X-26.4611 Y-40.7108 F200.00
G01 X-26.1089 Y-43.3504 F200.00
G01 X-25.5008 Y-45.9430 F200.00
G01 X-24.6426 Y-48.4639 F200.00
G01 X-23.5426 Y-50.8890 F200.00
G01 X-22.2111 Y-53.1952 F200.00
G01 X-20.6609 Y-55.3604 F200.00
G01 X-18.9068 Y-57.3641 F200.00
G01 X-16.9656 Y-59.1870 F200.00
G01 X-14.8558 Y-60.8118 F200.00
G01 X-12.5974 Y-62.2230 F200.00
G01 X-10.2122 Y-63.4070 F200.00
G01 X-7.7228 Y-64.3527 F200.00
G01 X-5.1530 Y-65.0509 F200.00
G01 X-2.5273 Y-65.4950 F200.00
G01 X0.1292 Y-65.6807 F200.00
G01 X2.7911 Y-65.6064 F200.00
G01 X5.4331 Y-65.2726 F200.00
G01 X8.0299 Y-64.6826 F200.00
G01 X10.5567 Y-63.8421 F200.00
G01 X12.9894 Y-62.7590 F200.00
G01 X15.3049 Y-61.4436 F200.00
G01 X17.4809 Y-59.9086 F200.00
G01 X19.4968 Y-58.1685 F200.00
G01 X21.3332 Y-56.2401 F200.00
G01 X22.9727 Y-54.1416 F200.00
G01 X24.3996 Y-51.8932 F200.00
G01 X25.6002 Y-49.5163 F200.00
G01 X26.5632 Y-47.0336 F200.00
G01 X27.2794 Y-44.4687 F200.00
G01 X27.7418 Y-41.8462 F200.00
G01 X27.9464 Y-39.1868 F200.00
G01 X27.9569 Y-38.4342 F200.00
G01 X27.8266 Y-35.7702 F200.00
G01 X27.4376 Y-33.1358 F200.00
G01 X26.7934 Y-30.5519 F200.00
G01 X25.9001 Y-28.0433 F200.00
G01 X24.7662 Y-25.6337 F200.00
G01 X23.4027 Y-23.3464 F200.00
G01 X21.8224 Y-21.2030 F200.00
G01 X20.0406 Y-19.2240 F200.00
G01 X18.0741 Y-17.4283 F200.00
G01 X15.9418 Y-15.8332 F200.00
G01 X13.6640 Y-14.4537 F200.00
G01 X11.2624 Y-13.3030 F200.00
G01 X8.7600 Y-12.3923 F200.00
G01 X6.1807 Y-11.7300 F200.00
G01 X3.5491 Y-11.3226 F200.00
G01 X0.8903 Y-11.1740 F200.00
G01 X-1.7703 Y-11.2855 F200.00
G01 X-4.4074 Y-11.6561 F200.00
G01 X-6.9957 Y-12.2823 F200.00
G01 X-9.5105 Y-13.1580 F200.00
G01 X-11.9279 Y-14.2750 F200.00
G01 X-14.2248 Y-15.6226 F200.00
G01 X-16.3792 Y-17.1878 F200.00
G01 X-18.3705 Y-18.9558 F200.00
G01 X-20.1799 Y-20.9097 F200.00
G01 X-21.7899 Y-23.0309 F200.00
G01 X-23.1852 Y-25.2990 F200.00
G01 X-24.3526 Y-27.6924 F200.00
G01 X-25.2808 Y-30.1884 F200.00
G01 X-25.9611 Y-32.7630 F200.00
G01 X-26.3868 Y-35.3917 F200.00
G01 X-26.5541 Y-38.0494 F200.00
G01 X-26.4611 Y-40.7108 F200.00
G00 Z2.5400
G00 X-26.7072 Y-38.0473
G01 F100.00
G01 Z-0.1000
G01 F200.00
G01 X-26.6138 Y-40.7236 F200.00
G01 X-26.2596 Y-43.3780 F200.00
G01 X-25.6481 Y-45.9852 F200.00
G01 X-24.7851 Y-48.5203 F200.00
G01 X-23.6788 Y-50.9590 F200.00
G01 X-22.3398 Y-53.2782 F200.00
G01 X-20.7810 Y-55.4556 F200.00
G01 X-19.0170 Y-57.4705 F200.00
G01 X-17.0649 Y-59.3037 F200.00
G01 X-14.9432 Y-60.9376 F200.00
G01 X-12.6722 Y-62.3567 F200.00
G01 X-10.2735 Y-63.5474 F200.00
G01 X-7.7701 Y-64.4984 F200.00
G01 X-5.1859 Y-65.2005 F200.00
G01 X-2.5454 Y-65.6471 F200.00
G01 X0.1260 Y-65.8339 F200.00
G01 X2.8029 Y-65.7591 F200.00
G01 X5.4597 Y-65.4235 F200.00
G01 X8.0711 Y-64.8302 F200.00
G01 X10.6121 Y-63.9849 F200.00
G01 X13.0585 Y-62.8957 F200.00
G01 X15.3870 Y-61.5729 F200.00
G01 X17.5752 Y-60.0293 F200.00
G01 X19.6024 Y-58.2795 F200.00
G01 X21.4492 Y-56.3402 F200.00
G01 X23.0979 Y-54.2299 F200.00
G01 X24.5328 Y-51.9689 F200.00
G01 X25.7402 Y-49.5786 F200.00
G01 X26.7086 Y-47.0819 F200.00
G01 X27.4287 Y-44.5026 F200.00
G01 X27.8938 Y-41.8654 F200.00
G01 X28.0993 Y-39.1938 F200.00
G01 X28.1100 Y-38.4316 F200.00
G01 X27.9791 Y-35.7553 F200.00
G01 X27.5879 Y-33.1061 F200.00
G01 X26.9400 Y-30.5077 F200.00
G01 X26.0417 Y-27.9849 F200.00
G01 X24.9015 Y-25.5618 F200.00
G01 X23.5303 Y-23.2616 F200.00
G01 X21.9411 Y-21.1061 F200.00
G01 X20.1493 Y-19.1161 F200.00
G01 X18.1717 Y-17.3103 F200.00
G01 X16.0274 Y-15.7062 F200.00
G01 X13.7368 Y-14.3189 F200.00
G01 X11.3218 Y-13.1618 F200.00
G01 X8.8053 Y-12.2459 F200.00
G01 X6.2115 Y-11.5799 F200.00
G01 X3.5651 Y-11.1703 F200.00
G01 X0.8914 Y-11.0208 F200.00
G01 X-1.7842 Y-11.1329 F200.00
G01 X-4.4361 Y-11.5056 F200.00
G01 X-7.0389 Y-12.1353 F200.00
G01 X-9.5679 Y-13.0160 F200.00
G01 X-11.9989 Y-14.1393 F200.00
G01 X-14.3086 Y-15.4944 F200.00
G01 X-16.4751 Y-17.0684 F200.00
G01 X-18.4777 Y-18.8464 F200.00
G01 X-20.2972 Y-20.8113 F200.00
G01 X-21.9163 Y-22.9443 F200.00
G01 X-23.3195 Y-25.2252 F200.00
G01 X-24.4934 Y-27.6321 F200.00
G01 X-25.4269 Y-30.1421 F200.00
G01 X-26.1109 Y-32.7312 F200.00
G01 X-26.5391 Y-35.3746 F200.00
G01 X-26.7072 Y-38.0473 F200.00
G01 X-26.6138 Y-40.7236 F200.00
G00 Z2.5400
G00 X-32.2006 Y-38.2340
G01 F100.00
G01 Z-0.1000
G01 F200.00
G01 X-32.2182 Y-38.2764 F200.00
G01 X-32.2339 Y-38.3293 F200.00
G01 X-32.2442 Y-38.3890 F200.00
G01 X-32.2471 Y-38.4420 F200.00
G01 X-32.2442 Y-38.4949 F200.00
G01 X-32.2339 Y-38.5547 F200.00
G01 X-32.2182 Y-38.6075 F200.00
G01 X-32.2006 Y-38.6500 F200.00
G01 X-32.1729 Y-38.7011 F200.00
G01 X-32.1409 Y-38.7466 F200.00
G01 X-32.1036 Y-38.7885 F200.00
G01 X-32.0665 Y-38.8218 F200.00
G01 X-32.0586 Y-38.8281 F200.00
G01 X-32.0162 Y-38.8578 F200.00
G01 X-31.9742 Y-38.8811 F200.00
G01 X-31.9226 Y-38.9031 F200.00
G01 X-31.8851 Y-38.9144 F200.00
G01 X-31.6870 Y-42.0617 F200.00
G01 X-31.1780 Y-45.2048 F200.00
G01 X-30.3641 Y-48.2855 F200.00
G01 X-29.2541 Y-51.2697 F200.00
G01 X-27.8609 Y-54.1264 F200.00
G01 X-26.1925 Y-56.8391 F200.00
G01 X-24.2642 Y-59.3799 F200.00
G01 X-22.1027 Y-61.7140 F200.00
G01 X-19.7232 Y-63.8268 F200.00
G01 X-17.1435 Y-65.7012 F200.00
G01 X-14.4008 Y-67.3103 F200.00
G01 X-11.5125 Y-68.6452 F200.00
G01 X-8.5046 Y-69.6931 F200.00
G01 X-5.4075 Y-70.4426 F200.00
G01 X-2.2545 Y-70.8858 F200.00
G01 X0.9269 Y-71.0192 F200.00
G01 X4.1071 Y-70.8414 F200.00
G01 X7.2527 Y-70.3544 F200.00
G01 X10.3390 Y-69.5619 F200.00
G01 X13.3308 Y-68.4728 F200.00
G01 X16.2044 Y-67.0956 F200.00
G01 X18.9277 Y-65.4458 F200.00
G01 X21.4749 Y-63.5400 F200.00
G01 X23.8247 Y-61.3943 F200.00
G01 X25.9577 Y-59.0250 F200.00
G01 X27.8424 Y-56.4686 F200.00
G01 X29.4763 Y-53.7281 F200.00
G01 X30.8300 Y-50.8513 F200.00
G01 X31.8991 Y-47.8494 F200.00
G01 X32.6689 Y-44.7621 F200.00
G01 X33.1344 Y-41.6104 F200.00
G01 X33.2900 Y-38.4300 F200.00
G01 X33.2771 Y-37.5156 F200.00
G01 X33.0335 Y-34.3498 F200.00
G01 X32.4806 Y-31.2120 F200.00
G01 X31.6239 Y-28.1429 F200.00
G01 X30.4725 Y-25.1745 F200.00
G01 X29.0373 Y-22.3332 F200.00
G01 X27.3332 Y-19.6477 F200.00
G01 X25.3733 Y-17.1384 F200.00
G01 X23.1763 Y-14.8308 F200.00
G01 X20.7676 Y-12.7513 F200.00
G01 X18.1662 Y-10.9158 F200.00
G01 X15.3938 Y-9.3405 F200.00
G01 X12.4894 Y-8.0472 F200.00
G01 X9.4658 Y-7.0410 F200.00
G01 X6.3635 Y-6.3360 F200.00
G01 X3.2023 Y-5.9362 F200.00
G01 X0.0194 Y-5.8471 F200.00
G01 X-3.1571 Y-6.0691 F200.00
G01 X-6.2984 Y-6.6003 F200.00
G01 X-9.3666 Y-7.4338 F200.00
G01 X-12.3433 Y-8.5641 F200.00
G01 X-15.1991 Y-9.9814 F200.00
G01 X-17.9022 Y-11.6707 F200.00
G01 X-20.4225 Y-13.6117 F200.00
G01 X-22.7422 Y-15.7900 F200.00
G01 X-24.8420 Y-18.1887 F200.00
G01 X-26.6916 Y-20.7721 F200.00
G01 X-28.2840 Y-23.5293 F200.00
G01 X-29.6000 Y-26.4294 F200.00
G01 X-30.6262 Y-29.4428 F200.00
G01 X-31.3537 Y-32.5426 F200.00
G01 X-31.7756 Y-35.7015 F200.00
G01 X-31.8547 Y-37.9622 F200.00
G01 X-31.8698 Y-37.9652 F200.00
G01 X-31.9141 Y-37.9779 F200.00
G01 X-31.9651 Y-37.9984 F200.00
G01 X-32.0162 Y-38.0261 F200.00
G01 X-32.0617 Y-38.0582 F200.00
G01 X-32.1036 Y-38.0955 F200.00
G01 X-32.1409 Y-38.1373 F200.00
G01 X-32.1729 Y-38.1829 F200.00
G01 X-32.1962 Y-38.2249 F200.00
G01 X-32.2006 Y-38.2340 F200.00
G01 X-32.2182 Y-38.2764 F200.00
G00 Z2.5400
G00 X-32.3418 Y-38.1755
G01 F100.00
G01 Z-0.1000
G01 F200.00
G01 X-32.3603 Y-38.2196 F200.00
G01 X-32.3681 Y-38.2426 F200.00
G01 X-32.3815 Y-38.2890 F200.00
G01 X-32.3866 Y-38.3123 F200.00
G01 X-32.3941 Y-38.3565 F200.00
G01 X-32.3966 Y-38.3752 F200.00
G01 X-32.3997 Y-38.4284 F200.00
G01 X-32.3997 Y-38.4556 F200.00
G01 X-32.3972 Y-38.5004 F200.00
G01 X-32.3941 Y-38.5275 F200.00
G01 X-32.3866 Y-38.5717 F200.00
G01 X-32.3815 Y-38.5949 F200.00
G01 X-32.3681 Y-38.6414 F200.00
G01 X-32.3603 Y-38.6643 F200.00
G01 X-32.3420 Y-38.7085 F200.00
G01 X-32.3302 Y-38.7331 F200.00
G01 X-32.3041 Y-38.7798 F200.00
G01 X-32.2940 Y-38.7954 F200.00
G01 X-32.2616 Y-38.8406 F200.00
G01 X-32.2211 Y-38.8867 F200.00
G01 X-32.2018 Y-38.9060 F200.00
G01 X-32.1684 Y-38.9359 F200.00
G01 X-32.1471 Y-38.9529 F200.00
G01 X-32.1105 Y-38.9789 F200.00
G01 X-32.0949 Y-38.9890 F200.00
G01 X-32.0482 Y-39.0150 F200.00
G01 X-32.0316 Y-39.0229 F200.00
G01 X-31.8393 Y-42.0769 F200.00
G01 X-31.3281 Y-45.2348 F200.00
G01 X-30.5092 Y-48.3339 F200.00
G01 X-29.3940 Y-51.3318 F200.00
G01 X-27.9984 Y-54.1935 F200.00
G01 X-27.9869 Y-54.2143 F200.00
G01 X-26.3223 Y-56.9202 F200.00
G01 X-26.3097 Y-56.9383 F200.00
G01 X-24.3900 Y-59.4675 F200.00
G01 X-24.3793 Y-59.4806 F200.00
G01 X-22.2109 Y-61.8222 F200.00
G01 X-19.8228 Y-63.9430 F200.00
G01 X-19.8075 Y-63.9551 F200.00
G01 X-17.2386 Y-65.8214 F200.00
G01 X-17.2246 Y-65.8309 F200.00
G01 X-14.4751 Y-67.4440 F200.00
G01 X-14.4590 Y-67.4522 F200.00
G01 X-11.5766 Y-68.7841 F200.00
G01 X-11.5546 Y-68.7930 F200.00
G01 X-8.5529 Y-69.8382 F200.00
G01 X-8.5332 Y-69.8439 F200.00
G01 X-5.4375 Y-70.5926 F200.00
G01 X-2.2697 Y-71.0380 F200.00
G01 X0.9269 Y-71.1722 F200.00
G01 X4.1240 Y-70.9935 F200.00
G01 X7.2827 Y-70.5045 F200.00
G01 X10.3709 Y-69.7119 F200.00
G01 X10.3874 Y-69.7071 F200.00
G01 X13.3774 Y-68.6189 F200.00
G01 X13.3929 Y-68.6126 F200.00
G01 X16.2628 Y-67.2377 F200.00
G01 X16.2837 Y-67.2264 F200.00
G01 X18.9996 Y-65.5816 F200.00
G01 X19.0193 Y-65.5683 F200.00
G01 X21.5618 Y-63.6663 F200.00
G01 X21.5744 Y-63.6562 F200.00
G01 X23.9329 Y-61.5024 F200.00
G01 X26.0663 Y-59.1336 F200.00
G01 X26.0801 Y-59.1168 F200.00
G01 X27.9655 Y-56.5594 F200.00
G01 X27.9787 Y-56.5397 F200.00
G01 X29.6045 Y-53.8123 F200.00
G01 X29.6131 Y-53.7965 F200.00
G01 X30.9698 Y-50.9135 F200.00
G01 X30.9767 Y-50.8963 F200.00
G01 X32.0456 Y-47.8934 F200.00
G01 X32.8183 Y-44.7953 F200.00
G01 X32.8214 Y-44.7781 F200.00
G01 X33.2867 Y-41.6256 F200.00
G01 X33.4430 Y-38.4300 F200.00
G01 X33.4296 Y-37.5039 F200.00
G01 X33.1860 Y-34.3380 F200.00
G01 X33.1830 Y-34.3145 F200.00
G01 X32.6306 Y-31.1820 F200.00
G01 X32.6264 Y-31.1643 F200.00
G01 X31.7690 Y-28.0946 F200.00
G01 X30.6123 Y-25.1124 F200.00
G01 X29.1710 Y-22.2589 F200.00
G01 X27.4624 Y-19.5657 F200.00
G01 X27.4487 Y-19.5463 F200.00
G01 X25.4938 Y-17.0442 F200.00
G01 X25.4783 Y-17.0263 F200.00
G01 X23.2845 Y-14.7226 F200.00
G01 X23.2714 Y-14.7105 F200.00
G01 X20.8671 Y-12.6352 F200.00
G01 X20.8491 Y-12.6211 F200.00
G01 X18.2544 Y-10.7908 F200.00
G01 X18.2344 Y-10.7781 F200.00
G01 X15.4622 Y-9.2036 F200.00
G01 X12.5515 Y-7.9074 F200.00
G01 X12.5295 Y-7.8989 F200.00
G01 X9.5097 Y-6.8945 F200.00
G01 X9.4937 Y-6.8903 F200.00
G01 X6.3974 Y-6.1868 F200.00
G01 X6.3740 Y-6.1827 F200.00
G01 X3.2175 Y-5.7840 F200.00
G01 X3.2002 Y-5.7829 F200.00
G01 X0.0194 Y-5.6941 F200.00
G01 X0.0024 Y-5.6947 F200.00
G01 X-3.1723 Y-5.9168 F200.00
G01 X-3.1887 Y-5.9190 F200.00
G01 X-6.3316 Y-6.4509 F200.00
G01 X-9.4068 Y-7.2862 F200.00
G01 X-9.4293 Y-7.2935 F200.00
G01 X-12.3976 Y-8.4210 F200.00
G01 X-12.4194 Y-8.4306 F200.00
G01 X-15.2735 Y-9.8476 F200.00
G01 X-17.9770 Y-11.5366 F200.00
G01 X-17.9940 Y-11.5483 F200.00
G01 X-20.5220 Y-13.4955 F200.00
G01 X-22.8504 Y-15.6818 F200.00
G01 X-22.8614 Y-15.6935 F200.00
G01 X-24.9529 Y-18.0826 F200.00
G01 X-24.9644 Y-18.0969 F200.00
G01 X-26.8160 Y-20.6830 F200.00
G01 X-26.8289 Y-20.7030 F200.00
G01 X-28.4165 Y-23.4528 F200.00
G01 X-28.4273 Y-23.4739 F200.00
G01 X-29.7398 Y-26.3673 F200.00
G01 X-29.7478 Y-26.3876 F200.00
G01 X-30.7710 Y-29.3935 F200.00
G01 X-30.7776 Y-29.4163 F200.00
G01 X-31.5027 Y-32.5076 F200.00
G01 X-31.5069 Y-32.5310 F200.00
G01 X-31.9278 Y-35.6863 F200.00
G01 X-31.9289 Y-35.7020 F200.00
G01 X-32.0038 Y-37.8489 F200.00
G01 X-32.0236 Y-37.8571 F200.00
G01 X-32.0482 Y-37.8689 F200.00
G01 X-32.0949 Y-37.8949 F200.00
G01 X-32.1105 Y-37.9051 F200.00
G01 X-32.1557 Y-37.9374 F200.00
G01 X-32.1684 Y-37.9481 F200.00
G01 X-32.2118 Y-37.9873 F200.00
G01 X-32.2510 Y-38.0307 F200.00
G01 X-32.2616 Y-38.0434 F200.00
G01 X-32.2940 Y-38.0886 F200.00
G01 X-32.3041 Y-38.1041 F200.00
G01 X-32.3302 Y-38.1509 F200.00
G01 X-32.3418 Y-38.1755 F200.00
G01 X-32.3603 Y-38.2196 F200.00
G00 Z2.5400
G00 X-32.5535 Y-37.9657
G01 F100.00
G01 Z-0.1000
G01 F200.00
G01 X-32.4401 Y-41.2128 F200.00
G01 X-32.0104 Y-44.4335 F200.00
G01 X-31.2684 Y-47.5968 F200.00
G01 X-30.2213 Y-50.6726 F200.00
G01 X-28.8791 Y-53.6316 F200.00
G01 X-27.2545 Y-56.4454 F200.00
G01 X-25.3631 Y-59.0873 F200.00
G01 X-23.2229 Y-61.5321 F200.00
G01 X-20.8543 Y-63.7563 F200.00
G01 X-18.2801 Y-65.7387 F200.00
G01 X-15.5246 Y-67.4605 F200.00
G01 X-12.6143 Y-68.9052 F200.00
G01 X-9.5769 Y-70.0590 F200.00
G01 X-6.4414 Y-70.9109 F200.00
G01 X-3.2377 Y-71.4528 F200.00
G01 X0.0035 Y-71.6794 F200.00
G01 X3.2514 Y-71.5887 F200.00
G01 X6.4750 Y-71.1815 F200.00
G01 X9.6434 Y-70.4616 F200.00
G01 X12.7264 Y-69.4360 F200.00
G01 X15.6947 Y-68.1145 F200.00
G01 X18.5198 Y-66.5096 F200.00
G01 X21.1749 Y-64.6366 F200.00
G01 X23.6345 Y-62.5136 F200.00
G01 X25.8752 Y-60.1606 F200.00
G01 X27.8756 Y-57.6002 F200.00
G01 X29.6165 Y-54.8569 F200.00
G01 X31.0815 Y-51.9567 F200.00
G01 X32.2565 Y-48.9274 F200.00
G01 X33.1303 Y-45.7980 F200.00
G01 X33.6945 Y-42.5982 F200.00
G01 X33.9441 Y-39.3543 F200.00
G01 X33.9569 Y-38.4342 F200.00
G01 X33.7980 Y-35.1847 F200.00
G01 X33.3233 Y-31.9704 F200.00
G01 X32.5373 Y-28.8178 F200.00
G01 X31.4474 Y-25.7569 F200.00
G01 X30.0639 Y-22.8169 F200.00
G01 X28.4002 Y-20.0260 F200.00
G01 X26.4721 Y-17.4108 F200.00
G01 X24.2980 Y-14.9962 F200.00
G01 X21.8986 Y-12.8053 F200.00
G01 X19.2969 Y-10.8589 F200.00
G01 X16.5177 Y-9.1758 F200.00
G01 X13.5875 Y-7.7719 F200.00
G01 X10.5343 Y-6.6606 F200.00
G01 X7.3872 Y-5.8526 F200.00
G01 X4.1763 Y-5.3555 F200.00
G01 X0.9322 Y-5.1741 F200.00
G01 X-2.3141 Y-5.3102 F200.00
G01 X-5.5317 Y-5.7624 F200.00
G01 X-8.6897 Y-6.5264 F200.00
G01 X-11.7582 Y-7.5949 F200.00
G01 X-14.7077 Y-8.9578 F200.00
G01 X-17.5102 Y-10.6020 F200.00
G01 X-20.1388 Y-12.5118 F200.00
G01 X-22.5685 Y-14.6690 F200.00
G01 X-24.7761 Y-17.0530 F200.00
G01 X-26.7406 Y-19.6411 F200.00
G01 X-28.4431 Y-22.4085 F200.00
G01 X-29.8674 Y-25.3288 F200.00
G01 X-31.0000 Y-28.3742 F200.00
G01 X-31.8300 Y-31.5155 F200.00
G01 X-32.3495 Y-34.7229 F200.00
G01 X-32.5535 Y-37.9657 F200.00
G01 X-32.4401 Y-41.2128 F200.00
G00 Z2.5400
G00 X-32.7066 Y-37.9635
G01 F100.00
G01 Z-0.1000
G01 F200.00
G01 X-32.5927 Y-41.2257 F200.00
G01 X-32.1610 Y-44.4611 F200.00
G01 X-31.4157 Y-47.6390 F200.00
G01 X-30.3637 Y-50.7290 F200.00
G01 X-29.0153 Y-53.7016 F200.00
G01 X-27.3832 Y-56.5284 F200.00
G01 X-25.4831 Y-59.1825 F200.00
G01 X-23.3331 Y-61.6385 F200.00
G01 X-20.9536 Y-63.8729 F200.00
G01 X-18.3675 Y-65.8645 F200.00
G01 X-15.5993 Y-67.5942 F200.00
G01 X-12.6756 Y-69.0456 F200.00
G01 X-9.6242 Y-70.2047 F200.00
G01 X-6.4743 Y-71.0605 F200.00
G01 X-3.2559 Y-71.6049 F200.00
G01 X0.0003 Y-71.8326 F200.00
G01 X3.2632 Y-71.7414 F200.00
G01 X6.5016 Y-71.3323 F200.00
G01 X9.6846 Y-70.6092 F200.00
G01 X12.7818 Y-69.5788 F200.00
G01 X15.7638 Y-68.2512 F200.00
G01 X18.6019 Y-66.6389 F200.00
G01 X21.2692 Y-64.7574 F200.00
G01 X23.7401 Y-62.6245 F200.00
G01 X25.9911 Y-60.2607 F200.00
G01 X28.0007 Y-57.6885 F200.00
G01 X29.7497 Y-54.9325 F200.00
G01 X31.2215 Y-52.0190 F200.00
G01 X32.4018 Y-48.9758 F200.00
G01 X33.2796 Y-45.8319 F200.00
G01 X33.8464 Y-42.6174 F200.00
G01 X34.0970 Y-39.3613 F200.00
G01 X34.1100 Y-38.4316 F200.00
G01 X33.9504 Y-35.1698 F200.00
G01 X33.4736 Y-31.9407 F200.00
G01 X32.6839 Y-28.7735 F200.00
G01 X31.5890 Y-25.6985 F200.00
G01 X30.1992 Y-22.7450 F200.00
G01 X28.5278 Y-19.9412 F200.00
G01 X26.5908 Y-17.3140 F200.00
G01 X24.4067 Y-14.8882 F200.00
G01 X21.9963 Y-12.6872 F200.00
G01 X19.3826 Y-10.7319 F200.00
G01 X16.5906 Y-9.0410 F200.00
G01 X13.6469 Y-7.6307 F200.00
G01 X10.5796 Y-6.5143 F200.00
G01 X7.4180 Y-5.7025 F200.00
G01 X4.1923 Y-5.2031 F200.00
G01 X0.9332 Y-5.0209 F200.00
G01 X-2.3280 Y-5.1576 F200.00
G01 X-5.5604 Y-5.6119 F200.00
G01 X-8.7330 Y-6.3794 F200.00
G01 X-11.8156 Y-7.4529 F200.00
G01 X-14.7787 Y-8.8220 F200.00
G01 X-17.5940 Y-10.4738 F200.00
G01 X-20.2348 Y-12.3924 F200.00
G01 X-22.6757 Y-14.5595 F200.00
G01 X-24.8935 Y-16.9545 F200.00
G01 X-26.8670 Y-19.5545 F200.00
G01 X-28.5773 Y-22.3347 F200.00
G01 X-30.0082 Y-25.2684 F200.00
G01 X-31.1460 Y-28.3279 F200.00
G01 X-31.9798 Y-31.4837 F200.00
G01 X-32.5017 Y-34.7058 F200.00
G01 X-32.7066 Y-37.9635 F200.00
G01 X-32.5927 Y-41.2257 F200.00
G00 Z2.5400
G00 X-47.1987 Y-38.7502
G01 F100.00
G01 Z-0.1000
G01 F200.00
G01 X-47.2278 Y-38.8219 F200.00
G01 X-47.2487 Y-38.8964 F200.00
G01 X-47.2609 Y-38.9697 F200.00
G01 X-47.2649 Y-39.0400 F200.00
G01 X-47.2649 Y-39.0500 F200.00
G01 X-47.2609 Y-39.1203 F200.00
G01 X-47.2487 Y-39.1936 F200.00
G01 X-47.2278 Y-39.2681 F200.00
G01 X-47.1987 Y-39.3398 F200.00
G01 X-47.1618 Y-39.4078 F200.00
G01 X-47.1564 Y-39.4163 F200.00
G01 X-47.1151 Y-39.4743 F200.00
G01 X-47.0629 Y-39.5329 F200.00
G01 X-47.0043 Y-39.5851 F200.00
G01 X-46.9405 Y-39.6302 F200.00
G01 X-46.8789 Y-39.6644 F200.00
G01 X-46.8066 Y-39.6949 F200.00
G01 X-46.7322 Y-39.7168 F200.00
G01 X-46.6573 Y-39.7300 F200.00
G01 X-46.6472 Y-39.7311 F200.00
G01 X-46.5750 Y-39.7350 F200.00
G01 X-46.0200 Y-39.7349 F200.00
G01 X-45.9497 Y-39.7309 F200.00
G01 X-45.8764 Y-39.7187 F200.00
G01 X-45.8019 Y-39.6978 F200.00
G01 X-45.7302 Y-39.6687 F200.00
G01 X-45.7211 Y-39.6644 F200.00
G01 X-45.6595 Y-39.6302 F200.00
G01 X-45.5957 Y-39.5851 F200.00
G01 X-45.5408 Y-39.5364 F200.00
G01 X-45.5336 Y-39.5292 F200.00
G01 X-45.4849 Y-39.4743 F200.00
G01 X-45.4436 Y-39.4163 F200.00
G01 X-45.4056 Y-39.3489 F200.00
G01 X-45.3993 Y-39.3351 F200.00
G01 X-37.8633 Y-39.3351 F200.00
G01 X-37.6496 Y-42.7305 F200.00
G01 X-37.0475 Y-46.4490 F200.00
G01 X-36.0849 Y-50.0942 F200.00
G01 X-34.7690 Y-53.6333 F200.00
G01 X-33.1187 Y-57.0170 F200.00
G01 X-31.1432 Y-60.2289 F200.00
G01 X-28.8604 Y-63.2366 F200.00
G01 X-26.3007 Y-66.0008 F200.00
G01 X-23.4828 Y-68.5028 F200.00
G01 X-20.4289 Y-70.7217 F200.00
G01 X-17.1824 Y-72.6265 F200.00
G01 X-13.7520 Y-74.2116 F200.00
G01 X-10.1986 Y-75.4490 F200.00
G01 X-6.5318 Y-76.3363 F200.00
G01 X-2.7983 Y-76.8611 F200.00
G01 X0.9688 Y-77.0191 F200.00
G01 X4.7343 Y-76.8085 F200.00
G01 X8.4591 Y-76.2319 F200.00
G01 X12.1132 Y-75.2936 F200.00
G01 X15.6559 Y-74.0040 F200.00
G01 X19.0582 Y-72.3735 F200.00
G01 X22.2828 Y-70.4200 F200.00
G01 X25.2994 Y-68.1631 F200.00
G01 X28.0821 Y-65.6221 F200.00
G01 X30.6074 Y-62.8171 F200.00
G01 X32.8399 Y-59.7890 F200.00
G01 X34.7740 Y-56.5449 F200.00
G01 X36.3773 Y-53.1378 F200.00
G01 X37.6430 Y-49.5836 F200.00
G01 X38.5546 Y-45.9275 F200.00
G01 X39.1058 Y-42.1959 F200.00
G01 X39.2900 Y-38.4300 F200.00
G01 X39.2747 Y-37.3481 F200.00
G01 X38.9862 Y-33.5978 F200.00
G01 X38.3315 Y-29.8827 F200.00
G01 X37.3171 Y-26.2491 F200.00
G01 X35.9537 Y-22.7341 F200.00
G01 X34.2542 Y-19.3695 F200.00
G01 X32.2361 Y-16.1891 F200.00
G01 X29.9152 Y-13.2179 F200.00
G01 X27.3140 Y-10.4857 F200.00
G01 X24.4615 Y-8.0233 F200.00
G01 X21.3812 Y-5.8498 F200.00
G01 X18.0990 Y-3.9849 F200.00
G01 X14.6591 Y-2.4533 F200.00
G01 X11.0793 Y-1.2620 F200.00
G01 X7.4054 Y-0.4271 F200.00
G01 X3.6626 Y0.0461 F200.00
G01 X-0.1063 Y0.1516 F200.00
G01 X-3.8675 Y-0.1113 F200.00
G01 X-7.5823 Y-0.7394 F200.00
G01 X-11.2291 Y-1.7302 F200.00
G01 X-14.7535 Y-3.0694 F200.00
G01 X-18.1263 Y-4.7438 F200.00
G01 X-21.3265 Y-6.7438 F200.00
G01 X-24.3112 Y-9.0424 F200.00
G01 X-27.0582 Y-11.6220 F200.00
G01 X-29.5442 Y-14.4618 F200.00
G01 X-31.7398 Y-17.5292 F200.00
G01 X-33.6245 Y-20.7946 F200.00
G01 X-35.1786 Y-24.2207 F200.00
G01 X-36.3962 Y-27.7974 F200.00
G01 X-37.2567 Y-31.4681 F200.00
G01 X-37.7545 Y-35.1994 F200.00
G01 X-37.8526 Y-38.0023 F200.00
G01 X-37.8612 Y-38.0456 F200.00
G01 X-37.8669 Y-38.0992 F200.00
G01 X-37.8739 Y-38.1419 F200.00
G01 X-37.8777 Y-38.2088 F200.00
G01 X-37.8870 Y-38.3073 F200.00
G01 X-37.8870 Y-38.3739 F200.00
G01 X-37.8900 Y-38.4300 F200.00
G01 X-37.8870 Y-38.4861 F200.00
G01 X-37.8866 Y-38.5615 F200.00
G01 X-37.8777 Y-38.6512 F200.00
G01 X-37.8762 Y-38.6783 F200.00
G01 X-37.8789 Y-38.7549 F200.00
G01 X-45.3993 Y-38.7549 F200.00
G01 X-45.4056 Y-38.7411 F200.00
G01 X-45.4398 Y-38.6795 F200.00
G01 X-45.4825 Y-38.6188 F200.00
G01 X-45.4888 Y-38.6109 F200.00
G01 X-45.5371 Y-38.5571 F200.00
G01 X-45.5909 Y-38.5088 F200.00
G01 X-45.5988 Y-38.5025 F200.00
G01 X-45.6595 Y-38.4598 F200.00
G01 X-45.7211 Y-38.4256 F200.00
G01 X-45.7302 Y-38.4213 F200.00
G01 X-45.7934 Y-38.3951 F200.00
G01 X-45.8666 Y-38.3736 F200.00
G01 X-45.8764 Y-38.3713 F200.00
G01 X-45.9497 Y-38.3591 F200.00
G01 X-46.0250 Y-38.3550 F200.00
G01 X-46.5800 Y-38.3551 F200.00
G01 X-46.6503 Y-38.3591 F200.00
G01 X-46.7236 Y-38.3713 F200.00
G01 X-46.7981 Y-38.3922 F200.00
G01 X-46.8698 Y-38.4213 F200.00
G01 X-46.8789 Y-38.4256 F200.00
G01 X-46.9405 Y-38.4598 F200.00
G01 X-47.0043 Y-38.5049 F200.00
G01 X-47.0592 Y-38.5536 F200.00
G01 X-47.0664 Y-38.5608 F200.00
G01 X-47.1151 Y-38.6157 F200.00
G01 X-47.1564 Y-38.6737 F200.00
G01 X-47.1944 Y-38.7411 F200.00
G01 X-47.1987 Y-38.7502 F200.00
G01 X-47.2278 Y-38.8219 F200.00
G00 Z2.5400
G00 X-47.3399 Y-38.6917
G01 F100.00
G01 Z-0.1000
G01 F200.00
G01 X-47.3669 Y-38.7566 F200.00
G01 X-47.3748 Y-38.7796 F200.00
G01 X-47.3944 Y-38.8476 F200.00
G01 X-47.3995 Y-38.8708 F200.00
G01 X-47.4108 Y-38.9371 F200.00
G01 X-47.4132 Y-38.9558 F200.00
G01 X-47.4176 Y-39.0314 F200.00
G01 X-47.4176 Y-39.0586 F200.00
G01 X-47.4132 Y-39.1342 F200.00
G01 X-47.4108 Y-39.1529 F200.00
G01 X-47.3995 Y-39.2192 F200.00
G01 X-47.3944 Y-39.2424 F200.00
G01 X-47.3748 Y-39.3104 F200.00
G01 X-47.3669 Y-39.3334 F200.00
G01 X-47.3401 Y-39.3983 F200.00
G01 X-47.3283 Y-39.4229 F200.00
G01 X-47.2957 Y-39.4818 F200.00
G01 X-47.2812 Y-39.5048 F200.00
G01 X-47.2359 Y-39.5683 F200.00
G01 X-47.2253 Y-39.5810 F200.00
G01 X-47.1711 Y-39.6411 F200.00
G01 X-47.1110 Y-39.6953 F200.00
G01 X-47.0983 Y-39.7059 F200.00
G01 X-47.0348 Y-39.7512 F200.00
G01 X-47.0192 Y-39.7614 F200.00
G01 X-46.9529 Y-39.7983 F200.00
G01 X-46.9283 Y-39.8101 F200.00
G01 X-46.8634 Y-39.8369 F200.00
G01 X-46.8404 Y-39.8448 F200.00
G01 X-46.7724 Y-39.8644 F200.00
G01 X-46.7492 Y-39.8695 F200.00
G01 X-46.6829 Y-39.8808 F200.00
G01 X-46.6642 Y-39.8832 F200.00
G01 X-46.5750 Y-39.8880 F200.00
G01 X-46.0114 Y-39.8876 F200.00
G01 X-45.9358 Y-39.8832 F200.00
G01 X-45.9171 Y-39.8808 F200.00
G01 X-45.8508 Y-39.8695 F200.00
G01 X-45.8276 Y-39.8644 F200.00
G01 X-45.7596 Y-39.8448 F200.00
G01 X-45.7338 Y-39.8358 F200.00
G01 X-45.6717 Y-39.8101 F200.00
G01 X-45.6471 Y-39.7983 F200.00
G01 X-45.5808 Y-39.7614 F200.00
G01 X-45.5652 Y-39.7512 F200.00
G01 X-45.5017 Y-39.7059 F200.00
G01 X-45.4890 Y-39.6953 F200.00
G01 X-45.4289 Y-39.6411 F200.00
G01 X-45.3747 Y-39.5810 F200.00
G01 X-45.3577 Y-39.5597 F200.00
G01 X-45.3188 Y-39.5048 F200.00
G01 X-45.3079 Y-39.4881 F200.00
G01 X-38.0070 Y-39.4881 F200.00
G01 X-37.8019 Y-42.7457 F200.00
G01 X-37.1986 Y-46.4735 F200.00
G01 X-37.1936 Y-46.4967 F200.00
G01 X-36.2328 Y-50.1333 F200.00
G01 X-36.2256 Y-50.1559 F200.00
G01 X-34.9088 Y-53.6955 F200.00
G01 X-33.2562 Y-57.0840 F200.00
G01 X-33.2448 Y-57.1048 F200.00
G01 X-31.2729 Y-60.3100 F200.00
G01 X-31.2604 Y-60.3281 F200.00
G01 X-28.9863 Y-63.3242 F200.00
G01 X-28.9756 Y-63.3373 F200.00
G01 X-26.4089 Y-66.1090 F200.00
G01 X-23.5824 Y-68.6190 F200.00
G01 X-23.5671 Y-68.6311 F200.00
G01 X-20.5240 Y-70.8420 F200.00
G01 X-20.5100 Y-70.8515 F200.00
G01 X-17.2599 Y-72.7584 F200.00
G01 X-17.2388 Y-72.7694 F200.00
G01 X-13.8243 Y-74.3472 F200.00
G01 X-13.8023 Y-74.3561 F200.00
G01 X-10.2470 Y-75.5941 F200.00
G01 X-10.2273 Y-75.5998 F200.00
G01 X-6.5618 Y-76.4863 F200.00
G01 X-2.8135 Y-77.0133 F200.00
G01 X0.9688 Y-77.1721 F200.00
G01 X4.7512 Y-76.9606 F200.00
G01 X8.4892 Y-76.3819 F200.00
G01 X12.1452 Y-75.4436 F200.00
G01 X12.1616 Y-75.4387 F200.00
G01 X15.7025 Y-74.1501 F200.00
G01 X15.7180 Y-74.1438 F200.00
G01 X19.1165 Y-72.5156 F200.00
G01 X19.1374 Y-72.5043 F200.00
G01 X22.3548 Y-70.5558 F200.00
G01 X22.3745 Y-70.5425 F200.00
G01 X25.3864 Y-68.2893 F200.00
G01 X25.3990 Y-68.2793 F200.00
G01 X28.1903 Y-65.7302 F200.00
G01 X30.7159 Y-62.9257 F200.00
G01 X30.7298 Y-62.9089 F200.00
G01 X32.9631 Y-59.8798 F200.00
G01 X32.9762 Y-59.8600 F200.00
G01 X34.9022 Y-56.6291 F200.00
G01 X34.9108 Y-56.6133 F200.00
G01 X36.5171 Y-53.1999 F200.00
G01 X36.5239 Y-53.1827 F200.00
G01 X37.7896 Y-49.6276 F200.00
G01 X38.7040 Y-45.9607 F200.00
G01 X38.7072 Y-45.9435 F200.00
G01 X39.2580 Y-42.2111 F200.00
G01 X39.4430 Y-38.4300 F200.00
G01 X39.4273 Y-37.3364 F200.00
G01 X39.1387 Y-33.5860 F200.00
G01 X39.1357 Y-33.5625 F200.00
G01 X38.4815 Y-29.8527 F200.00
G01 X38.4773 Y-29.8350 F200.00
G01 X37.4623 Y-26.2007 F200.00
G01 X36.0936 Y-22.6719 F200.00
G01 X34.3880 Y-19.2952 F200.00
G01 X32.3653 Y-16.1072 F200.00
G01 X32.3516 Y-16.0878 F200.00
G01 X30.0358 Y-13.1237 F200.00
G01 X30.0203 Y-13.1057 F200.00
G01 X27.4222 Y-10.3776 F200.00
G01 X27.4091 Y-10.3654 F200.00
G01 X24.5611 Y-7.9071 F200.00
G01 X24.5430 Y-7.8930 F200.00
G01 X21.4694 Y-5.7248 F200.00
G01 X21.4494 Y-5.7121 F200.00
G01 X18.1675 Y-3.8481 F200.00
G01 X14.7212 Y-2.3135 F200.00
G01 X14.6992 Y-2.3050 F200.00
G01 X11.1232 Y-1.1155 F200.00
G01 X11.1072 Y-1.1113 F200.00
G01 X7.4393 Y-0.2779 F200.00
G01 X7.4159 Y-0.2738 F200.00
G01 X3.6779 Y0.1983 F200.00
G01 X3.6605 Y0.1994 F200.00
G01 X-0.1063 Y0.3046 F200.00
G01 X-0.1232 Y0.3040 F200.00
G01 X-3.8827 Y0.0410 F200.00
G01 X-3.8991 Y0.0388 F200.00
G01 X-7.6078 Y-0.5885 F200.00
G01 X-7.6310 Y-0.5936 F200.00
G01 X-11.2609 Y-1.5798 F200.00
G01 X-11.2834 Y-1.5872 F200.00
G01 X-14.7997 Y-2.9229 F200.00
G01 X-14.8215 Y-2.9324 F200.00
G01 X-18.2006 Y-4.6101 F200.00
G01 X-21.4012 Y-6.6097 F200.00
G01 X-21.4183 Y-6.6214 F200.00
G01 X-24.4108 Y-8.9263 F200.00
G01 X-27.1664 Y-11.5138 F200.00
G01 X-27.1774 Y-11.5256 F200.00
G01 X-29.6550 Y-14.3557 F200.00
G01 X-29.6666 Y-14.3700 F200.00
G01 X-31.8594 Y-17.4328 F200.00
G01 X-31.8723 Y-17.4527 F200.00
G01 X-33.7530 Y-20.7102 F200.00
G01 X-33.7638 Y-20.7313 F200.00
G01 X-35.3185 Y-24.1585 F200.00
G01 X-35.3264 Y-24.1789 F200.00
G01 X-36.5386 Y-27.7397 F200.00
G01 X-36.5452 Y-27.7625 F200.00
G01 X-37.4041 Y-31.4245 F200.00
G01 X-37.4084 Y-31.4479 F200.00
G01 X-37.9068 Y-35.1842 F200.00
G01 X-37.9078 Y-35.1999 F200.00
G01 X-38.0051 Y-37.9846 F200.00
G01 X-38.0113 Y-38.0158 F200.00
G01 X-38.0148 Y-38.0394 F200.00
G01 X-38.0187 Y-38.0789 F200.00
G01 X-38.0263 Y-38.1281 F200.00
G01 X-38.0303 Y-38.1970 F200.00
G01 X-38.0388 Y-38.2835 F200.00
G01 X-38.0400 Y-38.3073 F200.00
G01 X-38.0400 Y-38.3696 F200.00
G01 X-38.0430 Y-38.4300 F200.00
G01 X-38.0400 Y-38.4904 F200.00
G01 X-38.0400 Y-38.5527 F200.00
G01 X-38.0388 Y-38.5765 F200.00
G01 X-38.0363 Y-38.6019 F200.00
G01 X-45.3079 Y-38.6019 F200.00
G01 X-45.3188 Y-38.5852 F200.00
G01 X-45.3577 Y-38.5303 F200.00
G01 X-45.3747 Y-38.5090 F200.00
G01 X-45.4289 Y-38.4489 F200.00
G01 X-45.4890 Y-38.3947 F200.00
G01 X-45.5017 Y-38.3841 F200.00
G01 X-45.5652 Y-38.3388 F200.00
G01 X-45.5808 Y-38.3286 F200.00
G01 X-45.6471 Y-38.2917 F200.00
G01 X-45.6717 Y-38.2799 F200.00
G01 X-45.7338 Y-38.2542 F200.00
G01 X-45.7596 Y-38.2452 F200.00
G01 X-45.8276 Y-38.2256 F200.00
G01 X-45.8508 Y-38.2205 F200.00
G01 X-45.9171 Y-38.2092 F200.00
G01 X-45.9358 Y-38.2068 F200.00
G01 X-46.0114 Y-38.2024 F200.00
G01 X-46.5750 Y-38.2020 F200.00
G01 X-46.6642 Y-38.2068 F200.00
G01 X-46.6829 Y-38.2092 F200.00
G01 X-46.7492 Y-38.2205 F200.00
G01 X-46.7758 Y-38.2265 F200.00
G01 X-46.8404 Y-38.2452 F200.00
G01 X-46.8634 Y-38.2531 F200.00
G01 X-46.9283 Y-38.2799 F200.00
G01 X-46.9529 Y-38.2917 F200.00
G01 X-47.0192 Y-38.3286 F200.00
G01 X-47.0348 Y-38.3388 F200.00
G01 X-47.0897 Y-38.3777 F200.00
G01 X-47.1110 Y-38.3947 F200.00
G01 X-47.1711 Y-38.4489 F200.00
G01 X-47.2253 Y-38.5090 F200.00
G01 X-47.2423 Y-38.5303 F200.00
G01 X-47.2812 Y-38.5852 F200.00
G01 X-47.2914 Y-38.6008 F200.00
G01 X-47.3283 Y-38.6671 F200.00
G01 X-47.3399 Y-38.6917 F200.00
G01 X-47.3669 Y-38.7566 F200.00
G00 Z2.5400
G00 X-47.1987 Y-36.7502
G01 F100.00
G01 Z-0.1000
G01 F200.00
G01 X-47.2249 Y-36.8134 F200.00
G01 X-47.2468 Y-36.8878 F200.00
G01 X-47.2609 Y-36.9697 F200.00
G01 X-47.2650 Y-37.0450 F200.00
G01 X-47.2609 Y-37.1203 F200.00
G01 X-47.2468 Y-37.2022 F200.00
G01 X-47.2249 Y-37.2766 F200.00
G01 X-47.1944 Y-37.3489 F200.00
G01 X-47.1602 Y-37.4105 F200.00
G01 X-47.1151 Y-37.4743 F200.00
G01 X-47.0629 Y-37.5329 F200.00
G01 X-47.0043 Y-37.5851 F200.00
G01 X-46.9405 Y-37.6302 F200.00
G01 X-46.8789 Y-37.6644 F200.00
G01 X-46.8066 Y-37.6949 F200.00
G01 X-46.7322 Y-37.7168 F200.00
G01 X-46.6503 Y-37.7309 F200.00
G01 X-46.5750 Y-37.7350 F200.00
G01 X-46.0250 Y-37.7350 F200.00
G01 X-45.9497 Y-37.7309 F200.00
G01 X-45.8764 Y-37.7187 F200.00
G01 X-45.8666 Y-37.7164 F200.00
G01 X-45.7934 Y-37.6949 F200.00
G01 X-45.7211 Y-37.6644 F200.00
G01 X-45.6537 Y-37.6264 F200.00
G01 X-45.5909 Y-37.5812 F200.00
G01 X-45.5371 Y-37.5329 F200.00
G01 X-45.4888 Y-37.4791 F200.00
G01 X-45.4825 Y-37.4712 F200.00
G01 X-45.4398 Y-37.4105 F200.00
G01 X-45.4056 Y-37.3489 F200.00
G01 X-45.3751 Y-37.2766 F200.00
G01 X-45.3532 Y-37.2022 F200.00
G01 X-45.3391 Y-37.1203 F200.00
G01 X-45.3351 Y-37.0500 F200.00
G01 X-45.3351 Y-37.0400 F200.00
G01 X-45.3400 Y-36.9627 F200.00
G01 X-45.3532 Y-36.8878 F200.00
G01 X-45.3751 Y-36.8134 F200.00
G01 X-45.4056 Y-36.7411 F200.00
G01 X-45.4398 Y-36.6795 F200.00
G01 X-45.4849 Y-36.6157 F200.00
G01 X-45.5336 Y-36.5608 F200.00
G01 X-45.5909 Y-36.5088 F200.00
G01 X-45.5988 Y-36.5025 F200.00
G01 X-45.6595 Y-36.4598 F200.00
G01 X-45.7211 Y-36.4256 F200.00
G01 X-45.7302 Y-36.4213 F200.00
G01 X-45.7934 Y-36.3951 F200.00
G01 X-45.8678 Y-36.3732 F200.00
G01 X-45.9497 Y-36.3591 F200.00
G01 X-46.0250 Y-36.3550 F200.00
G01 X-46.5750 Y-36.3550 F200.00
G01 X-46.6503 Y-36.3591 F200.00
G01 X-46.7236 Y-36.3713 F200.00
G01 X-46.7334 Y-36.3736 F200.00
G01 X-46.8066 Y-36.3951 F200.00
G01 X-46.8789 Y-36.4256 F200.00
G01 X-46.9405 Y-36.4598 F200.00
G01 X-47.0043 Y-36.5049 F200.00
G01 X-47.0629 Y-36.5571 F200.00
G01 X-47.1151 Y-36.6157 F200.00
G01 X-47.1602 Y-36.6795 F200.00
G01 X-47.1944 Y-36.7411 F200.00
G01 X-47.1987 Y-36.7502 F200.00
G01 X-47.2249 Y-36.8134 F200.00
G00 Z2.5400
G00 X-47.3399 Y-36.6917
G01 F100.00
G01 Z-0.1000
G01 F200.00
G01 X-47.3669 Y-36.7566 F200.00
G01 X-47.3748 Y-36.7796 F200.00
G01 X-47.3944 Y-36.8476 F200.00
G01 X-47.3995 Y-36.8708 F200.00
G01 X-47.4108 Y-36.9371 F200.00
G01 X-47.4132 Y-36.9558 F200.00
G01 X-47.4180 Y-37.0450 F200.00
G01 X-47.4132 Y-37.1342 F200.00
G01 X-47.4108 Y-37.1529 F200.00
G01 X-47.3995 Y-37.2192 F200.00
G01 X-47.3944 Y-37.2424 F200.00
G01 X-47.3748 Y-37.3104 F200.00
G01 X-47.3669 Y-37.3334 F200.00
G01 X-47.3401 Y-37.3983 F200.00
G01 X-47.3283 Y-37.4229 F200.00
G01 X-47.2914 Y-37.4892 F200.00
G01 X-47.2812 Y-37.5048 F200.00
G01 X-47.2359 Y-37.5683 F200.00
G01 X-47.2253 Y-37.5810 F200.00
G01 X-47.1711 Y-37.6411 F200.00
G01 X-47.1110 Y-37.6953 F200.00
G01 X-47.0983 Y-37.7059 F200.00
G01 X-47.0348 Y-37.7512 F200.00
G01 X-47.0192 Y-37.7614 F200.00
G01 X-46.9529 Y-37.7983 F200.00
G01 X-46.9283 Y-37.8101 F200.00
G01 X-46.8634 Y-37.8369 F200.00
G01 X-46.8404 Y-37.8448 F200.00
G01 X-46.7724 Y-37.8644 F200.00
G01 X-46.7492 Y-37.8695 F200.00
G01 X-46.6829 Y-37.8808 F200.00
G01 X-46.6642 Y-37.8832 F200.00
G01 X-46.5886 Y-37.8876 F200.00
G01 X-46.0250 Y-37.8880 F200.00
G01 X-45.9358 Y-37.8832 F200.00
G01 X-45.9171 Y-37.8808 F200.00
G01 X-45.8508 Y-37.8695 F200.00
G01 X-45.8242 Y-37.8635 F200.00
G01 X-45.7596 Y-37.8448 F200.00
G01 X-45.7366 Y-37.8369 F200.00
G01 X-45.6717 Y-37.8101 F200.00
G01 X-45.6471 Y-37.7983 F200.00
G01 X-45.5882 Y-37.7657 F200.00
G01 X-45.5652 Y-37.7512 F200.00
G01 X-45.5103 Y-37.7123 F200.00
G01 X-45.4890 Y-37.6953 F200.00
G01 X-45.4289 Y-37.6411 F200.00
G01 X-45.3747 Y-37.5810 F200.00
G01 X-45.3577 Y-37.5597 F200.00
G01 X-45.3188 Y-37.5048 F200.00
G01 X-45.3086 Y-37.4892 F200.00
G01 X-45.2717 Y-37.4229 F200.00
G01 X-45.2599 Y-37.3983 F200.00
G01 X-45.2331 Y-37.3334 F200.00
G01 X-45.2252 Y-37.3104 F200.00
G01 X-45.2056 Y-37.2424 F200.00
G01 X-45.2005 Y-37.2192 F200.00
G01 X-45.1892 Y-37.1529 F200.00
G01 X-45.1868 Y-37.1342 F200.00
G01 X-45.1824 Y-37.0586 F200.00
G01 X-45.1824 Y-37.0314 F200.00
G01 X-45.1862 Y-36.9642 F200.00
G01 X-45.1892 Y-36.9371 F200.00
G01 X-45.2005 Y-36.8708 F200.00
G01 X-45.2056 Y-36.8476 F200.00
G01 X-45.2252 Y-36.7796 F200.00
G01 X-45.2331 Y-36.7566 F200.00
G01 X-45.2599 Y-36.6917 F200.00
G01 X-45.2717 Y-36.6671 F200.00
G01 X-45.3086 Y-36.6008 F200.00
G01 X-45.3188 Y-36.5852 F200.00
G01 X-45.3641 Y-36.5217 F200.00
G01 X-45.4195 Y-36.4588 F200.00
G01 X-45.4388 Y-36.4395 F200.00
G01 X-45.4890 Y-36.3947 F200.00
G01 X-45.5103 Y-36.3777 F200.00
G01 X-45.5652 Y-36.3388 F200.00
G01 X-45.5808 Y-36.3286 F200.00
G01 X-45.6471 Y-36.2917 F200.00
G01 X-45.6717 Y-36.2799 F200.00
G01 X-45.7366 Y-36.2531 F200.00
G01 X-45.7596 Y-36.2452 F200.00
G01 X-45.8276 Y-36.2256 F200.00
G01 X-45.8508 Y-36.2205 F200.00
G01 X-45.9171 Y-36.2092 F200.00
G01 X-45.9358 Y-36.2068 F200.00
G01 X-46.0114 Y-36.2024 F200.00
G01 X-46.5750 Y-36.2020 F200.00
G01 X-46.6558 Y-36.2062 F200.00
G01 X-46.6829 Y-36.2092 F200.00
G01 X-46.7492 Y-36.2205 F200.00
G01 X-46.7724 Y-36.2256 F200.00
G01 X-46.8404 Y-36.2452 F200.00
G01 X-46.8634 Y-36.2531 F200.00
G01 X-46.9283 Y-36.2799 F200.00
G01 X-46.9529 Y-36.2917 F200.00
G01 X-47.0192 Y-36.3286 F200.00
G01 X-47.0348 Y-36.3388 F200.00
G01 X-47.0983 Y-36.3841 F200.00
G01 X-47.1612 Y-36.4395 F200.00
G01 X-47.1805 Y-36.4588 F200.00
G01 X-47.2359 Y-36.5217 F200.00
G01 X-47.2812 Y-36.5852 F200.00
G01 X-47.2957 Y-36.6082 F200.00
G01 X-47.3283 Y-36.6671 F200.00
G01 X-47.3399 Y-36.6917 F200.00
G01 X-47.3669 Y-36.7566 F200.00
G00 Z2.5400
G00 X-47.1987 Y-34.7502
G01 F100.00
G01 Z-0.1000
G01 F200.00
G01 X-47.2249 Y-34.8134 F200.00
G01 X-47.2468 Y-34.8878 F200.00
G01 X-47.2609 Y-34.9697 F200.00
G01 X-47.2650 Y-35.0450 F200.00
G01 X-47.2609 Y-35.1203 F200.00
G01 X-47.2468 Y-35.2022 F200.00
G01 X-47.2249 Y-35.2766 F200.00
G01 X-47.1944 Y-35.3489 F200.00
G01 X-47.1602 Y-35.4105 F200.00
G01 X-47.1151 Y-35.4743 F200.00
G01 X-47.0629 Y-35.5329 F200.00
G01 X-47.0043 Y-35.5851 F200.00
G01 X-46.9405 Y-35.6302 F200.00
G01 X-46.8789 Y-35.6644 F200.00
G01 X-46.8066 Y-35.6949 F200.00
G01 X-46.7322 Y-35.7168 F200.00
G01 X-46.6503 Y-35.7309 F200.00
G01 X-46.5750 Y-35.7350 F200.00
G01 X-46.0250 Y-35.7350 F200.00
G01 X-45.9497 Y-35.7309 F200.00
G01 X-45.8764 Y-35.7187 F200.00
G01 X-45.8666 Y-35.7164 F200.00
G01 X-45.7934 Y-35.6949 F200.00
G01 X-45.7211 Y-35.6644 F200.00
G01 X-45.6537 Y-35.6264 F200.00
G01 X-45.5909 Y-35.5812 F200.00
G01 X-45.5371 Y-35.5329 F200.00
G01 X-45.4888 Y-35.4791 F200.00
G01 X-45.4825 Y-35.4712 F200.00
G01 X-45.4398 Y-35.4105 F200.00
G01 X-45.4056 Y-35.3489 F200.00
G01 X-45.3751 Y-35.2766 F200.00
G01 X-45.3532 Y-35.2022 F200.00
G01 X-45.3391 Y-35.1203 F200.00
G01 X-45.3351 Y-35.0500 F200.00
G01 X-45.3351 Y-35.0400 F200.00
G01 X-45.3400 Y-34.9627 F200.00
G01 X-45.3532 Y-34.8878 F200.00
G01 X-45.3751 Y-34.8134 F200.00
G01 X-45.4056 Y-34.7411 F200.00
G01 X-45.4398 Y-34.6795 F200.00
G01 X-45.4849 Y-34.6157 F200.00
G01 X-45.5336 Y-34.5608 F200.00
G01 X-45.5909 Y-34.5088 F200.00
G01 X-45.5988 Y-34.5025 F200.00
G01 X-45.6595 Y-34.4598 F200.00
G01 X-45.7211 Y-34.4256 F200.00
G01 X-45.7302 Y-34.4213 F200.00
G01 X-45.7934 Y-34.3951 F200.00
G01 X-45.8678 Y-34.3732 F200.00
G01 X-45.9497 Y-34.3591 F200.00
G01 X-46.0250 Y-34.3550 F200.00
G01 X-46.5750 Y-34.3550 F200.00
G01 X-46.6503 Y-34.3591 F200.00
G01 X-46.7236 Y-34.3713 F200.00
G01 X-46.7334 Y-34.3736 F200.00
G01 X-46.8066 Y-34.3951 F200.00
G01 X-46.8789 Y-34.4256 F200.00
G01 X-46.9405 Y-34.4598 F200.00
G01 X-47.0043 Y-34.5049 F200.00
G01 X-47.0629 Y-34.5571 F200.00
G01 X-47.1151 Y-34.6157 F200.00
G01 X-47.1602 Y-34.6795 F200.00
G01 X-47.1944 Y-34.7411 F200.00
G01 X-47.1987 Y-34.7502 F200.00
G01 X-47.2249 Y-34.8134 F200.00
G00 Z2.5400
G00 X-47.3399 Y-34.6917
G01 F100.00
G01 Z-0.1000
G01 F200.00
G01 X-47.3669 Y-34.7566 F200.00
G01 X-47.3748 Y-34.7796 F200.00
G01 X-47.3944 Y-34.8476 F200.00
G01 X-47.3995 Y-34.8708 F200.00
G01 X-47.4108 Y-34.9371 F200.00
G01 X-47.4132 Y-34.9558 F200.00
G01 X-47.4180 Y-35.0450 F200.00
G01 X-47.4132 Y-35.1342 F200.00
G01 X-47.4108 Y-35.1529 F200.00
G01 X-47.3995 Y-35.2192 F200.00
G01 X-47.3944 Y-35.2424 F200.00
G01 X-47.3748 Y-35.3104 F200.00
G01 X-47.3669 Y-35.3334 F200.00
G01 X-47.3401 Y-35.3983 F200.00
G01 X-47.3283 Y-35.4229 F200.00
G01 X-47.2914 Y-35.4892 F200.00
G01 X-47.2812 Y-35.5048 F200.00
G01 X-47.2359 Y-35.5683 F200.00
G01 X-47.2253 Y-35.5810 F200.00
G01 X-47.1711 Y-35.6411 F200.00
G01 X-47.1110 Y-35.6953 F200.00
G01 X-47.0983 Y-35.7059 F200.00
G01 X-47.0348 Y-35.7512 F200.00
G01 X-47.0192 Y-35.7614 F200.00
G01 X-46.9529 Y-35.7983 F200.00
G01 X-46.9283 Y-35.8101 F200.00
G01 X-46.8634 Y-35.8369 F200.00
G01 X-46.8404 Y-35.8448 F200.00
G01 X-46.7724 Y-35.8644 F200.00
G01 X-46.7492 Y-35.8695 F200.00
G01 X-46.6829 Y-35.8808 F200.00
G01 X-46.6642 Y-35.8832 F200.00
G01 X-46.5886 Y-35.8876 F200.00
G01 X-46.0250 Y-35.8880 F200.00
G01 X-45.9358 Y-35.8832 F200.00
G01 X-45.9171 Y-35.8808 F200.00
G01 X-45.8508 Y-35.8695 F200.00
G01 X-45.8242 Y-35.8635 F200.00
G01 X-45.7596 Y-35.8448 F200.00
G01 X-45.7366 Y-35.8369 F200.00
G01 X-45.6717 Y-35.8101 F200.00
G01 X-45.6471 Y-35.7983 F200.00
G01 X-45.5882 Y-35.7657 F200.00
G01 X-45.5652 Y-35.7512 F200.00
G01 X-45.5103 Y-35.7123 F200.00
G01 X-45.4890 Y-35.6953 F200.00
G01 X-45.4289 Y-35.6411 F200.00
G01 X-45.3747 Y-35.5810 F200.00
G01 X-45.3577 Y-35.5597 F200.00
G01 X-45.3188 Y-35.5048 F200.00
G01 X-45.3086 Y-35.4892 F200.00
G01 X-45.2717 Y-35.4229 F200.00
G01 X-45.2599 Y-35.3983 F200.00
G01 X-45.2331 Y-35.3334 F200.00
G01 X-45.2252 Y-35.3104 F200.00
G01 X-45.2056 Y-35.2424 F200.00
G01 X-45.2005 Y-35.2192 F200.00
G01 X-45.1892 Y-35.1529 F200.00
G01 X-45.1868 Y-35.1342 F200.00
G01 X-45.1824 Y-35.0586 F200.00
G01 X-45.1824 Y-35.0314 F200.00
G01 X-45.1862 Y-34.9642 F200.00
G01 X-45.1892 Y-34.9371 F200.00
G01 X-45.2005 Y-34.8708 F200.00
G01 X-45.2056 Y-34.8476 F200.00
G01 X-45.2252 Y-34.7796 F200.00
G01 X-45.2331 Y-34.7566 F200.00
G01 X-45.2599 Y-34.6917 F200.00
G01 X-45.2717 Y-34.6671 F200.00
G01 X-45.3086 Y-34.6008 F200.00
G01 X-45.3188 Y-34.5852 F200.00
G01 X-45.3641 Y-34.5217 F200.00
G01 X-45.4195 Y-34.4588 F200.00
G01 X-45.4388 Y-34.4395 F200.00
G01 X-45.4890 Y-34.3947 F200.00
G01 X-45.5103 Y-34.3777 F200.00
G01 X-45.5652 Y-34.3388 F200.00
G01 X-45.5808 Y-34.3286 F200.00
G01 X-45.6471 Y-34.2917 F200.00
G01 X-45.6717 Y-34.2799 F200.00
G01 X-45.7366 Y-34.2531 F200.00
G01 X-45.7596 Y-34.2452 F200.00
G01 X-45.8276 Y-34.2256 F200.00
G01 X-45.8508 Y-34.2205 F200.00
G01 X-45.9171 Y-34.2092 F200.00
G01 X-45.9358 Y-34.2068 F200.00
G01 X-46.0114 Y-34.2024 F200.00
G01 X-46.5750 Y-34.2020 F200.00
G01 X-46.6558 Y-34.2062 F200.00
G01 X-46.6829 Y-34.2092 F200.00
G01 X-46.7492 Y-34.2205 F200.00
G01 X-46.7724 Y-34.2256 F200.00
G01 X-46.8404 Y-34.2452 F200.00
G01 X-46.8634 Y-34.2531 F200.00
G01 X-46.9283 Y-34.2799 F200.00
G01 X-46.9529 Y-34.2917 F200.00
G01 X-47.0192 Y-34.3286 F200.00
G01 X-47.0348 Y-34.3388 F200.00
G01 X-47.0983 Y-34.3841 F200.00
G01 X-47.1612 Y-34.4395 F200.00
G01 X-47.1805 Y-34.4588 F200.00
G01 X-47.2359 Y-34.5217 F200.00
G01 X-47.2812 Y-34.5852 F200.00
G01 X-47.2957 Y-34.6082 F200.00
G01 X-47.3283 Y-34.6671 F200.00
G01 X-47.3399 Y-34.6917 F200.00
G01 X-47.3669 Y-34.7566 F200.00
G00 Z2.5400
G00 X-46.9250 Y-33.8880
G01 F100.00
G01 Z-0.1000
G01 F200.00
G01 X-45.6750 Y-33.8880 F200.00
G01 X-45.6263 Y-33.8856 F200.00
G01 X-45.5906 Y-33.8806 F200.00
G01 X-45.5735 Y-33.8774 F200.00
G01 X-45.5326 Y-33.8670 F200.00
G01 X-45.4975 Y-33.8548 F200.00
G01 X-45.4806 Y-33.8480 F200.00
G01 X-45.4533 Y-33.8351 F200.00
G01 X-45.4322 Y-33.8239 F200.00
G01 X-45.4112 Y-33.8113 F200.00
G01 X-45.3914 Y-33.7980 F200.00
G01 X-45.3583 Y-33.7728 F200.00
G01 X-45.3264 Y-33.7436 F200.00
G01 X-45.2972 Y-33.7117 F200.00
G01 X-45.2720 Y-33.6786 F200.00
G01 X-45.2587 Y-33.6588 F200.00
G01 X-45.2372 Y-33.6215 F200.00
G01 X-45.2220 Y-33.5894 F200.00
G01 X-45.2152 Y-33.5725 F200.00
G01 X-45.2030 Y-33.5374 F200.00
G01 X-45.1926 Y-33.4965 F200.00
G01 X-45.1858 Y-33.4552 F200.00
G01 X-45.1835 Y-33.4314 F200.00
G01 X-45.1820 Y-33.3950 F200.00
G01 X-45.1820 Y-32.6950 F200.00
G01 X-45.1844 Y-32.6463 F200.00
G01 X-45.1894 Y-32.6106 F200.00
G01 X-45.1926 Y-32.5935 F200.00
G01 X-45.2030 Y-32.5526 F200.00
G01 X-45.2152 Y-32.5175 F200.00
G01 X-45.2220 Y-32.5006 F200.00
G01 X-45.2372 Y-32.4685 F200.00
G01 X-45.2461 Y-32.4522 F200.00
G01 X-45.2649 Y-32.4213 F200.00
G01 X-45.2866 Y-32.3916 F200.00
G01 X-45.2972 Y-32.3783 F200.00
G01 X-45.3264 Y-32.3464 F200.00
G01 X-45.3583 Y-32.3172 F200.00
G01 X-45.3716 Y-32.3066 F200.00
G01 X-45.4013 Y-32.2849 F200.00
G01 X-45.4322 Y-32.2661 F200.00
G01 X-45.4485 Y-32.2572 F200.00
G01 X-45.4806 Y-32.2420 F200.00
G01 X-45.4975 Y-32.2352 F200.00
G01 X-45.5326 Y-32.2230 F200.00
G01 X-45.5735 Y-32.2126 F200.00
G01 X-45.5906 Y-32.2094 F200.00
G01 X-45.6263 Y-32.2044 F200.00
G01 X-45.6750 Y-32.2020 F200.00
G01 X-46.9250 Y-32.2020 F200.00
G01 X-46.9737 Y-32.2044 F200.00
G01 X-47.0094 Y-32.2094 F200.00
G01 X-47.0265 Y-32.2126 F200.00
G01 X-47.0674 Y-32.2230 F200.00
G01 X-47.1025 Y-32.2352 F200.00
G01 X-47.1194 Y-32.2420 F200.00
G01 X-47.1467 Y-32.2549 F200.00
G01 X-47.1678 Y-32.2661 F200.00
G01 X-47.1888 Y-32.2787 F200.00
G01 X-47.2086 Y-32.2920 F200.00
G01 X-47.2417 Y-32.3172 F200.00
G01 X-47.2736 Y-32.3464 F200.00
G01 X-47.3028 Y-32.3783 F200.00
G01 X-47.3280 Y-32.4114 F200.00
G01 X-47.3413 Y-32.4312 F200.00
G01 X-47.3539 Y-32.4522 F200.00
G01 X-47.3651 Y-32.4733 F200.00
G01 X-47.3780 Y-32.5006 F200.00
G01 X-47.3848 Y-32.5175 F200.00
G01 X-47.3970 Y-32.5526 F200.00
G01 X-47.4074 Y-32.5935 F200.00
G01 X-47.4106 Y-32.6106 F200.00
G01 X-47.4156 Y-32.6463 F200.00
G01 X-47.4180 Y-32.6950 F200.00
G01 X-47.4180 Y-33.3950 F200.00
G01 X-47.4156 Y-33.4437 F200.00
G01 X-47.4106 Y-33.4794 F200.00
G01 X-47.4074 Y-33.4965 F200.00
G01 X-47.3970 Y-33.5374 F200.00
G01 X-47.3848 Y-33.5725 F200.00
G01 X-47.3780 Y-33.5894 F200.00
G01 X-47.3628 Y-33.6215 F200.00
G01 X-47.3413 Y-33.6588 F200.00
G01 X-47.3280 Y-33.6786 F200.00
G01 X-47.3028 Y-33.7117 F200.00
G01 X-47.2736 Y-33.7436 F200.00
G01 X-47.2417 Y-33.7728 F200.00
G01 X-47.2284 Y-33.7834 F200.00
G01 X-47.1987 Y-33.8051 F200.00
G01 X-47.1678 Y-33.8239 F200.00
G01 X-47.1515 Y-33.8328 F200.00
G01 X-47.1246 Y-33.8456 F200.00
G01 X-47.1025 Y-33.8548 F200.00
G01 X-47.0674 Y-33.8670 F200.00
G01 X-47.0265 Y-33.8774 F200.00
G01 X-47.0094 Y-33.8806 F200.00
G01 X-46.9737 Y-33.8856 F200.00
G01 X-46.9250 Y-33.8880 F200.00
G01 X-45.6750 Y-33.8880 F200.00
G00 Z2.5400
G00 X-46.9250 Y-33.7350
G01 F100.00
G01 Z-0.1000
G01 F200.00
G01 X-45.6750 Y-33.7350 F200.00
G01 X-45.6461 Y-33.7337 F200.00
G01 X-45.6044 Y-33.7275 F200.00
G01 X-45.5766 Y-33.7204 F200.00
G01 X-45.5428 Y-33.7082 F200.00
G01 X-45.5169 Y-33.6960 F200.00
G01 X-45.4898 Y-33.6801 F200.00
G01 X-45.4578 Y-33.6566 F200.00
G01 X-45.4346 Y-33.6354 F200.00
G01 X-45.4134 Y-33.6122 F200.00
G01 X-45.3922 Y-33.5838 F200.00
G01 X-45.3732 Y-33.5513 F200.00
G01 X-45.3593 Y-33.5210 F200.00
G01 X-45.3485 Y-33.4894 F200.00
G01 X-45.3419 Y-33.4633 F200.00
G01 X-45.3372 Y-33.4327 F200.00
G01 X-45.3351 Y-33.3994 F200.00
G01 X-45.3350 Y-32.6950 F200.00
G01 X-45.3367 Y-32.6615 F200.00
G01 X-45.3419 Y-32.6267 F200.00
G01 X-45.3485 Y-32.6006 F200.00
G01 X-45.3618 Y-32.5628 F200.00
G01 X-45.3740 Y-32.5369 F200.00
G01 X-45.3899 Y-32.5098 F200.00
G01 X-45.4134 Y-32.4778 F200.00
G01 X-45.4346 Y-32.4546 F200.00
G01 X-45.4578 Y-32.4334 F200.00
G01 X-45.4862 Y-32.4122 F200.00
G01 X-45.5187 Y-32.3932 F200.00
G01 X-45.5490 Y-32.3793 F200.00
G01 X-45.5806 Y-32.3685 F200.00
G01 X-45.6067 Y-32.3619 F200.00
G01 X-45.6373 Y-32.3572 F200.00
G01 X-45.6706 Y-32.3551 F200.00
G01 X-46.9250 Y-32.3550 F200.00
G01 X-46.9539 Y-32.3563 F200.00
G01 X-46.9956 Y-32.3625 F200.00
G01 X-47.0234 Y-32.3696 F200.00
G01 X-47.0572 Y-32.3818 F200.00
G01 X-47.0831 Y-32.3940 F200.00
G01 X-47.1102 Y-32.4099 F200.00
G01 X-47.1422 Y-32.4334 F200.00
G01 X-47.1654 Y-32.4546 F200.00
G01 X-47.1866 Y-32.4778 F200.00
G01 X-47.2078 Y-32.5062 F200.00
G01 X-47.2260 Y-32.5369 F200.00
G01 X-47.2382 Y-32.5628 F200.00
G01 X-47.2504 Y-32.5966 F200.00
G01 X-47.2581 Y-32.6267 F200.00
G01 X-47.2633 Y-32.6615 F200.00
G01 X-47.2650 Y-32.6950 F200.00
G01 X-47.2650 Y-33.3950 F200.00
G01 X-47.2633 Y-33.4285 F200.00
G01 X-47.2592 Y-33.4570 F200.00
G01 X-47.2490 Y-33.4979 F200.00
G01 X-47.2382 Y-33.5272 F200.00
G01 X-47.2227 Y-33.5591 F200.00
G01 X-47.2078 Y-33.5838 F200.00
G01 X-47.1866 Y-33.6122 F200.00
G01 X-47.1654 Y-33.6354 F200.00
G01 X-47.1422 Y-33.6566 F200.00
G01 X-47.1138 Y-33.6778 F200.00
G01 X-47.0891 Y-33.6927 F200.00
G01 X-47.0510 Y-33.7107 F200.00
G01 X-47.0234 Y-33.7204 F200.00
G01 X-46.9933 Y-33.7281 F200.00
G01 X-46.9585 Y-33.7333 F200.00
G01 X-46.9250 Y-33.7350 F200.00
G01 X-45.6750 Y-33.7350 F200.00
G00 Z2.5400
M05
G00 Z2.5400
G00 Z20.00
G00 X0.0 Y0.0

M02