(G-CODE GENERATED BY FLATCAM v8.913 - www.flatcam.org - Version Date: 2019/04/13)

(Name: slip_ring-F.Cu.gbr_iso_1_cnc)
(Type: G-code from Geometry)
(Units: MM)

(Created on Thursday, 06 June 2019 at 23:03)

(TOOL DIAMETER: 0.2 mm)

(Feedrate: 200.0 mm/min)
(Feedrate_Z: 100.0 mm/min)
(Feedrate rapids 76.2 mm/min)

(Z_Cut: -0.15 mm)
(Z_Move: 2.54 mm)
(Z Toolchange: 20.0 mm)
(X,Y Toolchange: 0.0000, 0.0000 mm)
(Z Start: None mm)
(Z End: 20.0 mm)
(Steps per circle: 64)
(Postprocessor Geometry: grbl_11)

(X range:  -47.9550 ...   39.9800  mm)
(Y range:  -77.7091 ...    0.8416  mm)

(Spindle Speed: 20000 RPM)


G21
G90
G94
G17

G01 F200.00
G00 Z2.5400

M03 S20000
G4 P1.0
G00 X-14.0176 Y-38.2245
G01 F100.00
G01 Z-0.1500
G01 F200.00
G01 X-13.9674 Y-39.6617 F200.00
G01 X-13.7773 Y-41.0871 F200.00
G01 X-13.4489 Y-42.4871 F200.00
G01 X-12.9854 Y-43.8485 F200.00
G01 X-12.3914 Y-45.1581 F200.00
G01 X-11.6724 Y-46.4034 F200.00
G01 X-10.8352 Y-47.5727 F200.00
G01 X-9.8880 Y-48.6547 F200.00
G01 X-8.8397 Y-49.6391 F200.00
G01 X-7.7004 Y-50.5166 F200.00
G01 X-6.4808 Y-51.2786 F200.00
G01 X-5.1928 Y-51.9180 F200.00
G01 X-3.8484 Y-52.4287 F200.00
G01 X-2.4607 Y-52.8057 F200.00
G01 X-1.0428 Y-53.0455 F200.00
G01 X0.3917 Y-53.1458 F200.00
G01 X1.8292 Y-53.1057 F200.00
G01 X3.2559 Y-52.9255 F200.00
G01 X4.6582 Y-52.6069 F200.00
G01 X6.0228 Y-52.1529 F200.00
G01 X7.3365 Y-51.5680 F200.00
G01 X8.5869 Y-50.8577 F200.00
G01 X9.7620 Y-50.0288 F200.00
G01 X10.8506 Y-49.0891 F200.00
G01 X11.8423 Y-48.0477 F200.00
G01 X12.7276 Y-46.9145 F200.00
G01 X13.4982 Y-45.7004 F200.00
G01 X14.1465 Y-44.4168 F200.00
G01 X14.6666 Y-43.0761 F200.00
G01 X15.0533 Y-41.6910 F200.00
G01 X15.3030 Y-40.2748 F200.00
G01 X15.4144 Y-38.8274 F200.00
G01 X15.4197 Y-38.4436 F200.00
G01 X15.3488 Y-36.9937 F200.00
G01 X15.1387 Y-35.5711 F200.00
G01 X14.7909 Y-34.1757 F200.00
G01 X14.3085 Y-32.8210 F200.00
G01 X13.6962 Y-31.5198 F200.00
G01 X12.9598 Y-30.2846 F200.00
G01 X12.1065 Y-29.1271 F200.00
G01 X11.1442 Y-28.0584 F200.00
G01 X10.0823 Y-27.0888 F200.00
G01 X8.9308 Y-26.2273 F200.00
G01 X7.7007 Y-25.4824 F200.00
G01 X6.4039 Y-24.8610 F200.00
G01 X5.0525 Y-24.3692 F200.00
G01 X3.6597 Y-24.0116 F200.00
G01 X2.2386 Y-23.7916 F200.00
G01 X0.8028 Y-23.7113 F200.00
G01 X-0.6340 Y-23.7715 F200.00
G01 X-2.0581 Y-23.9716 F200.00
G01 X-3.4558 Y-24.3098 F200.00
G01 X-4.8139 Y-24.7827 F200.00
G01 X-6.1193 Y-25.3859 F200.00
G01 X-7.3596 Y-26.1136 F200.00
G01 X-8.5230 Y-26.9589 F200.00
G01 X-9.5984 Y-27.9136 F200.00
G01 X-10.5755 Y-28.9688 F200.00
G01 X-11.4449 Y-30.1142 F200.00
G01 X-12.1984 Y-31.3390 F200.00
G01 X-12.8288 Y-32.6315 F200.00
G01 X-13.3301 Y-33.9794 F200.00
G01 X-13.6974 Y-35.3697 F200.00
G01 X-13.9273 Y-36.7893 F200.00
G01 X-14.0176 Y-38.2245 F200.00
G01 X-13.9674 Y-39.6617 F200.00
G00 Z2.5400
G00 X-14.1878 Y-38.2221
G01 F100.00
G01 Z-0.1500
G01 F200.00
G01 X-14.1371 Y-39.6759 F200.00
G01 X-13.9447 Y-41.1178 F200.00
G01 X-13.6125 Y-42.5340 F200.00
G01 X-13.1437 Y-43.9111 F200.00
G01 X-12.5428 Y-45.2359 F200.00
G01 X-11.8154 Y-46.4956 F200.00
G01 X-10.9686 Y-47.6784 F200.00
G01 X-10.0104 Y-48.7730 F200.00
G01 X-8.9500 Y-49.7688 F200.00
G01 X-7.7975 Y-50.6563 F200.00
G01 X-6.5639 Y-51.4272 F200.00
G01 X-5.2609 Y-52.0740 F200.00
G01 X-3.9010 Y-52.5905 F200.00
G01 X-2.4973 Y-52.9719 F200.00
G01 X-1.0629 Y-53.2145 F200.00
G01 X0.3882 Y-53.3160 F200.00
G01 X1.8423 Y-53.2754 F200.00
G01 X3.2855 Y-53.0931 F200.00
G01 X4.7040 Y-52.7708 F200.00
G01 X6.0843 Y-52.3116 F200.00
G01 X7.4132 Y-51.7200 F200.00
G01 X8.6781 Y-51.0014 F200.00
G01 X9.8668 Y-50.1629 F200.00
G01 X10.9679 Y-49.2124 F200.00
G01 X11.9711 Y-48.1590 F200.00
G01 X12.8667 Y-47.0127 F200.00
G01 X13.6461 Y-45.7844 F200.00
G01 X14.3020 Y-44.4860 F200.00
G01 X14.8281 Y-43.1298 F200.00
G01 X15.2193 Y-41.7287 F200.00
G01 X15.4719 Y-40.2961 F200.00
G01 X15.5843 Y-38.8351 F200.00
G01 X15.5898 Y-38.4407 F200.00
G01 X15.5182 Y-36.9771 F200.00
G01 X15.3057 Y-35.5380 F200.00
G01 X14.9538 Y-34.1265 F200.00
G01 X14.4658 Y-32.7561 F200.00
G01 X13.8464 Y-31.4399 F200.00
G01 X13.1016 Y-30.1904 F200.00
G01 X12.2384 Y-29.0195 F200.00
G01 X11.2650 Y-27.9385 F200.00
G01 X10.1908 Y-26.9576 F200.00
G01 X9.0260 Y-26.0862 F200.00
G01 X7.7817 Y-25.3327 F200.00
G01 X6.4698 Y-24.7041 F200.00
G01 X5.1029 Y-24.2066 F200.00
G01 X3.6939 Y-23.8448 F200.00
G01 X2.2564 Y-23.6223 F200.00
G01 X0.8039 Y-23.5411 F200.00
G01 X-0.6495 Y-23.6020 F200.00
G01 X-2.0900 Y-23.8045 F200.00
G01 X-3.5039 Y-24.1465 F200.00
G01 X-4.8776 Y-24.6249 F200.00
G01 X-6.1981 Y-25.2351 F200.00
G01 X-7.4528 Y-25.9712 F200.00
G01 X-8.6297 Y-26.8262 F200.00
G01 X-9.7175 Y-27.7920 F200.00
G01 X-10.7058 Y-28.8594 F200.00
G01 X-11.5853 Y-30.0181 F200.00
G01 X-12.3476 Y-31.2570 F200.00
G01 X-12.9853 Y-32.5645 F200.00
G01 X-13.4923 Y-33.9279 F200.00
G01 X-13.8639 Y-35.3343 F200.00
G01 X-14.0965 Y-36.7703 F200.00
G01 X-14.1878 Y-38.2221 F200.00
G01 X-14.1371 Y-39.6759 F200.00
G00 Z2.5400
G00 X-14.3580 Y-38.2197
G01 F100.00
G01 Z-0.1500
G01 F200.00
G01 X-14.3067 Y-39.6901 F200.00
G01 X-14.1121 Y-41.1485 F200.00
G01 X-13.7761 Y-42.5810 F200.00
G01 X-13.3019 Y-43.9738 F200.00
G01 X-12.6941 Y-45.3137 F200.00
G01 X-11.9585 Y-46.5878 F200.00
G01 X-11.1020 Y-47.7842 F200.00
G01 X-10.1329 Y-48.8912 F200.00
G01 X-9.0603 Y-49.8984 F200.00
G01 X-7.8946 Y-50.7961 F200.00
G01 X-6.6469 Y-51.5757 F200.00
G01 X-5.3290 Y-52.2299 F200.00
G01 X-3.9536 Y-52.7524 F200.00
G01 X-2.5338 Y-53.1382 F200.00
G01 X-1.0831 Y-53.3835 F200.00
G01 X0.3846 Y-53.4862 F200.00
G01 X1.8553 Y-53.4451 F200.00
G01 X3.3151 Y-53.2607 F200.00
G01 X4.7498 Y-52.9347 F200.00
G01 X6.1459 Y-52.4703 F200.00
G01 X7.4900 Y-51.8719 F200.00
G01 X8.7693 Y-51.1451 F200.00
G01 X9.9715 Y-50.2970 F200.00
G01 X11.0853 Y-49.3356 F200.00
G01 X12.0999 Y-48.2702 F200.00
G01 X13.0058 Y-47.1108 F200.00
G01 X13.7941 Y-45.8685 F200.00
G01 X14.4575 Y-44.5552 F200.00
G01 X14.9896 Y-43.1835 F200.00
G01 X15.3852 Y-41.7664 F200.00
G01 X15.6407 Y-40.3175 F200.00
G01 X15.7542 Y-38.8428 F200.00
G01 X15.7598 Y-38.4377 F200.00
G01 X15.6876 Y-36.9605 F200.00
G01 X15.4727 Y-35.5049 F200.00
G01 X15.1167 Y-34.0773 F200.00
G01 X14.6232 Y-32.6913 F200.00
G01 X13.9967 Y-31.3600 F200.00
G01 X13.2434 Y-30.0962 F200.00
G01 X12.3703 Y-28.9120 F200.00
G01 X11.3858 Y-27.8186 F200.00
G01 X10.2993 Y-26.8265 F200.00
G01 X9.1212 Y-25.9451 F200.00
G01 X7.8627 Y-25.1830 F200.00
G01 X6.5358 Y-24.5472 F200.00
G01 X5.1532 Y-24.0440 F200.00
G01 X3.7281 Y-23.6781 F200.00
G01 X2.2741 Y-23.4530 F200.00
G01 X0.8051 Y-23.3709 F200.00
G01 X-0.6649 Y-23.4325 F200.00
G01 X-2.1219 Y-23.6373 F200.00
G01 X-3.5519 Y-23.9832 F200.00
G01 X-4.9414 Y-24.4671 F200.00
G01 X-6.2770 Y-25.0842 F200.00
G01 X-7.5460 Y-25.8288 F200.00
G01 X-8.7363 Y-26.6936 F200.00
G01 X-9.8366 Y-27.6704 F200.00
G01 X-10.8362 Y-28.7500 F200.00
G01 X-11.7258 Y-29.9219 F200.00
G01 X-12.4967 Y-31.1750 F200.00
G01 X-13.1417 Y-32.4974 F200.00
G01 X-13.6545 Y-33.8765 F200.00
G01 X-14.0304 Y-35.2990 F200.00
G01 X-14.2656 Y-36.7513 F200.00
G01 X-14.3580 Y-38.2197 F200.00
G01 X-14.3067 Y-39.6901 F200.00
G00 Z2.5400
G00 X-14.5282 Y-38.2174
G01 F100.00
G01 Z-0.1500
G01 F200.00
G01 X-14.4763 Y-39.7044 F200.00
G01 X-14.2795 Y-41.1792 F200.00
G01 X-13.9397 Y-42.6279 F200.00
G01 X-13.4602 Y-44.0364 F200.00
G01 X-12.8455 Y-45.3915 F200.00
G01 X-12.1016 Y-46.6800 F200.00
G01 X-11.2354 Y-47.8899 F200.00
G01 X-10.2553 Y-49.0094 F200.00
G01 X-9.1707 Y-50.0280 F200.00
G01 X-7.9918 Y-50.9358 F200.00
G01 X-6.7299 Y-51.7243 F200.00
G01 X-5.3972 Y-52.3859 F200.00
G01 X-4.0062 Y-52.9143 F200.00
G01 X-2.5704 Y-53.3044 F200.00
G01 X-1.1033 Y-53.5525 F200.00
G01 X0.3811 Y-53.6563 F200.00
G01 X1.8684 Y-53.6148 F200.00
G01 X3.3446 Y-53.4283 F200.00
G01 X4.7956 Y-53.0987 F200.00
G01 X6.2074 Y-52.6290 F200.00
G01 X7.5667 Y-52.0238 F200.00
G01 X8.8605 Y-51.2888 F200.00
G01 X10.0763 Y-50.4311 F200.00
G01 X11.2027 Y-49.4589 F200.00
G01 X12.2288 Y-48.3814 F200.00
G01 X13.1449 Y-47.2089 F200.00
G01 X13.9421 Y-45.9526 F200.00
G01 X14.6130 Y-44.6245 F200.00
G01 X15.1511 Y-43.2372 F200.00
G01 X15.5512 Y-41.8041 F200.00
G01 X15.8096 Y-40.3388 F200.00
G01 X15.9241 Y-38.8505 F200.00
G01 X15.9299 Y-38.4347 F200.00
G01 X15.8570 Y-36.9438 F200.00
G01 X15.6396 Y-35.4719 F200.00
G01 X15.2797 Y-34.0281 F200.00
G01 X14.7805 Y-32.6264 F200.00
G01 X14.1470 Y-31.2801 F200.00
G01 X13.3851 Y-30.0020 F200.00
G01 X12.5022 Y-28.8044 F200.00
G01 X11.5065 Y-27.6986 F200.00
G01 X10.4078 Y-26.6953 F200.00
G01 X9.2163 Y-25.8040 F200.00
G01 X7.9436 Y-25.0332 F200.00
G01 X6.6017 Y-24.3903 F200.00
G01 X5.2035 Y-23.8814 F200.00
G01 X3.7624 Y-23.5114 F200.00
G01 X2.2919 Y-23.2838 F200.00
G01 X0.8063 Y-23.2007 F200.00
G01 X-0.6803 Y-23.2630 F200.00
G01 X-2.1538 Y-23.4701 F200.00
G01 X-3.6000 Y-23.8200 F200.00
G01 X-5.0051 Y-24.3093 F200.00
G01 X-6.3558 Y-24.9334 F200.00
G01 X-7.6392 Y-25.6863 F200.00
G01 X-8.8430 Y-26.5609 F200.00
G01 X-9.9556 Y-27.5488 F200.00
G01 X-10.9666 Y-28.6406 F200.00
G01 X-11.8662 Y-29.8257 F200.00
G01 X-12.6459 Y-31.0930 F200.00
G01 X-13.2981 Y-32.4304 F200.00
G01 X-13.8168 Y-33.8250 F200.00
G01 X-14.1969 Y-35.2636 F200.00
G01 X-14.4348 Y-36.7324 F200.00
G01 X-14.5282 Y-38.2174 F200.00
G01 X-14.4763 Y-39.7044 F200.00
G00 Z2.5400
G00 X-14.6984 Y-38.2150
G01 F100.00
G01 Z-0.1500
G01 F200.00
G01 X-14.6459 Y-39.7186 F200.00
G01 X-14.4469 Y-41.2100 F200.00
G01 X-14.1033 Y-42.6748 F200.00
G01 X-13.6184 Y-44.0991 F200.00
G01 X-12.9969 Y-45.4693 F200.00
G01 X-12.2446 Y-46.7722 F200.00
G01 X-11.3688 Y-47.9956 F200.00
G01 X-10.3777 Y-49.1277 F200.00
G01 X-9.2810 Y-50.1576 F200.00
G01 X-8.0889 Y-51.0756 F200.00
G01 X-6.8130 Y-51.8729 F200.00
G01 X-5.4653 Y-52.5419 F200.00
G01 X-4.0588 Y-53.0762 F200.00
G01 X-2.6069 Y-53.4706 F200.00
G01 X-1.1234 Y-53.7215 F200.00
G01 X0.3775 Y-53.8265 F200.00
G01 X1.8815 Y-53.7845 F200.00
G01 X3.3742 Y-53.5959 F200.00
G01 X4.8413 Y-53.2626 F200.00
G01 X6.2690 Y-52.7877 F200.00
G01 X7.6435 Y-52.1757 F200.00
G01 X8.9517 Y-51.4325 F200.00
G01 X10.1811 Y-50.5653 F200.00
G01 X11.3201 Y-49.5822 F200.00
G01 X12.3576 Y-48.4926 F200.00
G01 X13.2839 Y-47.3070 F200.00
G01 X14.0901 Y-46.0366 F200.00
G01 X14.7685 Y-44.6937 F200.00
G01 X15.3126 Y-43.2910 F200.00
G01 X15.7172 Y-41.8418 F200.00
G01 X15.9784 Y-40.3601 F200.00
G01 X16.0940 Y-38.8582 F200.00
G01 X16.1000 Y-38.4317 F200.00
G01 X16.0264 Y-36.9272 F200.00
G01 X15.8066 Y-35.4388 F200.00
G01 X15.4426 Y-33.9789 F200.00
G01 X14.9379 Y-32.5616 F200.00
G01 X14.2973 Y-31.2002 F200.00
G01 X13.5269 Y-29.9078 F200.00
G01 X12.6341 Y-28.6968 F200.00
G01 X11.6273 Y-27.5787 F200.00
G01 X10.5163 Y-26.5642 F200.00
G01 X9.3115 Y-25.6629 F200.00
G01 X8.0246 Y-24.8835 F200.00
G01 X6.6677 Y-24.2334 F200.00
G01 X5.2539 Y-23.7188 F200.00
G01 X3.7966 Y-23.3447 F200.00
G01 X2.3097 Y-23.1145 F200.00
G01 X0.8075 Y-23.0305 F200.00
G01 X-0.6957 Y-23.0935 F200.00
G01 X-2.1856 Y-23.3029 F200.00
G01 X-3.6480 Y-23.6567 F200.00
G01 X-5.0689 Y-24.1515 F200.00
G01 X-6.4347 Y-24.7826 F200.00
G01 X-7.7324 Y-25.5439 F200.00
G01 X-8.9496 Y-26.4283 F200.00
G01 X-10.0747 Y-27.4272 F200.00
G01 X-11.0970 Y-28.5311 F200.00
G01 X-12.0066 Y-29.7296 F200.00
G01 X-12.7950 Y-31.0111 F200.00
G01 X-13.4546 Y-32.3633 F200.00
G01 X-13.9790 Y-33.7735 F200.00
G01 X-14.3634 Y-35.2282 F200.00
G01 X-14.6039 Y-36.7134 F200.00
G01 X-14.6984 Y-38.2150 F200.00
G01 X-14.6459 Y-39.7186 F200.00
G00 Z2.5400
G00 X-20.2279 Y-38.2791
G01 F100.00
G01 Z-0.1500
G01 F200.00
G01 X-20.2456 Y-38.3217 F200.00
G01 X-20.2617 Y-38.3756 F200.00
G01 X-20.2723 Y-38.4371 F200.00
G01 X-20.2752 Y-38.4909 F200.00
G01 X-20.2723 Y-38.5447 F200.00
G01 X-20.2617 Y-38.6062 F200.00
G01 X-20.2456 Y-38.6602 F200.00
G01 X-20.2280 Y-38.7027 F200.00
G01 X-20.2231 Y-38.7128 F200.00
G01 X-20.1997 Y-38.7552 F200.00
G01 X-20.1669 Y-38.8017 F200.00
G01 X-20.1288 Y-38.8445 F200.00
G01 X-20.0860 Y-38.8826 F200.00
G01 X-20.0395 Y-38.9153 F200.00
G01 X-19.9972 Y-38.9388 F200.00
G01 X-19.9871 Y-38.9437 F200.00
G01 X-19.9445 Y-38.9613 F200.00
G01 X-19.9350 Y-38.9645 F200.00
G01 X-19.8816 Y-38.9793 F200.00
G01 X-19.7717 Y-40.7251 F200.00
G01 X-19.4487 Y-42.7177 F200.00
G01 X-18.9353 Y-44.6602 F200.00
G01 X-18.2337 Y-46.5464 F200.00
G01 X-17.3542 Y-48.3498 F200.00
G01 X-16.2996 Y-50.0648 F200.00
G01 X-15.0792 Y-51.6730 F200.00
G01 X-13.7138 Y-53.1474 F200.00
G01 X-12.2105 Y-54.4824 F200.00
G01 X-10.5780 Y-55.6685 F200.00
G01 X-8.8461 Y-56.6846 F200.00
G01 X-7.0214 Y-57.5280 F200.00
G01 X-5.1196 Y-58.1908 F200.00
G01 X-3.1609 Y-58.6649 F200.00
G01 X-1.1679 Y-58.9451 F200.00
G01 X0.8431 Y-59.0295 F200.00
G01 X2.8539 Y-58.9171 F200.00
G01 X4.8417 Y-58.6094 F200.00
G01 X6.7936 Y-58.1081 F200.00
G01 X8.6847 Y-57.4196 F200.00
G01 X10.5021 Y-56.5483 F200.00
G01 X12.2234 Y-55.5053 F200.00
G01 X13.8323 Y-54.3014 F200.00
G01 X15.3169 Y-52.9457 F200.00
G01 X16.6664 Y-51.4466 F200.00
G01 X17.8554 Y-49.8339 F200.00
G01 X18.8899 Y-48.0989 F200.00
G01 X19.7446 Y-46.2826 F200.00
G01 X20.4208 Y-44.3839 F200.00
G01 X20.9072 Y-42.4335 F200.00
G01 X21.2017 Y-40.4404 F200.00
G01 X21.3000 Y-38.4300 F200.00
G01 X21.2917 Y-37.8499 F200.00
G01 X21.1381 Y-35.8530 F200.00
G01 X20.7886 Y-33.8686 F200.00
G01 X20.2468 Y-31.9276 F200.00
G01 X19.5191 Y-30.0513 F200.00
G01 X18.6121 Y-28.2556 F200.00
G01 X17.5359 Y-26.5596 F200.00
G01 X16.2972 Y-24.9733 F200.00
G01 X14.9079 Y-23.5138 F200.00
G01 X13.3861 Y-22.1999 F200.00
G01 X11.7421 Y-21.0396 F200.00
G01 X9.9877 Y-20.0425 F200.00
G01 X8.1539 Y-19.2260 F200.00
G01 X6.2416 Y-18.5894 F200.00
G01 X4.2819 Y-18.1439 F200.00
G01 X2.2827 Y-17.8909 F200.00
G01 X0.2707 Y-17.8345 F200.00
G01 X-1.7372 Y-17.9747 F200.00
G01 X-3.7238 Y-18.3106 F200.00
G01 X-5.6611 Y-18.8368 F200.00
G01 X-7.5427 Y-19.5511 F200.00
G01 X-9.3497 Y-20.4477 F200.00
G01 X-11.0596 Y-21.5164 F200.00
G01 X-12.6515 Y-22.7425 F200.00
G01 X-14.1172 Y-24.1188 F200.00
G01 X-15.4457 Y-25.6365 F200.00
G01 X-16.6129 Y-27.2668 F200.00
G01 X-17.6196 Y-29.0095 F200.00
G01 X-18.4518 Y-30.8428 F200.00
G01 X-19.1005 Y-32.7472 F200.00
G01 X-19.5613 Y-34.7097 F200.00
G01 X-19.8276 Y-36.7047 F200.00
G01 X-19.8731 Y-38.0010 F200.00
G01 X-19.8906 Y-38.0045 F200.00
G01 X-19.9350 Y-38.0173 F200.00
G01 X-19.9445 Y-38.0205 F200.00
G01 X-19.9871 Y-38.0381 F200.00
G01 X-19.9972 Y-38.0430 F200.00
G01 X-20.0395 Y-38.0665 F200.00
G01 X-20.0860 Y-38.0992 F200.00
G01 X-20.1288 Y-38.1374 F200.00
G01 X-20.1669 Y-38.1801 F200.00
G01 X-20.1997 Y-38.2266 F200.00
G01 X-20.2231 Y-38.2690 F200.00
G01 X-20.2279 Y-38.2791 F200.00
G01 X-20.2456 Y-38.3217 F200.00
G00 Z2.5400
G00 X-20.3849 Y-38.2141
G01 F100.00
G01 Z-0.1500
G01 F200.00
G01 X-20.4035 Y-38.2585 F200.00
G01 X-20.4122 Y-38.2840 F200.00
G01 X-20.4257 Y-38.3309 F200.00
G01 X-20.4314 Y-38.3567 F200.00
G01 X-20.4389 Y-38.4009 F200.00
G01 X-20.4416 Y-38.4217 F200.00
G01 X-20.4448 Y-38.4758 F200.00
G01 X-20.4448 Y-38.5060 F200.00
G01 X-20.4423 Y-38.5508 F200.00
G01 X-20.4389 Y-38.5809 F200.00
G01 X-20.4314 Y-38.6251 F200.00
G01 X-20.4257 Y-38.6510 F200.00
G01 X-20.4122 Y-38.6978 F200.00
G01 X-20.4035 Y-38.7233 F200.00
G01 X-20.3851 Y-38.7678 F200.00
G01 X-20.3719 Y-38.7951 F200.00
G01 X-20.3454 Y-38.8426 F200.00
G01 X-20.3341 Y-38.8600 F200.00
G01 X-20.3011 Y-38.9061 F200.00
G01 X-20.2594 Y-38.9537 F200.00
G01 X-20.2380 Y-38.9751 F200.00
G01 X-20.2045 Y-39.0050 F200.00
G01 X-20.1904 Y-39.0168 F200.00
G01 X-20.1443 Y-39.0498 F200.00
G01 X-20.1270 Y-39.0611 F200.00
G01 X-20.0794 Y-39.0876 F200.00
G01 X-20.0441 Y-39.1040 F200.00
G01 X-19.9409 Y-40.7420 F200.00
G01 X-19.6186 Y-42.7354 F200.00
G01 X-19.6131 Y-42.7612 F200.00
G01 X-19.1015 Y-44.6976 F200.00
G01 X-19.0966 Y-44.7140 F200.00
G01 X-18.3953 Y-46.5999 F200.00
G01 X-18.3890 Y-46.6155 F200.00
G01 X-17.5070 Y-48.4243 F200.00
G01 X-17.4943 Y-48.4474 F200.00
G01 X-16.4438 Y-50.1549 F200.00
G01 X-16.4299 Y-50.1751 F200.00
G01 X-15.2190 Y-51.7704 F200.00
G01 X-15.2071 Y-51.7849 F200.00
G01 X-13.8340 Y-53.2676 F200.00
G01 X-12.3211 Y-54.6114 F200.00
G01 X-12.3041 Y-54.6249 F200.00
G01 X-10.6837 Y-55.8021 F200.00
G01 X-10.6681 Y-55.8126 F200.00
G01 X-8.9287 Y-56.8332 F200.00
G01 X-8.9108 Y-56.8423 F200.00
G01 X-7.0927 Y-57.6824 F200.00
G01 X-7.0682 Y-57.6923 F200.00
G01 X-5.1734 Y-58.3521 F200.00
G01 X-5.1515 Y-58.3584 F200.00
G01 X-3.1943 Y-58.8316 F200.00
G01 X-1.1848 Y-59.1143 F200.00
G01 X0.8431 Y-59.1995 F200.00
G01 X2.8726 Y-59.0860 F200.00
G01 X4.8751 Y-58.7760 F200.00
G01 X6.8292 Y-58.2747 F200.00
G01 X6.8474 Y-58.2694 F200.00
G01 X8.7364 Y-57.5819 F200.00
G01 X8.7537 Y-57.5749 F200.00
G01 X10.5670 Y-56.7063 F200.00
G01 X10.5902 Y-56.6937 F200.00
G01 X12.3033 Y-55.6562 F200.00
G01 X12.3252 Y-55.6415 F200.00
G01 X13.9289 Y-54.4417 F200.00
G01 X13.9429 Y-54.4305 F200.00
G01 X15.4371 Y-53.0659 F200.00
G01 X16.7870 Y-51.5673 F200.00
G01 X16.8024 Y-51.5486 F200.00
G01 X17.9922 Y-49.9348 F200.00
G01 X18.0068 Y-49.9128 F200.00
G01 X19.0323 Y-48.1924 F200.00
G01 X19.0419 Y-48.1749 F200.00
G01 X19.8999 Y-46.3516 F200.00
G01 X19.9075 Y-46.3325 F200.00
G01 X20.5837 Y-44.4327 F200.00
G01 X21.0732 Y-42.4704 F200.00
G01 X21.0767 Y-42.4512 F200.00
G01 X21.3708 Y-40.4573 F200.00
G01 X21.4700 Y-38.4300 F200.00
G01 X21.4620 Y-37.8538 F200.00
G01 X21.4612 Y-37.8369 F200.00
G01 X21.3076 Y-35.8400 F200.00
G01 X21.3042 Y-35.8138 F200.00
G01 X20.9553 Y-33.8353 F200.00
G01 X20.9506 Y-33.8156 F200.00
G01 X20.4081 Y-31.8738 F200.00
G01 X19.6744 Y-29.9822 F200.00
G01 X18.7607 Y-28.1731 F200.00
G01 X17.6794 Y-26.4685 F200.00
G01 X17.6642 Y-26.4469 F200.00
G01 X16.4312 Y-24.8686 F200.00
G01 X16.4139 Y-24.8487 F200.00
G01 X15.0281 Y-23.3936 F200.00
G01 X15.0136 Y-23.3801 F200.00
G01 X13.4968 Y-22.0708 F200.00
G01 X13.4767 Y-22.0552 F200.00
G01 X11.8401 Y-20.9006 F200.00
G01 X11.8178 Y-20.8865 F200.00
G01 X10.0637 Y-19.8905 F200.00
G01 X8.2230 Y-19.0706 F200.00
G01 X8.1985 Y-19.0612 F200.00
G01 X6.2904 Y-18.4266 F200.00
G01 X6.2727 Y-18.4219 F200.00
G01 X4.3196 Y-17.9782 F200.00
G01 X4.2936 Y-17.9736 F200.00
G01 X2.2996 Y-17.7218 F200.00
G01 X2.2803 Y-17.7205 F200.00
G01 X0.2707 Y-17.6645 F200.00
G01 X0.2518 Y-17.6652 F200.00
G01 X-1.7541 Y-17.8055 F200.00
G01 X-1.7723 Y-17.8080 F200.00
G01 X-3.7606 Y-18.1446 F200.00
G01 X-5.7056 Y-18.6728 F200.00
G01 X-5.7307 Y-18.6809 F200.00
G01 X-7.6030 Y-19.3922 F200.00
G01 X-7.6272 Y-19.4027 F200.00
G01 X-9.4322 Y-20.2991 F200.00
G01 X-11.1427 Y-21.3675 F200.00
G01 X-11.1616 Y-21.3804 F200.00
G01 X-12.7622 Y-22.6135 F200.00
G01 X-14.2374 Y-23.9986 F200.00
G01 X-14.2496 Y-24.0117 F200.00
G01 X-15.5689 Y-25.5186 F200.00
G01 X-15.5817 Y-25.5345 F200.00
G01 X-16.7512 Y-27.1678 F200.00
G01 X-16.7654 Y-27.1900 F200.00
G01 X-17.7669 Y-28.9245 F200.00
G01 X-17.7789 Y-28.9480 F200.00
G01 X-18.6071 Y-30.7738 F200.00
G01 X-18.6160 Y-30.7964 F200.00
G01 X-19.2615 Y-32.6924 F200.00
G01 X-19.2687 Y-32.7178 F200.00
G01 X-19.7280 Y-34.6764 F200.00
G01 X-19.7308 Y-34.6936 F200.00
G01 X-19.9968 Y-36.6877 F200.00
G01 X-19.9979 Y-36.7052 F200.00
G01 X-20.0388 Y-37.8756 F200.00
G01 X-20.0521 Y-37.8811 F200.00
G01 X-20.0794 Y-37.8942 F200.00
G01 X-20.1270 Y-37.9207 F200.00
G01 X-20.1443 Y-37.9320 F200.00
G01 X-20.1904 Y-37.9650 F200.00
G01 X-20.2045 Y-37.9768 F200.00
G01 X-20.2490 Y-38.0171 F200.00
G01 X-20.2893 Y-38.0616 F200.00
G01 X-20.3011 Y-38.0757 F200.00
G01 X-20.3341 Y-38.1218 F200.00
G01 X-20.3454 Y-38.1392 F200.00
G01 X-20.3719 Y-38.1867 F200.00
G01 X-20.3849 Y-38.2141 F200.00
G01 X-20.4035 Y-38.2585 F200.00
G00 Z2.5400
G00 X-20.5276 Y-38.1336
G01 F100.00
G01 Z-0.1500
G01 F200.00
G01 X-20.4552 Y-40.2065 F200.00
G01 X-20.1809 Y-42.2624 F200.00
G01 X-19.7073 Y-44.2817 F200.00
G01 X-19.0389 Y-46.2452 F200.00
G01 X-18.1820 Y-48.1340 F200.00
G01 X-17.1450 Y-49.9303 F200.00
G01 X-15.9376 Y-51.6168 F200.00
G01 X-14.5714 Y-53.1774 F200.00
G01 X-13.0594 Y-54.5972 F200.00
G01 X-11.4161 Y-55.8627 F200.00
G01 X-9.6571 Y-56.9619 F200.00
G01 X-7.7993 Y-57.8841 F200.00
G01 X-5.8603 Y-58.6206 F200.00
G01 X-3.8588 Y-59.1644 F200.00
G01 X-1.8137 Y-59.5103 F200.00
G01 X0.2554 Y-59.6550 F200.00
G01 X2.3287 Y-59.5971 F200.00
G01 X4.3865 Y-59.3372 F200.00
G01 X6.4091 Y-58.8776 F200.00
G01 X8.3772 Y-58.2229 F200.00
G01 X10.2720 Y-57.3793 F200.00
G01 X12.0754 Y-56.3548 F200.00
G01 X13.7703 Y-55.1592 F200.00
G01 X15.3404 Y-53.8039 F200.00
G01 X16.7708 Y-52.3019 F200.00
G01 X18.0477 Y-50.6675 F200.00
G01 X19.1591 Y-48.9162 F200.00
G01 X20.0943 Y-47.0649 F200.00
G01 X20.8443 Y-45.1311 F200.00
G01 X21.4021 Y-43.1334 F200.00
G01 X21.7623 Y-41.0908 F200.00
G01 X21.9218 Y-39.0181 F200.00
G01 X21.9299 Y-38.4347 F200.00
G01 X21.8284 Y-36.3583 F200.00
G01 X21.5254 Y-34.3065 F200.00
G01 X21.0236 Y-32.2939 F200.00
G01 X20.3278 Y-30.3400 F200.00
G01 X19.4447 Y-28.4633 F200.00
G01 X18.3826 Y-26.6817 F200.00
G01 X17.1518 Y-25.0122 F200.00
G01 X15.7640 Y-23.4708 F200.00
G01 X14.2323 Y-22.0723 F200.00
G01 X12.5715 Y-20.8298 F200.00
G01 X10.7973 Y-19.7553 F200.00
G01 X8.9268 Y-18.8591 F200.00
G01 X6.9778 Y-18.1497 F200.00
G01 X4.9688 Y-17.6339 F200.00
G01 X2.9191 Y-17.3166 F200.00
G01 X0.8482 Y-17.2008 F200.00
G01 X-1.2241 Y-17.2877 F200.00
G01 X-3.2780 Y-17.5764 F200.00
G01 X-5.2940 Y-18.0641 F200.00
G01 X-7.2528 Y-18.7462 F200.00
G01 X-9.1356 Y-19.6162 F200.00
G01 X-10.9246 Y-20.6658 F200.00
G01 X-12.6026 Y-21.8849 F200.00
G01 X-14.1536 Y-23.2620 F200.00
G01 X-15.5629 Y-24.7838 F200.00
G01 X-16.8169 Y-26.4359 F200.00
G01 X-17.9037 Y-28.2025 F200.00
G01 X-18.8129 Y-30.0667 F200.00
G01 X-19.5359 Y-32.0108 F200.00
G01 X-20.0658 Y-34.0161 F200.00
G01 X-20.3974 Y-36.0636 F200.00
G01 X-20.5276 Y-38.1336 F200.00
G01 X-20.4552 Y-40.2065 F200.00
G00 Z2.5400
G00 X-20.6978 Y-38.1312
G01 F100.00
G01 Z-0.1500
G01 F200.00
G01 X-20.6248 Y-40.2207 F200.00
G01 X-20.3483 Y-42.2931 F200.00
G01 X-19.8709 Y-44.3286 F200.00
G01 X-19.1971 Y-46.3078 F200.00
G01 X-18.3334 Y-48.2118 F200.00
G01 X-17.2880 Y-50.0225 F200.00
G01 X-16.0709 Y-51.7225 F200.00
G01 X-14.6938 Y-53.2956 F200.00
G01 X-13.1697 Y-54.7268 F200.00
G01 X-11.5132 Y-56.0025 F200.00
G01 X-9.7401 Y-57.1104 F200.00
G01 X-7.8674 Y-58.0401 F200.00
G01 X-5.9129 Y-58.7825 F200.00
G01 X-3.8953 Y-59.3307 F200.00
G01 X-1.8338 Y-59.6793 F200.00
G01 X0.2518 Y-59.8252 F200.00
G01 X2.3418 Y-59.7668 F200.00
G01 X4.4161 Y-59.5048 F200.00
G01 X6.4549 Y-59.0416 F200.00
G01 X8.4387 Y-58.3816 F200.00
G01 X10.3487 Y-57.5312 F200.00
G01 X12.1666 Y-56.4985 F200.00
G01 X13.8751 Y-55.2933 F200.00
G01 X15.4578 Y-53.9272 F200.00
G01 X16.8996 Y-52.4131 F200.00
G01 X18.1868 Y-50.7656 F200.00
G01 X19.3071 Y-49.0003 F200.00
G01 X20.2498 Y-47.1341 F200.00
G01 X21.0058 Y-45.1849 F200.00
G01 X21.5681 Y-43.1711 F200.00
G01 X21.9311 Y-41.1121 F200.00
G01 X22.0917 Y-39.0258 F200.00
G01 X22.1000 Y-38.4317 F200.00
G01 X21.9977 Y-36.3417 F200.00
G01 X21.6923 Y-34.2734 F200.00
G01 X21.1865 Y-32.2448 F200.00
G01 X20.4852 Y-30.2751 F200.00
G01 X19.5950 Y-28.3834 F200.00
G01 X18.5244 Y-26.5875 F200.00
G01 X17.2837 Y-24.9046 F200.00
G01 X15.8847 Y-23.3509 F200.00
G01 X14.3408 Y-21.9411 F200.00
G01 X12.6667 Y-20.6887 F200.00
G01 X10.8783 Y-19.6056 F200.00
G01 X8.9928 Y-18.7022 F200.00
G01 X7.0281 Y-17.9872 F200.00
G01 X5.0030 Y-17.4672 F200.00
G01 X2.9369 Y-17.1474 F200.00
G01 X0.8494 Y-17.0306 F200.00
G01 X-1.2395 Y-17.1182 F200.00
G01 X-3.3099 Y-17.4092 F200.00
G01 X-5.3421 Y-17.9008 F200.00
G01 X-7.3165 Y-18.5884 F200.00
G01 X-9.2145 Y-19.4653 F200.00
G01 X-11.0178 Y-20.5233 F200.00
G01 X-12.7092 Y-21.7523 F200.00
G01 X-14.2727 Y-23.1404 F200.00
G01 X-15.6933 Y-24.6744 F200.00
G01 X-16.9573 Y-26.3398 F200.00
G01 X-18.0529 Y-28.1205 F200.00
G01 X-18.9694 Y-29.9997 F200.00
G01 X-19.6982 Y-31.9593 F200.00
G01 X-20.2322 Y-33.9807 F200.00
G01 X-20.5665 Y-36.0446 F200.00
G01 X-20.6978 Y-38.1312 F200.00
G01 X-20.6248 Y-40.2207 F200.00
G00 Z2.5400
G00 X-20.3228 Y-39.1273
G01 F100.00
G01 Z-0.1500
G01 F200.00
G01 X-20.2856 Y-40.1922 F200.00
G01 X-20.0135 Y-42.2316 F200.00
G01 X-19.5437 Y-44.2348 F200.00
G01 X-18.8806 Y-46.1825 F200.00
G01 X-18.0306 Y-48.0562 F200.00
G01 X-17.0019 Y-49.8381 F200.00
G01 X-15.8042 Y-51.5110 F200.00
G01 X-14.4489 Y-53.0591 F200.00
G01 X-12.9491 Y-54.4676 F200.00
G01 X-11.3189 Y-55.7230 F200.00
G01 X-9.5741 Y-56.8133 F200.00
G01 X-7.7311 Y-57.7281 F200.00
G01 X-5.8077 Y-58.4587 F200.00
G01 X-3.8222 Y-58.9982 F200.00
G01 X-1.7935 Y-59.3413 F200.00
G01 X0.2590 Y-59.4849 F200.00
G01 X2.3157 Y-59.4274 F200.00
G01 X4.3569 Y-59.1695 F200.00
G01 X6.3633 Y-58.7137 F200.00
G01 X8.3156 Y-58.0642 F200.00
G01 X10.1952 Y-57.2274 F200.00
G01 X11.9842 Y-56.2111 F200.00
G01 X13.6655 Y-55.0251 F200.00
G01 X15.2230 Y-53.6807 F200.00
G01 X16.6419 Y-52.1907 F200.00
G01 X17.9086 Y-50.5694 F200.00
G01 X19.0111 Y-48.8322 F200.00
G01 X19.9388 Y-46.9957 F200.00
G01 X20.6828 Y-45.0774 F200.00
G01 X21.2361 Y-43.0957 F200.00
G01 X21.5934 Y-41.0695 F200.00
G01 X21.7519 Y-39.0103 F200.00
G01 X21.7598 Y-38.4377 F200.00
G01 X21.6590 Y-36.3750 F200.00
G01 X21.3584 Y-34.3395 F200.00
G01 X20.8606 Y-32.3431 F200.00
G01 X20.1705 Y-30.4049 F200.00
G01 X19.2944 Y-28.5432 F200.00
G01 X18.2409 Y-26.7759 F200.00
G01 X17.0199 Y-25.1198 F200.00
G01 X15.6432 Y-23.5908 F200.00
G01 X14.1238 Y-22.2034 F200.00
G01 X12.4763 Y-20.9709 F200.00
G01 X10.7164 Y-19.9051 F200.00
G01 X8.8609 Y-19.0160 F200.00
G01 X6.9275 Y-18.3123 F200.00
G01 X4.9346 Y-17.8007 F200.00
G01 X2.9013 Y-17.4859 F200.00
G01 X0.8470 Y-17.3710 F200.00
G01 X-1.2087 Y-17.4572 F200.00
G01 X-3.2462 Y-17.7435 F200.00
G01 X-5.2460 Y-18.2274 F200.00
G01 X-7.1890 Y-18.9040 F200.00
G01 X-9.0568 Y-19.7670 F200.00
G01 X-10.8314 Y-20.8082 F200.00
G01 X-12.4959 Y-22.0176 F200.00
G01 X-14.0345 Y-23.3836 F200.00
G01 X-15.4325 Y-24.8932 F200.00
G01 X-16.6765 Y-26.5321 F200.00
G01 X-17.7546 Y-28.2845 F200.00
G01 X-18.6565 Y-30.1338 F200.00
G01 X-19.3737 Y-32.0622 F200.00
G01 X-19.8993 Y-34.0515 F200.00
G01 X-20.2282 Y-36.0825 F200.00
G01 X-20.3407 Y-37.8706 F200.00
G01 X-20.3178 Y-37.8501 F200.00
G01 X-20.2948 Y-37.8309 F200.00
G01 X-20.2427 Y-37.7934 F200.00
G01 X-20.2052 Y-37.7696 F200.00
G01 X-20.1678 Y-36.6992 F200.00
G01 X-20.1659 Y-36.6708 F200.00
G01 X-19.8993 Y-34.6712 F200.00
G01 X-19.8916 Y-34.6289 F200.00
G01 X-19.4342 Y-32.6790 F200.00
G01 X-19.4224 Y-32.6376 F200.00
G01 X-18.7769 Y-30.7417 F200.00
G01 X-18.7625 Y-30.7047 F200.00
G01 X-17.9337 Y-28.8777 F200.00
G01 X-17.9141 Y-28.8395 F200.00
G01 X-16.9127 Y-27.1050 F200.00
G01 X-16.8894 Y-27.0688 F200.00
G01 X-15.7235 Y-25.4403 F200.00
G01 X-15.6968 Y-25.4066 F200.00
G01 X-14.3775 Y-23.8997 F200.00
G01 X-14.3477 Y-23.8688 F200.00
G01 X-12.8728 Y-22.4844 F200.00
G01 X-12.8549 Y-22.4699 F200.00
G01 X-11.2681 Y-21.2478 F200.00
G01 X-11.2328 Y-21.2233 F200.00
G01 X-9.5343 Y-20.1620 F200.00
G01 X-9.5148 Y-20.1505 F200.00
G01 X-9.4968 Y-20.1410 F200.00
G01 X-7.7028 Y-19.2505 F200.00
G01 X-7.6634 Y-19.2332 F200.00
G01 X-5.7911 Y-18.5220 F200.00
G01 X-5.7502 Y-18.5087 F200.00
G01 X-3.7975 Y-17.9787 F200.00
G01 X-3.7755 Y-17.9744 F200.00
G01 X-1.8007 Y-17.6404 F200.00
G01 X-1.7711 Y-17.6364 F200.00
G01 X0.2400 Y-17.4956 F200.00
G01 X0.2830 Y-17.4947 F200.00
G01 X2.2850 Y-17.5506 F200.00
G01 X2.3165 Y-17.5526 F200.00
G01 X4.3149 Y-17.8049 F200.00
G01 X4.3573 Y-17.8124 F200.00
G01 X6.3103 Y-18.2561 F200.00
G01 X6.3393 Y-18.2637 F200.00
G01 X8.2522 Y-18.8999 F200.00
G01 X8.2920 Y-18.9153 F200.00
G01 X10.1220 Y-19.7300 F200.00
G01 X10.1398 Y-19.7384 F200.00
G01 X10.1603 Y-19.7494 F200.00
G01 X11.9018 Y-20.7387 F200.00
G01 X11.9381 Y-20.7617 F200.00
G01 X13.5747 Y-21.9162 F200.00
G01 X13.6086 Y-21.9427 F200.00
G01 X15.1247 Y-23.2514 F200.00
G01 X15.1483 Y-23.2734 F200.00
G01 X16.5370 Y-24.7314 F200.00
G01 X16.5651 Y-24.7640 F200.00
G01 X17.7982 Y-26.3422 F200.00
G01 X17.8230 Y-26.3774 F200.00
G01 X18.8962 Y-28.0684 F200.00
G01 X18.9093 Y-28.0905 F200.00
G01 X18.9174 Y-28.1058 F200.00
G01 X19.8204 Y-29.8935 F200.00
G01 X19.8298 Y-29.9132 F200.00
G01 X19.8379 Y-29.9328 F200.00
G01 X20.5622 Y-31.8001 F200.00
G01 X20.5694 Y-31.8201 F200.00
G01 X20.5757 Y-31.8409 F200.00
G01 X21.1144 Y-33.7699 F200.00
G01 X21.1220 Y-33.8020 F200.00
G01 X21.4717 Y-35.7843 F200.00
G01 X21.4710 Y-35.7844 F200.00
G01 X21.4771 Y-35.8269 F200.00
G01 X21.6307 Y-37.8238 F200.00
G01 X21.6320 Y-37.8515 F200.00
G01 X21.6400 Y-38.4239 F200.00
G01 X21.6395 Y-38.4515 F200.00
G01 X21.5416 Y-40.4519 F200.00
G01 X21.5400 Y-40.4742 F200.00
G01 X21.2449 Y-42.4761 F200.00
G01 X21.2365 Y-42.5182 F200.00
G01 X20.7465 Y-44.4816 F200.00
G01 X20.7396 Y-44.5028 F200.00
G01 X20.0677 Y-46.3895 F200.00
G01 X20.0513 Y-46.4293 F200.00
G01 X19.1940 Y-48.2509 F200.00
G01 X19.1784 Y-48.2795 F200.00
G01 X18.1528 Y-49.9998 F200.00
G01 X18.1290 Y-50.0356 F200.00
G01 X16.9384 Y-51.6506 F200.00
G01 X16.9133 Y-51.6810 F200.00
G01 X15.5732 Y-53.1694 F200.00
G01 X15.5573 Y-53.1861 F200.00
G01 X14.0535 Y-54.5596 F200.00
G01 X14.0308 Y-54.5778 F200.00
G01 X12.4270 Y-55.7776 F200.00
G01 X12.3914 Y-55.8016 F200.00
G01 X10.6782 Y-56.8392 F200.00
G01 X10.6404 Y-56.8596 F200.00
G01 X8.8228 Y-57.7303 F200.00
G01 X8.7946 Y-57.7417 F200.00
G01 X6.9125 Y-58.4267 F200.00
G01 X6.8714 Y-58.4394 F200.00
G01 X4.9315 Y-58.9375 F200.00
G01 X4.9084 Y-58.9427 F200.00
G01 X2.8914 Y-59.2550 F200.00
G01 X2.8674 Y-59.2570 F200.00
G01 X0.8677 Y-59.3688 F200.00
G01 X0.8431 Y-59.3695 F200.00
G01 X0.8247 Y-59.3691 F200.00
G01 X-1.1764 Y-59.2852 F200.00
G01 X-1.2017 Y-59.2834 F200.00
G01 X-3.2026 Y-59.0026 F200.00
G01 X-3.2276 Y-58.9983 F200.00
G01 X-3.2448 Y-58.9946 F200.00
G01 X-5.1915 Y-58.5236 F200.00
G01 X-5.2271 Y-58.5134 F200.00
G01 X-7.1241 Y-57.8528 F200.00
G01 X-7.1640 Y-57.8367 F200.00
G01 X-8.9821 Y-56.9966 F200.00
G01 X-9.0202 Y-56.9767 F200.00
G01 X-10.7582 Y-55.9568 F200.00
G01 X-10.7837 Y-55.9396 F200.00
G01 X-12.4040 Y-54.7624 F200.00
G01 X-12.4317 Y-54.7405 F200.00
G01 X-13.9352 Y-53.4057 F200.00
G01 X-13.9542 Y-53.3878 F200.00
G01 X-13.9659 Y-53.3756 F200.00
G01 X-15.3350 Y-51.8969 F200.00
G01 X-15.3544 Y-51.8732 F200.00
G01 X-16.5653 Y-50.2778 F200.00
G01 X-16.5896 Y-50.2424 F200.00
G01 X-17.6390 Y-48.5365 F200.00
G01 X-17.6598 Y-48.4988 F200.00
G01 X-18.5444 Y-46.6845 F200.00
G01 X-18.5547 Y-46.6592 F200.00
G01 X-19.2578 Y-44.7677 F200.00
G01 X-19.2658 Y-44.7410 F200.00
G01 X-19.7774 Y-42.8046 F200.00
G01 X-19.7835 Y-42.7785 F200.00
G01 X-20.1066 Y-40.7855 F200.00
G01 X-20.1101 Y-40.7589 F200.00
G01 X-20.2078 Y-39.2107 F200.00
G01 X-20.2427 Y-39.1884 F200.00
G01 X-20.2792 Y-39.1625 F200.00
G01 X-20.2948 Y-39.1510 F200.00
G01 X-20.3228 Y-39.1273 F200.00
G01 X-20.2856 Y-40.1922 F200.00
G00 Z2.5400
G00 X-26.2193 Y-38.2531
G01 F100.00
G01 Z-0.1500
G01 F200.00
G01 X-26.2370 Y-38.2957 F200.00
G01 X-26.2531 Y-38.3496 F200.00
G01 X-26.2637 Y-38.4111 F200.00
G01 X-26.2666 Y-38.4649 F200.00
G01 X-26.2637 Y-38.5188 F200.00
G01 X-26.2531 Y-38.5803 F200.00
G01 X-26.2370 Y-38.6342 F200.00
G01 X-26.2194 Y-38.6768 F200.00
G01 X-26.2145 Y-38.6869 F200.00
G01 X-26.1911 Y-38.7292 F200.00
G01 X-26.1583 Y-38.7757 F200.00
G01 X-26.1202 Y-38.8185 F200.00
G01 X-26.0774 Y-38.8566 F200.00
G01 X-26.0309 Y-38.8894 F200.00
G01 X-25.9885 Y-38.9129 F200.00
G01 X-25.9784 Y-38.9177 F200.00
G01 X-25.9359 Y-38.9353 F200.00
G01 X-25.8882 Y-38.9496 F200.00
G01 X-25.7344 Y-41.3939 F200.00
G01 X-25.3190 Y-43.9593 F200.00
G01 X-24.6544 Y-46.4744 F200.00
G01 X-23.7485 Y-48.9101 F200.00
G01 X-22.6120 Y-51.2403 F200.00
G01 X-21.2503 Y-53.4546 F200.00
G01 X-19.6754 Y-55.5297 F200.00
G01 X-17.9118 Y-57.4342 F200.00
G01 X-15.9701 Y-59.1584 F200.00
G01 X-13.8634 Y-60.6891 F200.00
G01 X-11.6259 Y-62.0018 F200.00
G01 X-9.2690 Y-63.0911 F200.00
G01 X-6.8137 Y-63.9467 F200.00
G01 X-4.2852 Y-64.5587 F200.00
G01 X-1.7117 Y-64.9204 F200.00
G01 X0.8850 Y-65.0294 F200.00
G01 X3.4810 Y-64.8842 F200.00
G01 X6.0482 Y-64.4868 F200.00
G01 X8.5679 Y-63.8397 F200.00
G01 X11.0098 Y-62.9508 F200.00
G01 X13.3558 Y-61.8262 F200.00
G01 X15.5785 Y-60.4796 F200.00
G01 X17.6568 Y-58.9245 F200.00
G01 X19.5743 Y-57.1735 F200.00
G01 X21.3160 Y-55.2388 F200.00
G01 X22.8529 Y-53.1542 F200.00
G01 X24.1876 Y-50.9157 F200.00
G01 X25.2919 Y-48.5690 F200.00
G01 X26.1647 Y-46.1181 F200.00
G01 X26.7929 Y-43.5989 F200.00
G01 X27.1730 Y-41.0259 F200.00
G01 X27.3000 Y-38.4300 F200.00
G01 X27.2894 Y-37.6824 F200.00
G01 X27.0907 Y-35.1010 F200.00
G01 X26.6395 Y-32.5394 F200.00
G01 X25.9401 Y-30.0337 F200.00
G01 X25.0003 Y-27.6109 F200.00
G01 X23.8290 Y-25.2920 F200.00
G01 X22.4388 Y-23.1010 F200.00
G01 X20.8392 Y-21.0528 F200.00
G01 X19.0456 Y-19.1687 F200.00
G01 X17.0801 Y-17.4718 F200.00
G01 X14.9571 Y-15.9736 F200.00
G01 X12.6930 Y-14.6870 F200.00
G01 X10.3237 Y-13.6320 F200.00
G01 X7.8551 Y-12.8104 F200.00
G01 X5.3238 Y-12.2351 F200.00
G01 X2.7430 Y-11.9086 F200.00
G01 X0.1450 Y-11.8358 F200.00
G01 X-2.4477 Y-12.0169 F200.00
G01 X-5.0122 Y-12.4506 F200.00
G01 X-7.5152 Y-13.1305 F200.00
G01 X-9.9448 Y-14.0529 F200.00
G01 X-12.2768 Y-15.2101 F200.00
G01 X-14.4839 Y-16.5895 F200.00
G01 X-16.5403 Y-18.1733 F200.00
G01 X-18.4332 Y-19.9508 F200.00
G01 X-20.1479 Y-21.9096 F200.00
G01 X-21.6563 Y-24.0165 F200.00
G01 X-22.9561 Y-26.2669 F200.00
G01 X-24.0305 Y-28.6341 F200.00
G01 X-24.8681 Y-31.0934 F200.00
G01 X-25.4620 Y-33.6234 F200.00
G01 X-25.8066 Y-36.2026 F200.00
G01 X-25.8687 Y-37.9758 F200.00
G01 X-25.8819 Y-37.9785 F200.00
G01 X-25.9264 Y-37.9913 F200.00
G01 X-25.9359 Y-37.9945 F200.00
G01 X-25.9784 Y-38.0122 F200.00
G01 X-25.9885 Y-38.0170 F200.00
G01 X-26.0309 Y-38.0405 F200.00
G01 X-26.0774 Y-38.0733 F200.00
G01 X-26.1202 Y-38.1114 F200.00
G01 X-26.1583 Y-38.1542 F200.00
G01 X-26.1911 Y-38.2007 F200.00
G01 X-26.2145 Y-38.2430 F200.00
G01 X-26.2193 Y-38.2531 F200.00
G01 X-26.2370 Y-38.2957 F200.00
G00 Z2.5400
G00 X-26.3763 Y-38.1881
G01 F100.00
G01 Z-0.1500
G01 F200.00
G01 X-26.3949 Y-38.2326 F200.00
G01 X-26.4036 Y-38.2581 F200.00
G01 X-26.4171 Y-38.3049 F200.00
G01 X-26.4228 Y-38.3307 F200.00
G01 X-26.4303 Y-38.3749 F200.00
G01 X-26.4330 Y-38.3957 F200.00
G01 X-26.4362 Y-38.4498 F200.00
G01 X-26.4362 Y-38.4801 F200.00
G01 X-26.4337 Y-38.5249 F200.00
G01 X-26.4303 Y-38.5550 F200.00
G01 X-26.4228 Y-38.5992 F200.00
G01 X-26.4171 Y-38.6250 F200.00
G01 X-26.4036 Y-38.6718 F200.00
G01 X-26.3949 Y-38.6973 F200.00
G01 X-26.3765 Y-38.7418 F200.00
G01 X-26.3633 Y-38.7691 F200.00
G01 X-26.3368 Y-38.8167 F200.00
G01 X-26.3255 Y-38.8340 F200.00
G01 X-26.2925 Y-38.8801 F200.00
G01 X-26.2508 Y-38.9277 F200.00
G01 X-26.2294 Y-38.9491 F200.00
G01 X-26.1959 Y-38.9790 F200.00
G01 X-26.1723 Y-38.9979 F200.00
G01 X-26.1357 Y-39.0238 F200.00
G01 X-26.1183 Y-39.0352 F200.00
G01 X-26.0708 Y-39.0616 F200.00
G01 X-26.0509 Y-39.0711 F200.00
G01 X-25.9035 Y-41.4108 F200.00
G01 X-25.4857 Y-43.9926 F200.00
G01 X-24.8206 Y-46.5118 F200.00
G01 X-24.8157 Y-46.5282 F200.00
G01 X-23.9102 Y-48.9636 F200.00
G01 X-23.9038 Y-48.9791 F200.00
G01 X-22.7648 Y-51.3148 F200.00
G01 X-22.7521 Y-51.3379 F200.00
G01 X-21.3945 Y-53.5447 F200.00
G01 X-21.3806 Y-53.5649 F200.00
G01 X-19.8152 Y-55.6271 F200.00
G01 X-19.8034 Y-55.6417 F200.00
G01 X-18.0320 Y-57.5544 F200.00
G01 X-16.0807 Y-59.2875 F200.00
G01 X-16.0637 Y-59.3009 F200.00
G01 X-13.9691 Y-60.8227 F200.00
G01 X-13.9535 Y-60.8332 F200.00
G01 X-11.7085 Y-62.1504 F200.00
G01 X-11.6906 Y-62.1595 F200.00
G01 X-9.3403 Y-63.2455 F200.00
G01 X-9.3159 Y-63.2554 F200.00
G01 X-6.8674 Y-64.1080 F200.00
G01 X-6.8455 Y-64.1142 F200.00
G01 X-4.3186 Y-64.7254 F200.00
G01 X-1.7286 Y-65.0896 F200.00
G01 X0.8850 Y-65.1994 F200.00
G01 X3.4998 Y-65.0532 F200.00
G01 X6.0815 Y-64.6535 F200.00
G01 X8.6034 Y-64.0064 F200.00
G01 X8.6216 Y-64.0010 F200.00
G01 X11.0615 Y-63.1131 F200.00
G01 X11.0788 Y-63.1061 F200.00
G01 X13.4207 Y-61.9842 F200.00
G01 X13.4439 Y-61.9716 F200.00
G01 X15.6585 Y-60.6304 F200.00
G01 X15.6803 Y-60.6157 F200.00
G01 X17.7535 Y-59.0648 F200.00
G01 X17.7675 Y-59.0536 F200.00
G01 X19.6945 Y-57.2937 F200.00
G01 X21.4367 Y-55.3594 F200.00
G01 X21.4520 Y-55.3408 F200.00
G01 X22.9897 Y-53.2551 F200.00
G01 X23.0043 Y-53.2331 F200.00
G01 X24.3300 Y-51.0092 F200.00
G01 X24.3396 Y-50.9917 F200.00
G01 X25.4472 Y-48.6380 F200.00
G01 X25.4548 Y-48.6189 F200.00
G01 X26.3276 Y-46.1669 F200.00
G01 X26.9589 Y-43.6358 F200.00
G01 X26.9624 Y-43.6167 F200.00
G01 X27.3422 Y-41.0428 F200.00
G01 X27.4700 Y-38.4300 F200.00
G01 X27.4596 Y-37.6863 F200.00
G01 X27.4589 Y-37.6694 F200.00
G01 X27.2602 Y-35.0880 F200.00
G01 X27.2569 Y-35.0618 F200.00
G01 X26.8062 Y-32.5060 F200.00
G01 X26.8015 Y-32.4864 F200.00
G01 X26.1014 Y-29.9799 F200.00
G01 X25.1557 Y-27.5418 F200.00
G01 X23.9776 Y-25.2094 F200.00
G01 X22.5823 Y-23.0099 F200.00
G01 X22.5671 Y-22.9883 F200.00
G01 X20.9731 Y-20.9481 F200.00
G01 X20.9559 Y-20.9282 F200.00
G01 X19.1658 Y-19.0485 F200.00
G01 X19.1513 Y-19.0351 F200.00
G01 X17.1907 Y-17.3427 F200.00
G01 X17.1707 Y-17.3271 F200.00
G01 X15.0550 Y-15.8347 F200.00
G01 X15.0328 Y-15.8205 F200.00
G01 X12.7690 Y-14.5350 F200.00
G01 X10.3927 Y-13.4767 F200.00
G01 X10.3683 Y-13.4672 F200.00
G01 X7.9040 Y-12.6476 F200.00
G01 X7.8862 Y-12.6429 F200.00
G01 X5.3615 Y-12.0693 F200.00
G01 X5.3355 Y-12.0647 F200.00
G01 X2.7599 Y-11.7394 F200.00
G01 X2.7406 Y-11.7382 F200.00
G01 X0.1450 Y-11.6658 F200.00
G01 X0.1262 Y-11.6665 F200.00
G01 X-2.4646 Y-11.8478 F200.00
G01 X-2.4827 Y-11.8502 F200.00
G01 X-5.0491 Y-12.2846 F200.00
G01 X-7.5597 Y-12.9664 F200.00
G01 X-7.5848 Y-12.9746 F200.00
G01 X-10.0051 Y-13.8940 F200.00
G01 X-10.0293 Y-13.9045 F200.00
G01 X-12.3594 Y-15.0615 F200.00
G01 X-14.5670 Y-16.4406 F200.00
G01 X-14.5859 Y-16.4535 F200.00
G01 X-16.6509 Y-18.0442 F200.00
G01 X-18.5534 Y-19.8306 F200.00
G01 X-18.5657 Y-19.8437 F200.00
G01 X-20.2710 Y-21.7917 F200.00
G01 X-20.2839 Y-21.8076 F200.00
G01 X-21.7946 Y-23.9176 F200.00
G01 X-21.8088 Y-23.9397 F200.00
G01 X-23.1034 Y-26.1819 F200.00
G01 X-23.1154 Y-26.2054 F200.00
G01 X-24.1858 Y-28.5650 F200.00
G01 X-24.1947 Y-28.5877 F200.00
G01 X-25.0290 Y-31.0386 F200.00
G01 X-25.0363 Y-31.0640 F200.00
G01 X-25.6275 Y-33.5846 F200.00
G01 X-25.6323 Y-33.6105 F200.00
G01 X-25.9757 Y-36.1857 F200.00
G01 X-25.9769 Y-36.2031 F200.00
G01 X-26.0345 Y-37.8514 F200.00
G01 X-26.0708 Y-37.8683 F200.00
G01 X-26.1183 Y-37.8947 F200.00
G01 X-26.1357 Y-37.9061 F200.00
G01 X-26.1818 Y-37.9391 F200.00
G01 X-26.1959 Y-37.9509 F200.00
G01 X-26.2404 Y-37.9912 F200.00
G01 X-26.2807 Y-38.0356 F200.00
G01 X-26.2925 Y-38.0498 F200.00
G01 X-26.3255 Y-38.0959 F200.00
G01 X-26.3368 Y-38.1132 F200.00
G01 X-26.3633 Y-38.1608 F200.00
G01 X-26.3763 Y-38.1881 F200.00
G01 X-26.3949 Y-38.2326 F200.00
G00 Z2.5400
G00 X-26.5270 Y-38.0498
G01 F100.00
G01 Z-0.1500
G01 F200.00
G01 X-26.4342 Y-40.7085 F200.00
G01 X-26.0823 Y-43.3455 F200.00
G01 X-25.4748 Y-45.9355 F200.00
G01 X-24.6175 Y-48.4539 F200.00
G01 X-23.5185 Y-50.8766 F200.00
G01 X-22.1884 Y-53.1805 F200.00
G01 X-20.6397 Y-55.3437 F200.00
G01 X-18.8874 Y-57.3453 F200.00
G01 X-16.9481 Y-59.1664 F200.00
G01 X-14.8403 Y-60.7896 F200.00
G01 X-12.5843 Y-62.1994 F200.00
G01 X-10.2014 Y-63.3823 F200.00
G01 X-7.7144 Y-64.3270 F200.00
G01 X-5.1472 Y-65.0245 F200.00
G01 X-2.5241 Y-65.4681 F200.00
G01 X0.1297 Y-65.6537 F200.00
G01 X2.7890 Y-65.5794 F200.00
G01 X5.4284 Y-65.2460 F200.00
G01 X8.0226 Y-64.6566 F200.00
G01 X10.5469 Y-63.8169 F200.00
G01 X12.9772 Y-62.7348 F200.00
G01 X15.2904 Y-61.4208 F200.00
G01 X17.4643 Y-59.8873 F200.00
G01 X19.4781 Y-58.1490 F200.00
G01 X21.3127 Y-56.2224 F200.00
G01 X22.9506 Y-54.1261 F200.00
G01 X24.3761 Y-51.8799 F200.00
G01 X25.5755 Y-49.5053 F200.00
G01 X26.5376 Y-47.0250 F200.00
G01 X27.2530 Y-44.4627 F200.00
G01 X27.7150 Y-41.8428 F200.00
G01 X27.9194 Y-39.1856 F200.00
G01 X27.9299 Y-38.4347 F200.00
G01 X27.7997 Y-35.7728 F200.00
G01 X27.4111 Y-33.1411 F200.00
G01 X26.7675 Y-30.5598 F200.00
G01 X25.8751 Y-28.0536 F200.00
G01 X24.7424 Y-25.6464 F200.00
G01 X23.3802 Y-23.3613 F200.00
G01 X21.8015 Y-21.2200 F200.00
G01 X20.0214 Y-19.2430 F200.00
G01 X18.0568 Y-17.4492 F200.00
G01 X15.9266 Y-15.8556 F200.00
G01 X13.6511 Y-14.4775 F200.00
G01 X11.2519 Y-13.3280 F200.00
G01 X8.7520 Y-12.4181 F200.00
G01 X6.1753 Y-11.7565 F200.00
G01 X3.5463 Y-11.3495 F200.00
G01 X0.8901 Y-11.2010 F200.00
G01 X-1.7679 Y-11.3124 F200.00
G01 X-4.4023 Y-11.6826 F200.00
G01 X-6.9881 Y-12.3082 F200.00
G01 X-9.5004 Y-13.1831 F200.00
G01 X-11.9154 Y-14.2990 F200.00
G01 X-14.2100 Y-15.6452 F200.00
G01 X-16.3622 Y-17.2089 F200.00
G01 X-18.3516 Y-18.9751 F200.00
G01 X-20.1591 Y-20.9271 F200.00
G01 X-21.7676 Y-23.0461 F200.00
G01 X-23.1615 Y-25.3120 F200.00
G01 X-24.3278 Y-27.7031 F200.00
G01 X-25.2551 Y-30.1966 F200.00
G01 X-25.9346 Y-32.7686 F200.00
G01 X-26.3600 Y-35.3947 F200.00
G01 X-26.5270 Y-38.0498 F200.00
G01 X-26.4342 Y-40.7085 F200.00
G00 Z2.5400
G00 X-26.6972 Y-38.0474
G01 F100.00
G01 Z-0.1500
G01 F200.00
G01 X-26.6038 Y-40.7228 F200.00
G01 X-26.2497 Y-43.3762 F200.00
G01 X-25.6385 Y-45.9824 F200.00
G01 X-24.7758 Y-48.5166 F200.00
G01 X-23.6699 Y-50.9544 F200.00
G01 X-22.3314 Y-53.2727 F200.00
G01 X-20.7731 Y-55.4494 F200.00
G01 X-19.0098 Y-57.4636 F200.00
G01 X-17.0584 Y-59.2961 F200.00
G01 X-14.9375 Y-60.9294 F200.00
G01 X-12.6673 Y-62.3480 F200.00
G01 X-10.2695 Y-63.5382 F200.00
G01 X-7.7670 Y-64.4888 F200.00
G01 X-5.1837 Y-65.1907 F200.00
G01 X-2.5443 Y-65.6371 F200.00
G01 X0.1262 Y-65.8239 F200.00
G01 X2.8021 Y-65.7491 F200.00
G01 X5.4579 Y-65.4136 F200.00
G01 X8.0684 Y-64.8205 F200.00
G01 X10.6085 Y-63.9756 F200.00
G01 X13.0540 Y-62.8867 F200.00
G01 X15.3816 Y-61.5645 F200.00
G01 X17.5691 Y-60.0214 F200.00
G01 X19.5955 Y-58.2722 F200.00
G01 X21.4416 Y-56.3336 F200.00
G01 X23.0897 Y-54.2242 F200.00
G01 X24.5241 Y-51.9639 F200.00
G01 X25.7310 Y-49.5745 F200.00
G01 X26.6991 Y-47.0787 F200.00
G01 X27.4190 Y-44.5004 F200.00
G01 X27.8838 Y-41.8641 F200.00
G01 X28.0893 Y-39.1933 F200.00
G01 X28.1000 Y-38.4317 F200.00
G01 X27.9691 Y-35.7562 F200.00
G01 X27.5781 Y-33.1080 F200.00
G01 X26.9304 Y-30.5106 F200.00
G01 X26.0325 Y-27.9887 F200.00
G01 X24.8927 Y-25.5665 F200.00
G01 X23.5219 Y-23.2671 F200.00
G01 X21.9334 Y-21.1125 F200.00
G01 X20.1422 Y-19.1231 F200.00
G01 X18.1653 Y-17.3180 F200.00
G01 X16.0218 Y-15.7145 F200.00
G01 X13.7320 Y-14.3277 F200.00
G01 X11.3179 Y-13.1711 F200.00
G01 X8.8024 Y-12.2555 F200.00
G01 X6.2095 Y-11.5898 F200.00
G01 X3.5641 Y-11.1802 F200.00
G01 X0.8913 Y-11.0308 F200.00
G01 X-1.7833 Y-11.1429 F200.00
G01 X-4.4342 Y-11.5154 F200.00
G01 X-7.0361 Y-12.1449 F200.00
G01 X-9.5642 Y-13.0253 F200.00
G01 X-11.9943 Y-14.1481 F200.00
G01 X-14.3032 Y-15.5028 F200.00
G01 X-16.4689 Y-17.0762 F200.00
G01 X-18.4707 Y-18.8535 F200.00
G01 X-20.2895 Y-20.8177 F200.00
G01 X-21.9080 Y-22.9500 F200.00
G01 X-23.3107 Y-25.2300 F200.00
G01 X-24.4842 Y-27.6360 F200.00
G01 X-25.4173 Y-30.1451 F200.00
G01 X-26.1011 Y-32.7332 F200.00
G01 X-26.5291 Y-35.3758 F200.00
G01 X-26.6972 Y-38.0474 F200.00
G01 X-26.6038 Y-40.7228 F200.00
G00 Z2.5400
G00 X-26.3204 Y-39.0958
G01 F100.00
G01 Z-0.1500
G01 F200.00
G01 X-26.2646 Y-40.6943 F200.00
G01 X-25.9149 Y-43.3148 F200.00
G01 X-25.3112 Y-45.8886 F200.00
G01 X-24.4593 Y-48.3913 F200.00
G01 X-23.3671 Y-50.7988 F200.00
G01 X-22.0453 Y-53.0883 F200.00
G01 X-20.5063 Y-55.2379 F200.00
G01 X-18.7650 Y-57.2271 F200.00
G01 X-16.8378 Y-59.0368 F200.00
G01 X-14.7432 Y-60.6499 F200.00
G01 X-12.5012 Y-62.0508 F200.00
G01 X-10.1332 Y-63.2263 F200.00
G01 X-7.6618 Y-64.1651 F200.00
G01 X-5.1106 Y-64.8582 F200.00
G01 X-2.5039 Y-65.2991 F200.00
G01 X0.1333 Y-65.4835 F200.00
G01 X2.7760 Y-65.4097 F200.00
G01 X5.3988 Y-65.0784 F200.00
G01 X7.9768 Y-64.4927 F200.00
G01 X10.4854 Y-63.6582 F200.00
G01 X12.9005 Y-62.5829 F200.00
G01 X15.1992 Y-61.2771 F200.00
G01 X17.3595 Y-59.7532 F200.00
G01 X19.3607 Y-58.0257 F200.00
G01 X21.1839 Y-56.1112 F200.00
G01 X22.8115 Y-54.0280 F200.00
G01 X24.2281 Y-51.7958 F200.00
G01 X25.4201 Y-49.4361 F200.00
G01 X26.3761 Y-46.9713 F200.00
G01 X27.0870 Y-44.4250 F200.00
G01 X27.5461 Y-41.8215 F200.00
G01 X27.7495 Y-39.1779 F200.00
G01 X27.7598 Y-38.4377 F200.00
G01 X27.6303 Y-35.7895 F200.00
G01 X27.2441 Y-33.1741 F200.00
G01 X26.6046 Y-30.6090 F200.00
G01 X25.7177 Y-28.1184 F200.00
G01 X24.5921 Y-25.7263 F200.00
G01 X23.2384 Y-23.4555 F200.00
G01 X21.6696 Y-21.3276 F200.00
G01 X19.9006 Y-19.3630 F200.00
G01 X17.9484 Y-17.5803 F200.00
G01 X15.8315 Y-15.9967 F200.00
G01 X13.5701 Y-14.6272 F200.00
G01 X11.1860 Y-13.4849 F200.00
G01 X8.7017 Y-12.5807 F200.00
G01 X6.1411 Y-11.9232 F200.00
G01 X3.5285 Y-11.5188 F200.00
G01 X0.8889 Y-11.3712 F200.00
G01 X-1.7525 Y-11.4819 F200.00
G01 X-4.3704 Y-11.8498 F200.00
G01 X-6.9400 Y-12.4715 F200.00
G01 X-9.4367 Y-13.3409 F200.00
G01 X-11.8365 Y-14.4498 F200.00
G01 X-14.1168 Y-15.7876 F200.00
G01 X-16.2556 Y-17.3415 F200.00
G01 X-18.2325 Y-19.0967 F200.00
G01 X-20.0288 Y-21.0365 F200.00
G01 X-21.6271 Y-23.1423 F200.00
G01 X-23.0124 Y-25.3940 F200.00
G01 X-24.1713 Y-27.7701 F200.00
G01 X-25.0928 Y-30.2480 F200.00
G01 X-25.7682 Y-32.8040 F200.00
G01 X-26.1908 Y-35.4137 F200.00
G01 X-26.3445 Y-37.8557 F200.00
G01 X-26.3092 Y-37.8241 F200.00
G01 X-26.2861 Y-37.8049 F200.00
G01 X-26.2341 Y-37.7674 F200.00
G01 X-26.2009 Y-37.7461 F200.00
G01 X-26.1468 Y-36.1972 F200.00
G01 X-26.1449 Y-36.1688 F200.00
G01 X-25.8008 Y-33.5881 F200.00
G01 X-25.7961 Y-33.5600 F200.00
G01 X-25.2018 Y-31.0251 F200.00
G01 X-25.1900 Y-30.9838 F200.00
G01 X-24.3556 Y-28.5329 F200.00
G01 X-24.3412 Y-28.4960 F200.00
G01 X-23.2702 Y-26.1351 F200.00
G01 X-23.2506 Y-26.0969 F200.00
G01 X-21.9561 Y-23.8547 F200.00
G01 X-21.9328 Y-23.8186 F200.00
G01 X-20.4199 Y-21.7056 F200.00
G01 X-20.3989 Y-21.6798 F200.00
G01 X-18.6936 Y-19.7317 F200.00
G01 X-18.6637 Y-19.7008 F200.00
G01 X-16.7615 Y-17.9152 F200.00
G01 X-16.7436 Y-17.9006 F200.00
G01 X-14.6924 Y-16.3209 F200.00
G01 X-14.6571 Y-16.2964 F200.00
G01 X-12.4614 Y-14.9244 F200.00
G01 X-12.4420 Y-14.9129 F200.00
G01 X-12.4239 Y-14.9035 F200.00
G01 X-10.1049 Y-13.7523 F200.00
G01 X-10.0655 Y-13.7351 F200.00
G01 X-7.6452 Y-12.8157 F200.00
G01 X-7.6043 Y-12.8024 F200.00
G01 X-5.0859 Y-12.1187 F200.00
G01 X-5.0639 Y-12.1143 F200.00
G01 X-2.5111 Y-11.6826 F200.00
G01 X-2.4815 Y-11.6786 F200.00
G01 X0.1143 Y-11.4969 F200.00
G01 X0.1573 Y-11.4960 F200.00
G01 X2.7453 Y-11.5683 F200.00
G01 X2.7768 Y-11.5703 F200.00
G01 X5.3568 Y-11.8961 F200.00
G01 X5.3992 Y-11.9035 F200.00
G01 X7.9239 Y-12.4771 F200.00
G01 X7.9528 Y-12.4847 F200.00
G01 X10.4219 Y-13.3059 F200.00
G01 X10.4618 Y-13.3213 F200.00
G01 X12.8272 Y-14.3745 F200.00
G01 X12.8450 Y-14.3829 F200.00
G01 X12.8656 Y-14.3939 F200.00
G01 X15.1167 Y-15.6727 F200.00
G01 X15.1530 Y-15.6958 F200.00
G01 X17.2687 Y-17.1882 F200.00
G01 X17.3025 Y-17.2146 F200.00
G01 X19.2624 Y-18.9064 F200.00
G01 X19.2860 Y-18.9283 F200.00
G01 X21.0790 Y-20.8109 F200.00
G01 X21.1071 Y-20.8435 F200.00
G01 X22.7011 Y-22.8837 F200.00
G01 X22.7258 Y-22.9188 F200.00
G01 X24.1131 Y-25.1048 F200.00
G01 X24.1262 Y-25.1269 F200.00
G01 X24.1344 Y-25.1422 F200.00
G01 X25.3017 Y-27.4531 F200.00
G01 X25.3110 Y-27.4728 F200.00
G01 X25.3192 Y-27.4924 F200.00
G01 X26.2554 Y-29.9062 F200.00
G01 X26.2626 Y-29.9262 F200.00
G01 X26.2690 Y-29.9470 F200.00
G01 X26.9652 Y-32.4406 F200.00
G01 X26.9729 Y-32.4727 F200.00
G01 X27.4244 Y-35.0323 F200.00
G01 X27.4237 Y-35.0324 F200.00
G01 X27.4297 Y-35.0749 F200.00
G01 X27.6284 Y-37.6563 F200.00
G01 X27.6296 Y-37.6839 F200.00
G01 X27.6400 Y-38.4239 F200.00
G01 X27.6395 Y-38.4515 F200.00
G01 X27.5130 Y-41.0374 F200.00
G01 X27.5113 Y-41.0597 F200.00
G01 X27.1306 Y-43.6415 F200.00
G01 X27.1222 Y-43.6837 F200.00
G01 X26.4904 Y-46.2158 F200.00
G01 X26.4835 Y-46.2369 F200.00
G01 X25.6150 Y-48.6760 F200.00
G01 X25.5986 Y-48.7157 F200.00
G01 X24.4917 Y-51.0678 F200.00
G01 X24.4761 Y-51.0963 F200.00
G01 X23.1504 Y-53.3202 F200.00
G01 X23.1266 Y-53.3560 F200.00
G01 X21.5880 Y-55.4428 F200.00
G01 X21.5630 Y-55.4732 F200.00
G01 X19.8306 Y-57.3972 F200.00
G01 X19.8148 Y-57.4139 F200.00
G01 X17.8781 Y-59.1827 F200.00
G01 X17.8553 Y-59.2009 F200.00
G01 X15.7822 Y-60.7518 F200.00
G01 X15.7465 Y-60.7759 F200.00
G01 X13.5320 Y-62.1170 F200.00
G01 X13.4942 Y-62.1375 F200.00
G01 X11.1479 Y-63.2615 F200.00
G01 X11.1197 Y-63.2728 F200.00
G01 X8.6868 Y-64.1583 F200.00
G01 X8.6457 Y-64.1711 F200.00
G01 X6.1380 Y-64.8149 F200.00
G01 X6.1149 Y-64.8202 F200.00
G01 X3.5186 Y-65.2221 F200.00
G01 X3.4946 Y-65.2241 F200.00
G01 X0.9096 Y-65.3687 F200.00
G01 X0.8850 Y-65.3694 F200.00
G01 X0.8666 Y-65.3690 F200.00
G01 X-1.7202 Y-65.2606 F200.00
G01 X-1.7455 Y-65.2588 F200.00
G01 X-4.3268 Y-64.8963 F200.00
G01 X-4.3519 Y-64.8921 F200.00
G01 X-4.3691 Y-64.8883 F200.00
G01 X-6.8855 Y-64.2795 F200.00
G01 X-6.9212 Y-64.2692 F200.00
G01 X-9.3718 Y-63.4159 F200.00
G01 X-9.4116 Y-63.3998 F200.00
G01 X-11.7619 Y-62.3138 F200.00
G01 X-11.8000 Y-62.2939 F200.00
G01 X-14.0436 Y-60.9774 F200.00
G01 X-14.0691 Y-60.9602 F200.00
G01 X-16.1636 Y-59.4384 F200.00
G01 X-16.1914 Y-59.4165 F200.00
G01 X-18.1332 Y-57.6926 F200.00
G01 X-18.1522 Y-57.6747 F200.00
G01 X-18.1639 Y-57.6625 F200.00
G01 X-19.9313 Y-55.7536 F200.00
G01 X-19.9507 Y-55.7299 F200.00
G01 X-21.5160 Y-53.6676 F200.00
G01 X-21.5403 Y-53.6322 F200.00
G01 X-22.8969 Y-51.4270 F200.00
G01 X-22.9176 Y-51.3894 F200.00
G01 X-24.0592 Y-49.0482 F200.00
G01 X-24.0695 Y-49.0228 F200.00
G01 X-24.9770 Y-46.5819 F200.00
G01 X-24.9850 Y-46.5552 F200.00
G01 X-25.6463 Y-44.0521 F200.00
G01 X-25.6553 Y-44.0100 F200.00
G01 X-26.0692 Y-41.4543 F200.00
G01 X-26.0727 Y-41.4277 F200.00
G01 X-26.2147 Y-39.1751 F200.00
G01 X-26.2341 Y-39.1625 F200.00
G01 X-26.2861 Y-39.1250 F200.00
G01 X-26.3204 Y-39.0958 F200.00
G01 X-26.2646 Y-40.6943 F200.00
G00 Z2.5400
G00 X-32.2098 Y-38.2302
G01 F100.00
G01 Z-0.1500
G01 F200.00
G01 X-32.2275 Y-38.2727 F200.00
G01 X-32.2435 Y-38.3267 F200.00
G01 X-32.2542 Y-38.3881 F200.00
G01 X-32.2571 Y-38.4420 F200.00
G01 X-32.2542 Y-38.4958 F200.00
G01 X-32.2435 Y-38.5573 F200.00
G01 X-32.2275 Y-38.6112 F200.00
G01 X-32.2099 Y-38.6538 F200.00
G01 X-32.2050 Y-38.6639 F200.00
G01 X-32.1815 Y-38.7062 F200.00
G01 X-32.1488 Y-38.7528 F200.00
G01 X-32.1106 Y-38.7955 F200.00
G01 X-32.0731 Y-38.8293 F200.00
G01 X-32.0643 Y-38.8363 F200.00
G01 X-32.0213 Y-38.8664 F200.00
G01 X-31.9790 Y-38.8899 F200.00
G01 X-31.9689 Y-38.8948 F200.00
G01 X-31.9263 Y-38.9124 F200.00
G01 X-31.8946 Y-38.9220 F200.00
G01 X-31.6970 Y-42.0627 F200.00
G01 X-31.1879 Y-45.2067 F200.00
G01 X-30.3736 Y-48.2886 F200.00
G01 X-29.2633 Y-51.2737 F200.00
G01 X-27.8698 Y-54.1308 F200.00
G01 X-26.2010 Y-56.8444 F200.00
G01 X-24.2717 Y-59.3864 F200.00
G01 X-22.1098 Y-61.7211 F200.00
G01 X-19.7297 Y-63.8344 F200.00
G01 X-17.1488 Y-65.7096 F200.00
G01 X-14.4057 Y-67.3190 F200.00
G01 X-11.5167 Y-68.6543 F200.00
G01 X-8.5077 Y-69.7026 F200.00
G01 X-5.4095 Y-70.4524 F200.00
G01 X-2.2555 Y-70.8957 F200.00
G01 X0.9269 Y-71.0292 F200.00
G01 X4.1082 Y-70.8514 F200.00
G01 X7.2546 Y-70.3643 F200.00
G01 X10.3421 Y-69.5714 F200.00
G01 X13.3349 Y-68.4819 F200.00
G01 X16.2096 Y-67.1041 F200.00
G01 X18.9337 Y-65.4538 F200.00
G01 X21.4814 Y-63.5476 F200.00
G01 X23.8318 Y-61.4013 F200.00
G01 X25.9657 Y-59.0310 F200.00
G01 X27.8504 Y-56.4746 F200.00
G01 X29.4852 Y-53.7325 F200.00
G01 X30.8391 Y-50.8554 F200.00
G01 X31.9087 Y-47.8523 F200.00
G01 X32.6787 Y-44.7643 F200.00
G01 X33.1444 Y-41.6114 F200.00
G01 X33.3000 Y-38.4300 F200.00
G01 X33.2870 Y-37.5149 F200.00
G01 X33.0434 Y-34.3490 F200.00
G01 X32.4904 Y-31.2101 F200.00
G01 X31.6333 Y-28.1398 F200.00
G01 X30.4816 Y-25.1704 F200.00
G01 X29.0460 Y-22.3283 F200.00
G01 X27.3416 Y-19.6424 F200.00
G01 X25.3811 Y-17.1323 F200.00
G01 X23.1833 Y-14.8237 F200.00
G01 X20.7741 Y-12.7437 F200.00
G01 X18.1720 Y-10.9076 F200.00
G01 X15.3982 Y-9.3315 F200.00
G01 X12.4934 Y-8.0381 F200.00
G01 X9.4686 Y-7.0314 F200.00
G01 X6.3657 Y-6.3262 F200.00
G01 X3.2033 Y-5.9263 F200.00
G01 X0.0194 Y-5.8371 F200.00
G01 X-3.1581 Y-6.0591 F200.00
G01 X-6.3006 Y-6.5905 F200.00
G01 X-9.3693 Y-7.4242 F200.00
G01 X-12.3469 Y-8.5547 F200.00
G01 X-15.2040 Y-9.9726 F200.00
G01 X-17.9082 Y-11.6627 F200.00
G01 X-20.4290 Y-13.6041 F200.00
G01 X-22.7493 Y-15.7829 F200.00
G01 X-24.8500 Y-18.1827 F200.00
G01 X-26.6997 Y-20.7663 F200.00
G01 X-28.2926 Y-23.5243 F200.00
G01 X-29.6091 Y-26.4253 F200.00
G01 X-30.6357 Y-29.4396 F200.00
G01 X-31.3634 Y-32.5403 F200.00
G01 X-31.7855 Y-35.7005 F200.00
G01 X-31.8644 Y-37.9538 F200.00
G01 X-31.9169 Y-37.9683 F200.00
G01 X-31.9263 Y-37.9716 F200.00
G01 X-31.9689 Y-37.9892 F200.00
G01 X-31.9790 Y-37.9941 F200.00
G01 X-32.0213 Y-38.0175 F200.00
G01 X-32.0679 Y-38.0503 F200.00
G01 X-32.1106 Y-38.0884 F200.00
G01 X-32.1488 Y-38.1312 F200.00
G01 X-32.1815 Y-38.1777 F200.00
G01 X-32.2050 Y-38.2201 F200.00
G01 X-32.2098 Y-38.2302 F200.00
G01 X-32.2275 Y-38.2727 F200.00
G00 Z2.5400
G00 X-32.3668 Y-38.1652
G01 F100.00
G01 Z-0.1500
G01 F200.00
G01 X-32.3853 Y-38.2096 F200.00
G01 X-32.3941 Y-38.2351 F200.00
G01 X-32.4075 Y-38.2819 F200.00
G01 X-32.4132 Y-38.3077 F200.00
G01 X-32.4208 Y-38.3520 F200.00
G01 X-32.4235 Y-38.3728 F200.00
G01 X-32.4267 Y-38.4268 F200.00
G01 X-32.4267 Y-38.4571 F200.00
G01 X-32.4241 Y-38.5019 F200.00
G01 X-32.4208 Y-38.5320 F200.00
G01 X-32.4132 Y-38.5762 F200.00
G01 X-32.4075 Y-38.6020 F200.00
G01 X-32.3941 Y-38.6488 F200.00
G01 X-32.3853 Y-38.6744 F200.00
G01 X-32.3669 Y-38.7189 F200.00
G01 X-32.3538 Y-38.7461 F200.00
G01 X-32.3273 Y-38.7937 F200.00
G01 X-32.3160 Y-38.8110 F200.00
G01 X-32.2829 Y-38.8571 F200.00
G01 X-32.2413 Y-38.9047 F200.00
G01 X-32.2198 Y-38.9261 F200.00
G01 X-32.1864 Y-38.9560 F200.00
G01 X-32.1627 Y-38.9749 F200.00
G01 X-32.1261 Y-39.0009 F200.00
G01 X-32.1088 Y-39.0122 F200.00
G01 X-32.0575 Y-39.0405 F200.00
G01 X-31.8661 Y-42.0796 F200.00
G01 X-31.3546 Y-45.2401 F200.00
G01 X-30.5397 Y-48.3260 F200.00
G01 X-30.5348 Y-48.3424 F200.00
G01 X-29.4250 Y-51.3272 F200.00
G01 X-29.4186 Y-51.3428 F200.00
G01 X-28.0226 Y-54.2054 F200.00
G01 X-28.0099 Y-54.2285 F200.00
G01 X-26.3451 Y-56.9345 F200.00
G01 X-26.3313 Y-56.9547 F200.00
G01 X-24.4115 Y-59.4838 F200.00
G01 X-24.3996 Y-59.4984 F200.00
G01 X-22.2300 Y-61.8413 F200.00
G01 X-19.8403 Y-63.9635 F200.00
G01 X-19.8233 Y-63.9769 F200.00
G01 X-17.2545 Y-65.8433 F200.00
G01 X-17.2389 Y-65.8538 F200.00
G01 X-14.4882 Y-67.4676 F200.00
G01 X-14.4704 Y-67.4767 F200.00
G01 X-11.5880 Y-68.8086 F200.00
G01 X-11.5635 Y-68.8185 F200.00
G01 X-8.5615 Y-69.8638 F200.00
G01 X-8.5396 Y-69.8701 F200.00
G01 X-5.4428 Y-70.6191 F200.00
G01 X-2.2724 Y-71.0649 F200.00
G01 X0.9269 Y-71.1992 F200.00
G01 X4.1270 Y-71.0203 F200.00
G01 X7.2880 Y-70.5310 F200.00
G01 X10.3777 Y-69.7381 F200.00
G01 X10.3959 Y-69.7327 F200.00
G01 X13.3866 Y-68.6443 F200.00
G01 X13.4039 Y-68.6373 F200.00
G01 X16.2745 Y-67.2621 F200.00
G01 X16.2977 Y-67.2495 F200.00
G01 X19.0136 Y-65.6047 F200.00
G01 X19.0355 Y-65.5899 F200.00
G01 X21.5780 Y-63.6879 F200.00
G01 X21.5920 Y-63.6767 F200.00
G01 X23.9520 Y-61.5215 F200.00
G01 X26.0863 Y-59.1516 F200.00
G01 X26.1017 Y-59.1330 F200.00
G01 X27.9873 Y-56.5754 F200.00
G01 X28.0019 Y-56.5535 F200.00
G01 X29.6277 Y-53.8261 F200.00
G01 X29.6373 Y-53.8086 F200.00
G01 X30.9945 Y-50.9244 F200.00
G01 X31.0021 Y-50.9054 F200.00
G01 X32.0715 Y-47.9011 F200.00
G01 X32.8446 Y-44.8012 F200.00
G01 X32.8481 Y-44.7821 F200.00
G01 X33.3136 Y-41.6283 F200.00
G01 X33.4700 Y-38.4300 F200.00
G01 X33.4573 Y-37.5188 F200.00
G01 X33.4565 Y-37.5018 F200.00
G01 X33.2129 Y-34.3360 F200.00
G01 X33.2096 Y-34.3098 F200.00
G01 X32.6571 Y-31.1767 F200.00
G01 X32.6524 Y-31.1571 F200.00
G01 X31.7946 Y-28.0860 F200.00
G01 X30.6370 Y-25.1014 F200.00
G01 X29.1946 Y-22.2458 F200.00
G01 X27.4852 Y-19.5513 F200.00
G01 X27.4700 Y-19.5297 F200.00
G01 X25.5151 Y-17.0276 F200.00
G01 X25.4979 Y-17.0076 F200.00
G01 X23.3036 Y-14.7035 F200.00
G01 X23.2891 Y-14.6900 F200.00
G01 X20.8847 Y-12.6147 F200.00
G01 X20.8646 Y-12.5990 F200.00
G01 X18.2700 Y-10.7687 F200.00
G01 X18.2477 Y-10.7546 F200.00
G01 X15.4743 Y-9.1795 F200.00
G01 X12.5625 Y-7.8827 F200.00
G01 X12.5380 Y-7.8733 F200.00
G01 X9.5175 Y-6.8686 F200.00
G01 X9.4997 Y-6.8639 F200.00
G01 X6.4034 Y-6.1605 F200.00
G01 X6.3774 Y-6.1559 F200.00
G01 X3.2202 Y-5.7571 F200.00
G01 X3.2009 Y-5.7559 F200.00
G01 X0.0194 Y-5.6671 F200.00
G01 X0.0005 Y-5.6678 F200.00
G01 X-3.1750 Y-5.8900 F200.00
G01 X-3.1932 Y-5.8924 F200.00
G01 X-6.3375 Y-6.4246 F200.00
G01 X-9.4138 Y-7.2601 F200.00
G01 X-9.4389 Y-7.2683 F200.00
G01 X-12.4072 Y-8.3958 F200.00
G01 X-12.4314 Y-8.4064 F200.00
G01 X-15.2866 Y-9.8240 F200.00
G01 X-17.9913 Y-11.5137 F200.00
G01 X-18.0102 Y-11.5267 F200.00
G01 X-20.5396 Y-13.4750 F200.00
G01 X-22.8695 Y-15.6627 F200.00
G01 X-22.8817 Y-15.6758 F200.00
G01 X-24.9732 Y-18.0649 F200.00
G01 X-24.9860 Y-18.0807 F200.00
G01 X-26.8380 Y-20.6673 F200.00
G01 X-26.8522 Y-20.6895 F200.00
G01 X-28.4399 Y-23.4393 F200.00
G01 X-28.4519 Y-23.4628 F200.00
G01 X-29.7645 Y-26.3563 F200.00
G01 X-29.7733 Y-26.3789 F200.00
G01 X-30.7966 Y-29.3848 F200.00
G01 X-30.8039 Y-29.4101 F200.00
G01 X-31.5289 Y-32.5015 F200.00
G01 X-31.5337 Y-32.5274 F200.00
G01 X-31.9547 Y-35.6836 F200.00
G01 X-31.9559 Y-35.7010 F200.00
G01 X-32.0302 Y-37.8306 F200.00
G01 X-32.0612 Y-37.8453 F200.00
G01 X-32.1088 Y-37.8718 F200.00
G01 X-32.1261 Y-37.8831 F200.00
G01 X-32.1722 Y-37.9161 F200.00
G01 X-32.1864 Y-37.9279 F200.00
G01 X-32.2308 Y-37.9682 F200.00
G01 X-32.2711 Y-38.0127 F200.00
G01 X-32.2829 Y-38.0268 F200.00
G01 X-32.3160 Y-38.0729 F200.00
G01 X-32.3273 Y-38.0903 F200.00
G01 X-32.3538 Y-38.1378 F200.00
G01 X-32.3668 Y-38.1652 F200.00
G01 X-32.3853 Y-38.2096 F200.00
G00 Z2.5400
G00 X-32.5264 Y-37.9660
G01 F100.00
G01 Z-0.1500
G01 F200.00
G01 X-32.4131 Y-41.2106 F200.00
G01 X-31.9838 Y-44.4286 F200.00
G01 X-31.2424 Y-47.5893 F200.00
G01 X-30.1962 Y-50.6627 F200.00
G01 X-28.8550 Y-53.6192 F200.00
G01 X-27.2318 Y-56.4308 F200.00
G01 X-25.3419 Y-59.0705 F200.00
G01 X-23.2034 Y-61.5133 F200.00
G01 X-20.8368 Y-63.7357 F200.00
G01 X-18.2646 Y-65.7165 F200.00
G01 X-15.5114 Y-67.4369 F200.00
G01 X-12.6035 Y-68.8804 F200.00
G01 X-9.5685 Y-70.0333 F200.00
G01 X-6.4356 Y-70.8845 F200.00
G01 X-3.2345 Y-71.4259 F200.00
G01 X0.0041 Y-71.6524 F200.00
G01 X3.2493 Y-71.5617 F200.00
G01 X6.4703 Y-71.1548 F200.00
G01 X9.6361 Y-70.4356 F200.00
G01 X12.7167 Y-69.4108 F200.00
G01 X15.6825 Y-68.0903 F200.00
G01 X18.5054 Y-66.4867 F200.00
G01 X21.1582 Y-64.6153 F200.00
G01 X23.6158 Y-62.4940 F200.00
G01 X25.8547 Y-60.1430 F200.00
G01 X27.8535 Y-57.5847 F200.00
G01 X29.5930 Y-54.8435 F200.00
G01 X31.0568 Y-51.9457 F200.00
G01 X32.2308 Y-48.9189 F200.00
G01 X33.1039 Y-45.7920 F200.00
G01 X33.6677 Y-42.5948 F200.00
G01 X33.9171 Y-39.3531 F200.00
G01 X33.9299 Y-38.4347 F200.00
G01 X33.7711 Y-35.1874 F200.00
G01 X33.2968 Y-31.9757 F200.00
G01 X32.5114 Y-28.8256 F200.00
G01 X31.4224 Y-25.7672 F200.00
G01 X30.0401 Y-22.8296 F200.00
G01 X28.3777 Y-20.0410 F200.00
G01 X26.4512 Y-17.4279 F200.00
G01 X24.2788 Y-15.0152 F200.00
G01 X21.8814 Y-12.8261 F200.00
G01 X19.2818 Y-10.8813 F200.00
G01 X16.5048 Y-9.1996 F200.00
G01 X13.5770 Y-7.7968 F200.00
G01 X10.5263 Y-6.6864 F200.00
G01 X7.3818 Y-5.8790 F200.00
G01 X4.1734 Y-5.3824 F200.00
G01 X0.9320 Y-5.2011 F200.00
G01 X-2.3117 Y-5.3371 F200.00
G01 X-5.5266 Y-5.7889 F200.00
G01 X-8.6821 Y-6.5523 F200.00
G01 X-11.7481 Y-7.6200 F200.00
G01 X-14.6952 Y-8.9817 F200.00
G01 X-17.4953 Y-10.6246 F200.00
G01 X-20.1218 Y-12.5329 F200.00
G01 X-22.5496 Y-14.6883 F200.00
G01 X-24.7554 Y-17.0704 F200.00
G01 X-26.7183 Y-19.6563 F200.00
G01 X-28.4194 Y-22.4215 F200.00
G01 X-29.8426 Y-25.3394 F200.00
G01 X-30.9742 Y-28.3823 F200.00
G01 X-31.8035 Y-31.5212 F200.00
G01 X-32.3226 Y-34.7259 F200.00
G01 X-32.5264 Y-37.9660 F200.00
G01 X-32.4131 Y-41.2106 F200.00
G00 Z2.5400
G00 X-32.6966 Y-37.9637
G01 F100.00
G01 Z-0.1500
G01 F200.00
G01 X-32.5827 Y-41.2248 F200.00
G01 X-32.1512 Y-44.4593 F200.00
G01 X-31.4060 Y-47.6363 F200.00
G01 X-30.3544 Y-50.7253 F200.00
G01 X-29.0064 Y-53.6970 F200.00
G01 X-27.3748 Y-56.5230 F200.00
G01 X-25.4753 Y-59.1763 F200.00
G01 X-23.3259 Y-61.6315 F200.00
G01 X-20.9471 Y-63.8653 F200.00
G01 X-18.3618 Y-65.8563 F200.00
G01 X-15.5945 Y-67.5855 F200.00
G01 X-12.6716 Y-69.0364 F200.00
G01 X-9.6211 Y-70.1952 F200.00
G01 X-6.4721 Y-71.0507 F200.00
G01 X-3.2547 Y-71.5949 F200.00
G01 X0.0005 Y-71.8226 F200.00
G01 X3.2624 Y-71.7314 F200.00
G01 X6.4998 Y-71.3225 F200.00
G01 X9.6819 Y-70.5995 F200.00
G01 X12.7782 Y-69.5695 F200.00
G01 X15.7593 Y-68.2423 F200.00
G01 X18.5966 Y-66.6305 F200.00
G01 X21.2630 Y-64.7495 F200.00
G01 X23.7332 Y-62.6173 F200.00
G01 X25.9835 Y-60.2542 F200.00
G01 X27.9925 Y-57.6828 F200.00
G01 X29.7410 Y-54.9276 F200.00
G01 X31.2123 Y-52.0150 F200.00
G01 X32.3923 Y-48.9726 F200.00
G01 X33.2699 Y-45.8297 F200.00
G01 X33.8365 Y-42.6161 F200.00
G01 X34.0870 Y-39.3608 F200.00
G01 X34.1000 Y-38.4317 F200.00
G01 X33.9405 Y-35.1707 F200.00
G01 X33.4638 Y-31.9426 F200.00
G01 X32.6744 Y-28.7764 F200.00
G01 X31.5797 Y-25.7023 F200.00
G01 X30.1903 Y-22.7497 F200.00
G01 X28.5195 Y-19.9468 F200.00
G01 X26.5831 Y-17.3203 F200.00
G01 X24.3996 Y-14.8953 F200.00
G01 X21.9899 Y-12.6949 F200.00
G01 X19.3770 Y-10.7402 F200.00
G01 X16.5858 Y-9.0498 F200.00
G01 X13.6430 Y-7.6399 F200.00
G01 X10.5766 Y-6.5238 F200.00
G01 X7.4160 Y-5.7123 F200.00
G01 X4.1912 Y-5.2131 F200.00
G01 X0.9332 Y-5.0309 F200.00
G01 X-2.3271 Y-5.1676 F200.00
G01 X-5.5585 Y-5.6217 F200.00
G01 X-8.7302 Y-6.3890 F200.00
G01 X-11.8118 Y-7.4622 F200.00
G01 X-14.7740 Y-8.8309 F200.00
G01 X-17.5885 Y-10.4822 F200.00
G01 X-20.2285 Y-12.4002 F200.00
G01 X-22.6687 Y-14.5667 F200.00
G01 X-24.8858 Y-16.9610 F200.00
G01 X-26.8587 Y-19.5602 F200.00
G01 X-28.5685 Y-22.3395 F200.00
G01 X-29.9990 Y-25.2724 F200.00
G01 X-31.1365 Y-28.3309 F200.00
G01 X-31.9700 Y-31.4858 F200.00
G01 X-32.4917 Y-34.7070 F200.00
G01 X-32.6966 Y-37.9637 F200.00
G01 X-32.5827 Y-41.2248 F200.00
G00 Z2.5400
G00 X-32.3179 Y-39.0665
G01 F100.00
G01 Z-0.1500
G01 F200.00
G01 X-32.2435 Y-41.1963 F200.00
G01 X-31.8164 Y-44.3979 F200.00
G01 X-31.0788 Y-47.5424 F200.00
G01 X-30.0379 Y-50.6000 F200.00
G01 X-28.7036 Y-53.5414 F200.00
G01 X-27.0887 Y-56.3386 F200.00
G01 X-25.2085 Y-58.9648 F200.00
G01 X-23.0810 Y-61.3950 F200.00
G01 X-20.7265 Y-63.6061 F200.00
G01 X-18.1675 Y-65.5768 F200.00
G01 X-15.4284 Y-67.2883 F200.00
G01 X-12.5353 Y-68.7245 F200.00
G01 X-9.5159 Y-69.8714 F200.00
G01 X-6.3990 Y-70.7183 F200.00
G01 X-3.2144 Y-71.2569 F200.00
G01 X0.0077 Y-71.4822 F200.00
G01 X3.2363 Y-71.3920 F200.00
G01 X6.4407 Y-70.9872 F200.00
G01 X9.5903 Y-70.2716 F200.00
G01 X12.6551 Y-69.2521 F200.00
G01 X15.6058 Y-67.9384 F200.00
G01 X18.4142 Y-66.3430 F200.00
G01 X21.0534 Y-64.4812 F200.00
G01 X23.4985 Y-62.3707 F200.00
G01 X25.7259 Y-60.0317 F200.00
G01 X27.7144 Y-57.4865 F200.00
G01 X29.4450 Y-54.7595 F200.00
G01 X30.9013 Y-51.8765 F200.00
G01 X32.0693 Y-48.8652 F200.00
G01 X32.9379 Y-45.7543 F200.00
G01 X33.4988 Y-42.5735 F200.00
G01 X33.7472 Y-39.3454 F200.00
G01 X33.7598 Y-38.4377 F200.00
G01 X33.6017 Y-35.2040 F200.00
G01 X33.1299 Y-32.0087 F200.00
G01 X32.3485 Y-28.8748 F200.00
G01 X31.2650 Y-25.8320 F200.00
G01 X29.8898 Y-22.9095 F200.00
G01 X28.2359 Y-20.1352 F200.00
G01 X26.3193 Y-17.5354 F200.00
G01 X24.1580 Y-15.1352 F200.00
G01 X21.7729 Y-12.9572 F200.00
G01 X19.1866 Y-11.0225 F200.00
G01 X16.4239 Y-9.3493 F200.00
G01 X13.5111 Y-7.9537 F200.00
G01 X10.4760 Y-6.8490 F200.00
G01 X7.3475 Y-6.0458 F200.00
G01 X4.1557 Y-5.5516 F200.00
G01 X0.9308 Y-5.3713 F200.00
G01 X-2.2963 Y-5.5066 F200.00
G01 X-5.4947 Y-5.9561 F200.00
G01 X-8.6341 Y-6.7156 F200.00
G01 X-11.6843 Y-7.7778 F200.00
G01 X-14.6163 Y-9.1326 F200.00
G01 X-17.4022 Y-10.7670 F200.00
G01 X-20.0152 Y-12.6655 F200.00
G01 X-22.4305 Y-14.8099 F200.00
G01 X-24.6250 Y-17.1798 F200.00
G01 X-26.5778 Y-19.7525 F200.00
G01 X-28.2702 Y-22.5035 F200.00
G01 X-29.6861 Y-25.4065 F200.00
G01 X-30.8120 Y-28.4338 F200.00
G01 X-31.6370 Y-31.5565 F200.00
G01 X-32.1534 Y-34.7449 F200.00
G01 X-32.3485 Y-37.8456 F200.00
G01 X-32.2997 Y-37.8012 F200.00
G01 X-32.2766 Y-37.7819 F200.00
G01 X-32.2245 Y-37.7444 F200.00
G01 X-32.1967 Y-37.7263 F200.00
G01 X-32.1257 Y-35.6951 F200.00
G01 X-32.1238 Y-35.6667 F200.00
G01 X-31.7022 Y-32.5049 F200.00
G01 X-31.6944 Y-32.4627 F200.00
G01 X-30.9694 Y-29.3713 F200.00
G01 X-30.9575 Y-29.3300 F200.00
G01 X-29.9343 Y-26.3242 F200.00
G01 X-29.9198 Y-26.2873 F200.00
G01 X-28.6067 Y-23.3926 F200.00
G01 X-28.5871 Y-23.3543 F200.00
G01 X-26.9995 Y-20.6045 F200.00
G01 X-26.9762 Y-20.5683 F200.00
G01 X-25.1220 Y-17.9787 F200.00
G01 X-25.1011 Y-17.9529 F200.00
G01 X-23.0096 Y-15.5638 F200.00
G01 X-22.9797 Y-15.5329 F200.00
G01 X-20.6502 Y-13.3459 F200.00
G01 X-20.6324 Y-13.3314 F200.00
G01 X-18.1167 Y-11.3940 F200.00
G01 X-18.0814 Y-11.3695 F200.00
G01 X-15.3886 Y-9.6869 F200.00
G01 X-15.3691 Y-9.6754 F200.00
G01 X-15.3511 Y-9.6659 F200.00
G01 X-12.5070 Y-8.2541 F200.00
G01 X-12.4676 Y-8.2369 F200.00
G01 X-9.4993 Y-7.1093 F200.00
G01 X-9.4584 Y-7.0961 F200.00
G01 X-6.3743 Y-6.2586 F200.00
G01 X-6.3523 Y-6.2543 F200.00
G01 X-3.2215 Y-5.7248 F200.00
G01 X-3.1919 Y-5.7208 F200.00
G01 X-0.0113 Y-5.4982 F200.00
G01 X0.0317 Y-5.4973 F200.00
G01 X3.2057 Y-5.5860 F200.00
G01 X3.2371 Y-5.5880 F200.00
G01 X6.3987 Y-5.9872 F200.00
G01 X6.4410 Y-5.9947 F200.00
G01 X9.5374 Y-6.6982 F200.00
G01 X9.5663 Y-6.7058 F200.00
G01 X12.5917 Y-7.7120 F200.00
G01 X12.6315 Y-7.7274 F200.00
G01 X15.5325 Y-9.0190 F200.00
G01 X15.5503 Y-9.0274 F200.00
G01 X15.5709 Y-9.0384 F200.00
G01 X18.3317 Y-10.6068 F200.00
G01 X18.3680 Y-10.6298 F200.00
G01 X20.9626 Y-12.4601 F200.00
G01 X20.9965 Y-12.4866 F200.00
G01 X23.4001 Y-14.5613 F200.00
G01 X23.4238 Y-14.5833 F200.00
G01 X25.6210 Y-16.8904 F200.00
G01 X25.6491 Y-16.9229 F200.00
G01 X27.6039 Y-19.4251 F200.00
G01 X27.6287 Y-19.4602 F200.00
G01 X29.3301 Y-22.1411 F200.00
G01 X29.3432 Y-22.1632 F200.00
G01 X29.3513 Y-22.1785 F200.00
G01 X30.7830 Y-25.0127 F200.00
G01 X30.7923 Y-25.0324 F200.00
G01 X30.8004 Y-25.0519 F200.00
G01 X31.9487 Y-28.0123 F200.00
G01 X31.9559 Y-28.0323 F200.00
G01 X31.9623 Y-28.0531 F200.00
G01 X32.8161 Y-31.1113 F200.00
G01 X32.8238 Y-31.1434 F200.00
G01 X33.3770 Y-34.2803 F200.00
G01 X33.3764 Y-34.2804 F200.00
G01 X33.3824 Y-34.3229 F200.00
G01 X33.6260 Y-37.4888 F200.00
G01 X33.6273 Y-37.5164 F200.00
G01 X33.6400 Y-38.4239 F200.00
G01 X33.6395 Y-38.4515 F200.00
G01 X33.4844 Y-41.6229 F200.00
G01 X33.4827 Y-41.6452 F200.00
G01 X33.0163 Y-44.8069 F200.00
G01 X33.0080 Y-44.8491 F200.00
G01 X32.2343 Y-47.9500 F200.00
G01 X32.2274 Y-47.9711 F200.00
G01 X31.1623 Y-50.9624 F200.00
G01 X31.1459 Y-51.0021 F200.00
G01 X29.7893 Y-53.8846 F200.00
G01 X29.7737 Y-53.9131 F200.00
G01 X28.1479 Y-56.6405 F200.00
G01 X28.1241 Y-56.6763 F200.00
G01 X26.2377 Y-59.2350 F200.00
G01 X26.2127 Y-59.2654 F200.00
G01 X24.0880 Y-61.6250 F200.00
G01 X24.0722 Y-61.6417 F200.00
G01 X21.7026 Y-63.8058 F200.00
G01 X21.6799 Y-63.8240 F200.00
G01 X19.1373 Y-65.7260 F200.00
G01 X19.1017 Y-65.7501 F200.00
G01 X16.3857 Y-67.3949 F200.00
G01 X16.3479 Y-67.4154 F200.00
G01 X13.4730 Y-68.7926 F200.00
G01 X13.4447 Y-68.8040 F200.00
G01 X10.4610 Y-69.8900 F200.00
G01 X10.4199 Y-69.9027 F200.00
G01 X7.3445 Y-70.6924 F200.00
G01 X7.3213 Y-70.6977 F200.00
G01 X4.1458 Y-71.1893 F200.00
G01 X4.1217 Y-71.1913 F200.00
G01 X0.9515 Y-71.3685 F200.00
G01 X0.9269 Y-71.3692 F200.00
G01 X0.9085 Y-71.3688 F200.00
G01 X-2.2640 Y-71.2359 F200.00
G01 X-2.2893 Y-71.2341 F200.00
G01 X-5.4511 Y-70.7901 F200.00
G01 X-5.4762 Y-70.7858 F200.00
G01 X-5.4934 Y-70.7820 F200.00
G01 X-8.5796 Y-70.0354 F200.00
G01 X-8.6152 Y-70.0251 F200.00
G01 X-11.6194 Y-68.9790 F200.00
G01 X-11.6593 Y-68.9629 F200.00
G01 X-14.5417 Y-67.6310 F200.00
G01 X-14.5798 Y-67.6111 F200.00
G01 X-17.3290 Y-65.9980 F200.00
G01 X-17.3544 Y-65.9808 F200.00
G01 X-19.9232 Y-64.1145 F200.00
G01 X-19.9510 Y-64.0926 F200.00
G01 X-22.3312 Y-61.9794 F200.00
G01 X-22.3502 Y-61.9615 F200.00
G01 X-22.3619 Y-61.9493 F200.00
G01 X-24.5276 Y-59.6103 F200.00
G01 X-24.5469 Y-59.5866 F200.00
G01 X-26.4667 Y-57.0575 F200.00
G01 X-26.4909 Y-57.0220 F200.00
G01 X-28.1547 Y-54.3175 F200.00
G01 X-28.1754 Y-54.2799 F200.00
G01 X-29.5740 Y-51.4118 F200.00
G01 X-29.5843 Y-51.3865 F200.00
G01 X-30.6961 Y-48.3962 F200.00
G01 X-30.7041 Y-48.3694 F200.00
G01 X-31.5152 Y-45.2995 F200.00
G01 X-31.5241 Y-45.2575 F200.00
G01 X-32.0318 Y-42.1231 F200.00
G01 X-32.0353 Y-42.0965 F200.00
G01 X-32.2215 Y-39.1415 F200.00
G01 X-32.2766 Y-39.1020 F200.00
G01 X-32.3179 Y-39.0665 F200.00
G01 X-32.2435 Y-41.1963 F200.00
G00 Z2.5400
G00 X-47.2079 Y-38.7464
G01 F100.00
G01 Z-0.1500
G01 F200.00
G01 X-47.2342 Y-38.8097 F200.00
G01 X-47.2374 Y-38.8191 F200.00
G01 X-47.2564 Y-38.8852 F200.00
G01 X-47.2585 Y-38.8947 F200.00
G01 X-47.2708 Y-38.9688 F200.00
G01 X-47.2748 Y-39.0394 F200.00
G01 X-47.2748 Y-39.0506 F200.00
G01 X-47.2708 Y-39.1212 F200.00
G01 X-47.2585 Y-39.1953 F200.00
G01 X-47.2564 Y-39.2048 F200.00
G01 X-47.2374 Y-39.2709 F200.00
G01 X-47.2342 Y-39.2803 F200.00
G01 X-47.2080 Y-39.3436 F200.00
G01 X-47.2031 Y-39.3537 F200.00
G01 X-47.1706 Y-39.4126 F200.00
G01 X-47.1646 Y-39.4221 F200.00
G01 X-47.1230 Y-39.4805 F200.00
G01 X-47.0700 Y-39.5400 F200.00
G01 X-47.0105 Y-39.5930 F200.00
G01 X-46.9457 Y-39.6388 F200.00
G01 X-46.8837 Y-39.6731 F200.00
G01 X-46.8736 Y-39.6780 F200.00
G01 X-46.8103 Y-39.7042 F200.00
G01 X-46.7348 Y-39.7264 F200.00
G01 X-46.6589 Y-39.7398 F200.00
G01 X-46.6478 Y-39.7411 F200.00
G01 X-46.5750 Y-39.7450 F200.00
G01 X-46.0194 Y-39.7448 F200.00
G01 X-45.9488 Y-39.7408 F200.00
G01 X-45.8747 Y-39.7285 F200.00
G01 X-45.8652 Y-39.7264 F200.00
G01 X-45.7991 Y-39.7074 F200.00
G01 X-45.7886 Y-39.7037 F200.00
G01 X-45.7264 Y-39.6780 F200.00
G01 X-45.7163 Y-39.6731 F200.00
G01 X-45.6543 Y-39.6388 F200.00
G01 X-45.5930 Y-39.5957 F200.00
G01 X-45.5843 Y-39.5887 F200.00
G01 X-45.5300 Y-39.5400 F200.00
G01 X-45.4770 Y-39.4805 F200.00
G01 X-45.4312 Y-39.4157 F200.00
G01 X-45.3969 Y-39.3537 F200.00
G01 X-45.3928 Y-39.3451 F200.00
G01 X-37.8727 Y-39.3451 F200.00
G01 X-37.6596 Y-42.7315 F200.00
G01 X-37.0574 Y-46.4506 F200.00
G01 X-36.0945 Y-50.0968 F200.00
G01 X-34.7781 Y-53.6374 F200.00
G01 X-33.1277 Y-57.0214 F200.00
G01 X-31.1517 Y-60.2342 F200.00
G01 X-28.8680 Y-63.2432 F200.00
G01 X-26.3077 Y-66.0079 F200.00
G01 X-23.4893 Y-68.5104 F200.00
G01 X-20.4342 Y-70.7302 F200.00
G01 X-17.1875 Y-72.6351 F200.00
G01 X-13.7552 Y-74.2210 F200.00
G01 X-10.2018 Y-75.4585 F200.00
G01 X-6.5338 Y-76.3461 F200.00
G01 X-2.7993 Y-76.8711 F200.00
G01 X0.9688 Y-77.0291 F200.00
G01 X4.7354 Y-76.8185 F200.00
G01 X8.4611 Y-76.2417 F200.00
G01 X12.1164 Y-75.3031 F200.00
G01 X15.6600 Y-74.0131 F200.00
G01 X19.0633 Y-72.3820 F200.00
G01 X22.2888 Y-70.4280 F200.00
G01 X25.3059 Y-68.1707 F200.00
G01 X28.0892 Y-65.6291 F200.00
G01 X30.6154 Y-62.8231 F200.00
G01 X32.8480 Y-59.7949 F200.00
G01 X34.7829 Y-56.5494 F200.00
G01 X36.3864 Y-53.1418 F200.00
G01 X37.6526 Y-49.5865 F200.00
G01 X38.5644 Y-45.9297 F200.00
G01 X39.1158 Y-42.1969 F200.00
G01 X39.3000 Y-38.4300 F200.00
G01 X39.2847 Y-37.3473 F200.00
G01 X38.9961 Y-33.5970 F200.00
G01 X38.3413 Y-29.8808 F200.00
G01 X37.3266 Y-26.2459 F200.00
G01 X35.9629 Y-22.7300 F200.00
G01 X34.2630 Y-19.3647 F200.00
G01 X32.2445 Y-16.1838 F200.00
G01 X29.9231 Y-13.2117 F200.00
G01 X27.3211 Y-10.4787 F200.00
G01 X24.4680 Y-8.0157 F200.00
G01 X21.3870 Y-5.8417 F200.00
G01 X18.1035 Y-3.9760 F200.00
G01 X14.6632 Y-2.4442 F200.00
G01 X11.0821 Y-1.2525 F200.00
G01 X7.4076 Y-0.4174 F200.00
G01 X3.6636 Y0.0560 F200.00
G01 X-0.1063 Y0.1616 F200.00
G01 X-3.8685 Y-0.1013 F200.00
G01 X-7.5840 Y-0.7295 F200.00
G01 X-11.2327 Y-1.7208 F200.00
G01 X-14.7579 Y-3.0605 F200.00
G01 X-18.1312 Y-4.7351 F200.00
G01 X-21.3325 Y-6.7358 F200.00
G01 X-24.3177 Y-9.0348 F200.00
G01 X-27.0653 Y-11.6149 F200.00
G01 X-29.5522 Y-14.4558 F200.00
G01 X-31.7484 Y-17.5242 F200.00
G01 X-33.6336 Y-20.7904 F200.00
G01 X-35.1878 Y-24.2166 F200.00
G01 X-36.4059 Y-27.7951 F200.00
G01 X-37.2666 Y-31.4668 F200.00
G01 X-37.7645 Y-35.1985 F200.00
G01 X-37.8626 Y-38.0011 F200.00
G01 X-37.8710 Y-38.0437 F200.00
G01 X-37.8768 Y-38.0979 F200.00
G01 X-37.8839 Y-38.1410 F200.00
G01 X-37.8877 Y-38.2080 F200.00
G01 X-37.8970 Y-38.3073 F200.00
G01 X-37.8970 Y-38.3736 F200.00
G01 X-37.9000 Y-38.4300 F200.00
G01 X-37.8970 Y-38.4864 F200.00
G01 X-37.8965 Y-38.5625 F200.00
G01 X-37.8877 Y-38.6520 F200.00
G01 X-37.8862 Y-38.6784 F200.00
G01 X-37.8885 Y-38.7449 F200.00
G01 X-45.3928 Y-38.7449 F200.00
G01 X-45.4312 Y-38.6743 F200.00
G01 X-45.4770 Y-38.6095 F200.00
G01 X-45.5300 Y-38.5500 F200.00
G01 X-45.5843 Y-38.5013 F200.00
G01 X-45.5930 Y-38.4943 F200.00
G01 X-45.6543 Y-38.4512 F200.00
G01 X-45.7163 Y-38.4169 F200.00
G01 X-45.7264 Y-38.4120 F200.00
G01 X-45.7886 Y-38.3863 F200.00
G01 X-45.7991 Y-38.3826 F200.00
G01 X-45.8652 Y-38.3636 F200.00
G01 X-45.8747 Y-38.3615 F200.00
G01 X-45.9488 Y-38.3492 F200.00
G01 X-46.0194 Y-38.3452 F200.00
G01 X-46.5750 Y-38.3450 F200.00
G01 X-46.6512 Y-38.3492 F200.00
G01 X-46.7253 Y-38.3615 F200.00
G01 X-46.7362 Y-38.3640 F200.00
G01 X-46.8103 Y-38.3858 F200.00
G01 X-46.8736 Y-38.4120 F200.00
G01 X-46.8837 Y-38.4169 F200.00
G01 X-46.9457 Y-38.4512 F200.00
G01 X-47.0070 Y-38.4943 F200.00
G01 X-47.0157 Y-38.5013 F200.00
G01 X-47.0700 Y-38.5500 F200.00
G01 X-47.1187 Y-38.6043 F200.00
G01 X-47.1257 Y-38.6130 F200.00
G01 X-47.1688 Y-38.6743 F200.00
G01 X-47.2031 Y-38.7363 F200.00
G01 X-47.2079 Y-38.7464 F200.00
G01 X-47.2342 Y-38.8097 F200.00
G00 Z2.5400
G00 X-47.3649 Y-38.6814
G01 F100.00
G01 Z-0.1500
G01 F200.00
G01 X-47.3920 Y-38.7466 F200.00
G01 X-47.4008 Y-38.7721 F200.00
G01 X-47.4204 Y-38.8404 F200.00
G01 X-47.4261 Y-38.8663 F200.00
G01 X-47.4374 Y-38.9326 F200.00
G01 X-47.4401 Y-38.9534 F200.00
G01 X-47.4446 Y-39.0299 F200.00
G01 X-47.4446 Y-39.0601 F200.00
G01 X-47.4401 Y-39.1366 F200.00
G01 X-47.4374 Y-39.1574 F200.00
G01 X-47.4261 Y-39.2237 F200.00
G01 X-47.4204 Y-39.2496 F200.00
G01 X-47.4008 Y-39.3179 F200.00
G01 X-47.3920 Y-39.3434 F200.00
G01 X-47.3650 Y-39.4087 F200.00
G01 X-47.3519 Y-39.4359 F200.00
G01 X-47.3193 Y-39.4948 F200.00
G01 X-47.3032 Y-39.5205 F200.00
G01 X-47.2572 Y-39.5849 F200.00
G01 X-47.2454 Y-39.5990 F200.00
G01 X-47.1902 Y-39.6602 F200.00
G01 X-47.1290 Y-39.7154 F200.00
G01 X-47.1149 Y-39.7272 F200.00
G01 X-47.0505 Y-39.7732 F200.00
G01 X-47.0331 Y-39.7846 F200.00
G01 X-46.9659 Y-39.8219 F200.00
G01 X-46.9387 Y-39.8350 F200.00
G01 X-46.8734 Y-39.8620 F200.00
G01 X-46.8479 Y-39.8708 F200.00
G01 X-46.7796 Y-39.8904 F200.00
G01 X-46.7537 Y-39.8961 F200.00
G01 X-46.6874 Y-39.9074 F200.00
G01 X-46.6666 Y-39.9101 F200.00
G01 X-46.5750 Y-39.9150 F200.00
G01 X-46.0250 Y-39.9150 F200.00
G01 X-45.9334 Y-39.9101 F200.00
G01 X-45.9126 Y-39.9074 F200.00
G01 X-45.8463 Y-39.8961 F200.00
G01 X-45.8167 Y-39.8894 F200.00
G01 X-45.7521 Y-39.8708 F200.00
G01 X-45.7266 Y-39.8620 F200.00
G01 X-45.6613 Y-39.8350 F200.00
G01 X-45.6341 Y-39.8219 F200.00
G01 X-45.5669 Y-39.7846 F200.00
G01 X-45.5495 Y-39.7732 F200.00
G01 X-45.4947 Y-39.7343 F200.00
G01 X-45.4710 Y-39.7154 F200.00
G01 X-45.4208 Y-39.6706 F200.00
G01 X-45.3994 Y-39.6492 F200.00
G01 X-45.3428 Y-39.5849 F200.00
G01 X-45.2933 Y-39.5151 F200.00
G01 X-38.0323 Y-39.5151 F200.00
G01 X-37.8287 Y-42.7484 F200.00
G01 X-37.2252 Y-46.4778 F200.00
G01 X-37.2197 Y-46.5036 F200.00
G01 X-36.2589 Y-50.1402 F200.00
G01 X-36.2509 Y-50.1654 F200.00
G01 X-34.9398 Y-53.6909 F200.00
G01 X-34.9334 Y-53.7064 F200.00
G01 X-33.2805 Y-57.0959 F200.00
G01 X-33.2678 Y-57.1190 F200.00
G01 X-31.2958 Y-60.3243 F200.00
G01 X-31.2819 Y-60.3445 F200.00
G01 X-29.0078 Y-63.3406 F200.00
G01 X-28.9959 Y-63.3551 F200.00
G01 X-26.4280 Y-66.1281 F200.00
G01 X-23.6000 Y-68.6395 F200.00
G01 X-23.5829 Y-68.6529 F200.00
G01 X-20.5399 Y-70.8639 F200.00
G01 X-20.5243 Y-70.8744 F200.00
G01 X-17.2735 Y-72.7817 F200.00
G01 X-17.2501 Y-72.7939 F200.00
G01 X-13.8356 Y-74.3717 F200.00
G01 X-13.8111 Y-74.3816 F200.00
G01 X-10.2555 Y-75.6197 F200.00
G01 X-10.2336 Y-75.6260 F200.00
G01 X-6.5671 Y-76.5128 F200.00
G01 X-2.8162 Y-77.0402 F200.00
G01 X0.9688 Y-77.1991 F200.00
G01 X4.7542 Y-76.9874 F200.00
G01 X8.4944 Y-76.4084 F200.00
G01 X12.1519 Y-75.4697 F200.00
G01 X12.1701 Y-75.4644 F200.00
G01 X15.7117 Y-74.1754 F200.00
G01 X15.7290 Y-74.1685 F200.00
G01 X19.1282 Y-72.5400 F200.00
G01 X19.1514 Y-72.5274 F200.00
G01 X22.3688 Y-70.5789 F200.00
G01 X22.3907 Y-70.5641 F200.00
G01 X25.4026 Y-68.3110 F200.00
G01 X25.4165 Y-68.2998 F200.00
G01 X28.2094 Y-65.7493 F200.00
G01 X30.7360 Y-62.9438 F200.00
G01 X30.7514 Y-62.9251 F200.00
G01 X32.9848 Y-59.8958 F200.00
G01 X32.9994 Y-59.8738 F200.00
G01 X34.9254 Y-56.6429 F200.00
G01 X34.9350 Y-56.6254 F200.00
G01 X36.5418 Y-53.2109 F200.00
G01 X36.5494 Y-53.1918 F200.00
G01 X37.8154 Y-49.6353 F200.00
G01 X38.7303 Y-45.9666 F200.00
G01 X38.7339 Y-45.9475 F200.00
G01 X39.2849 Y-42.2138 F200.00
G01 X39.4700 Y-38.4300 F200.00
G01 X39.4550 Y-37.3512 F200.00
G01 X39.4542 Y-37.3343 F200.00
G01 X39.1656 Y-33.5840 F200.00
G01 X39.1623 Y-33.5578 F200.00
G01 X38.5080 Y-29.8474 F200.00
G01 X38.5033 Y-29.8278 F200.00
G01 X37.4879 Y-26.1921 F200.00
G01 X36.1182 Y-22.6610 F200.00
G01 X34.4116 Y-19.2821 F200.00
G01 X32.3880 Y-16.0927 F200.00
G01 X32.3728 Y-16.0711 F200.00
G01 X30.0571 Y-13.1071 F200.00
G01 X30.0398 Y-13.0871 F200.00
G01 X27.4413 Y-10.3585 F200.00
G01 X27.4268 Y-10.3450 F200.00
G01 X24.5787 Y-7.8866 F200.00
G01 X24.5586 Y-7.8710 F200.00
G01 X21.4850 Y-5.7027 F200.00
G01 X21.4627 Y-5.6886 F200.00
G01 X18.1795 Y-3.8240 F200.00
G01 X14.7322 Y-2.2888 F200.00
G01 X14.7078 Y-2.2793 F200.00
G01 X11.1310 Y-1.0896 F200.00
G01 X11.1132 Y-1.0850 F200.00
G01 X7.4453 Y-0.2516 F200.00
G01 X7.4193 Y-0.2470 F200.00
G01 X3.6805 Y0.2252 F200.00
G01 X3.6612 Y0.2264 F200.00
G01 X-0.1063 Y0.3316 F200.00
G01 X-0.1251 Y0.3309 F200.00
G01 X-3.8854 Y0.0678 F200.00
G01 X-3.9036 Y0.0654 F200.00
G01 X-7.6123 Y-0.5619 F200.00
G01 X-7.6381 Y-0.5676 F200.00
G01 X-11.2679 Y-1.5538 F200.00
G01 X-11.2930 Y-1.5619 F200.00
G01 X-14.8093 Y-2.8976 F200.00
G01 X-14.8335 Y-2.9082 F200.00
G01 X-18.2137 Y-4.5865 F200.00
G01 X-21.4156 Y-6.5868 F200.00
G01 X-21.4345 Y-6.5998 F200.00
G01 X-24.4283 Y-8.9058 F200.00
G01 X-27.1855 Y-11.4947 F200.00
G01 X-27.1977 Y-11.5078 F200.00
G01 X-29.6753 Y-14.3380 F200.00
G01 X-29.6882 Y-14.3538 F200.00
G01 X-31.8814 Y-17.4171 F200.00
G01 X-31.8956 Y-17.4392 F200.00
G01 X-33.7764 Y-20.6967 F200.00
G01 X-33.7884 Y-20.7202 F200.00
G01 X-35.3431 Y-24.1475 F200.00
G01 X-35.3520 Y-24.1702 F200.00
G01 X-36.5642 Y-27.7310 F200.00
G01 X-36.5714 Y-27.7563 F200.00
G01 X-37.4304 Y-31.4184 F200.00
G01 X-37.4351 Y-31.4443 F200.00
G01 X-37.9336 Y-35.1815 F200.00
G01 X-37.9348 Y-35.1990 F200.00
G01 X-38.0320 Y-37.9815 F200.00
G01 X-38.0378 Y-38.0105 F200.00
G01 X-38.0416 Y-38.0367 F200.00
G01 X-38.0454 Y-38.0753 F200.00
G01 X-38.0532 Y-38.1256 F200.00
G01 X-38.0572 Y-38.1949 F200.00
G01 X-38.0657 Y-38.2809 F200.00
G01 X-38.0670 Y-38.3073 F200.00
G01 X-38.0670 Y-38.3688 F200.00
G01 X-38.0700 Y-38.4300 F200.00
G01 X-38.0670 Y-38.4912 F200.00
G01 X-38.0670 Y-38.5527 F200.00
G01 X-38.0659 Y-38.5749 F200.00
G01 X-45.2933 Y-38.5749 F200.00
G01 X-45.3428 Y-38.5051 F200.00
G01 X-45.3994 Y-38.4408 F200.00
G01 X-45.4208 Y-38.4194 F200.00
G01 X-45.4851 Y-38.3628 F200.00
G01 X-45.5495 Y-38.3168 F200.00
G01 X-45.5669 Y-38.3054 F200.00
G01 X-45.6341 Y-38.2681 F200.00
G01 X-45.6613 Y-38.2550 F200.00
G01 X-45.7235 Y-38.2292 F200.00
G01 X-45.7521 Y-38.2192 F200.00
G01 X-45.8204 Y-38.1996 F200.00
G01 X-45.8463 Y-38.1939 F200.00
G01 X-45.9126 Y-38.1826 F200.00
G01 X-45.9334 Y-38.1799 F200.00
G01 X-46.0099 Y-38.1754 F200.00
G01 X-46.5750 Y-38.1750 F200.00
G01 X-46.6666 Y-38.1799 F200.00
G01 X-46.6874 Y-38.1826 F200.00
G01 X-46.7537 Y-38.1939 F200.00
G01 X-46.7833 Y-38.2006 F200.00
G01 X-46.8479 Y-38.2192 F200.00
G01 X-46.8734 Y-38.2280 F200.00
G01 X-46.9387 Y-38.2550 F200.00
G01 X-46.9659 Y-38.2681 F200.00
G01 X-47.0331 Y-38.3054 F200.00
G01 X-47.0505 Y-38.3168 F200.00
G01 X-47.1053 Y-38.3557 F200.00
G01 X-47.1290 Y-38.3746 F200.00
G01 X-47.1902 Y-38.4298 F200.00
G01 X-47.2454 Y-38.4910 F200.00
G01 X-47.2643 Y-38.5147 F200.00
G01 X-47.3032 Y-38.5695 F200.00
G01 X-47.3146 Y-38.5869 F200.00
G01 X-47.3519 Y-38.6541 F200.00
G01 X-47.3649 Y-38.6814 F200.00
G01 X-47.3920 Y-38.7466 F200.00
G00 Z2.5400
G00 X-47.5218 Y-38.6164
G01 F100.00
G01 Z-0.1500
G01 F200.00
G01 X-47.5499 Y-38.6834 F200.00
G01 X-47.5641 Y-38.7250 F200.00
G01 X-47.5845 Y-38.7957 F200.00
G01 X-47.5937 Y-38.8378 F200.00
G01 X-47.6050 Y-38.9041 F200.00
G01 X-47.6094 Y-38.9380 F200.00
G01 X-47.6143 Y-39.0203 F200.00
G01 X-47.6150 Y-39.0450 F200.00
G01 X-47.6143 Y-39.0697 F200.00
G01 X-47.6094 Y-39.1520 F200.00
G01 X-47.6050 Y-39.1859 F200.00
G01 X-47.5937 Y-39.2522 F200.00
G01 X-47.5845 Y-39.2943 F200.00
G01 X-47.5641 Y-39.3650 F200.00
G01 X-47.5499 Y-39.4066 F200.00
G01 X-47.5221 Y-39.4737 F200.00
G01 X-47.5007 Y-39.5182 F200.00
G01 X-47.4681 Y-39.5771 F200.00
G01 X-47.4603 Y-39.5906 F200.00
G01 X-47.4419 Y-39.6188 F200.00
G01 X-47.3914 Y-39.6892 F200.00
G01 X-47.3722 Y-39.7123 F200.00
G01 X-47.3273 Y-39.7625 F200.00
G01 X-47.3104 Y-39.7804 F200.00
G01 X-47.2925 Y-39.7973 F200.00
G01 X-47.2423 Y-39.8422 F200.00
G01 X-47.2192 Y-39.8614 F200.00
G01 X-47.1488 Y-39.9119 F200.00
G01 X-47.1206 Y-39.9303 F200.00
G01 X-47.0482 Y-39.9707 F200.00
G01 X-47.0037 Y-39.9921 F200.00
G01 X-46.9366 Y-40.0199 F200.00
G01 X-46.8950 Y-40.0341 F200.00
G01 X-46.8243 Y-40.0545 F200.00
G01 X-46.7822 Y-40.0637 F200.00
G01 X-46.7159 Y-40.0750 F200.00
G01 X-46.6820 Y-40.0794 F200.00
G01 X-46.5997 Y-40.0843 F200.00
G01 X-46.5750 Y-40.0850 F200.00
G01 X-46.0250 Y-40.0850 F200.00
G01 X-46.0003 Y-40.0843 F200.00
G01 X-45.9180 Y-40.0794 F200.00
G01 X-45.8841 Y-40.0750 F200.00
G01 X-45.8178 Y-40.0637 F200.00
G01 X-45.7757 Y-40.0545 F200.00
G01 X-45.7050 Y-40.0341 F200.00
G01 X-45.6634 Y-40.0199 F200.00
G01 X-45.5963 Y-39.9921 F200.00
G01 X-45.5518 Y-39.9707 F200.00
G01 X-45.4794 Y-39.9303 F200.00
G01 X-45.4512 Y-39.9119 F200.00
G01 X-45.3808 Y-39.8614 F200.00
G01 X-45.3577 Y-39.8422 F200.00
G01 X-45.3075 Y-39.7973 F200.00
G01 X-45.2896 Y-39.7804 F200.00
G01 X-45.2727 Y-39.7625 F200.00
G01 X-45.2278 Y-39.7123 F200.00
G01 X-45.2055 Y-39.6851 F200.00
G01 X-38.1920 Y-39.6851 F200.00
G01 X-37.9979 Y-42.7653 F200.00
G01 X-37.9944 Y-42.7919 F200.00
G01 X-37.3930 Y-46.5049 F200.00
G01 X-37.3841 Y-46.5470 F200.00
G01 X-36.4232 Y-50.1836 F200.00
G01 X-36.4102 Y-50.2246 F200.00
G01 X-35.0991 Y-53.7501 F200.00
G01 X-35.0888 Y-53.7755 F200.00
G01 X-33.4333 Y-57.1704 F200.00
G01 X-33.4126 Y-57.2081 F200.00
G01 X-31.4400 Y-60.4144 F200.00
G01 X-31.4173 Y-60.4473 F200.00
G01 X-29.1432 Y-63.4433 F200.00
G01 X-29.1238 Y-63.4671 F200.00
G01 X-26.5482 Y-66.2483 F200.00
G01 X-26.5292 Y-66.2662 F200.00
G01 X-23.7106 Y-68.7686 F200.00
G01 X-23.6829 Y-68.7905 F200.00
G01 X-20.6398 Y-71.0014 F200.00
G01 X-20.6144 Y-71.0185 F200.00
G01 X-17.3596 Y-72.9283 F200.00
G01 X-17.3215 Y-72.9483 F200.00
G01 X-13.9069 Y-74.5260 F200.00
G01 X-13.8671 Y-74.5421 F200.00
G01 X-10.3093 Y-75.7810 F200.00
G01 X-10.2736 Y-75.7913 F200.00
G01 X-6.6005 Y-76.6795 F200.00
G01 X-6.5754 Y-76.6838 F200.00
G01 X-2.8331 Y-77.2094 F200.00
G01 X-2.8078 Y-77.2112 F200.00
G01 X0.9688 Y-77.3691 F200.00
G01 X0.9933 Y-77.3684 F200.00
G01 X4.7489 Y-77.1584 F200.00
G01 X4.7729 Y-77.1564 F200.00
G01 X8.5278 Y-76.5751 F200.00
G01 X8.5509 Y-76.5698 F200.00
G01 X12.1942 Y-75.6344 F200.00
G01 X12.2239 Y-75.6256 F200.00
G01 X15.7698 Y-74.3352 F200.00
G01 X15.7981 Y-74.3238 F200.00
G01 X19.2016 Y-72.6933 F200.00
G01 X19.2395 Y-72.6728 F200.00
G01 X22.4569 Y-70.7243 F200.00
G01 X22.4925 Y-70.7003 F200.00
G01 X25.5044 Y-68.4471 F200.00
G01 X25.5272 Y-68.4288 F200.00
G01 X28.3296 Y-65.8695 F200.00
G01 X28.3455 Y-65.8528 F200.00
G01 X30.8623 Y-63.0575 F200.00
G01 X30.8874 Y-63.0271 F200.00
G01 X33.1216 Y-59.9967 F200.00
G01 X33.1454 Y-59.9609 F200.00
G01 X35.0714 Y-56.7300 F200.00
G01 X35.0870 Y-56.7014 F200.00
G01 X36.6971 Y-53.2799 F200.00
G01 X36.7095 Y-53.2488 F200.00
G01 X37.9713 Y-49.7053 F200.00
G01 X37.9782 Y-49.6842 F200.00
G01 X38.8963 Y-46.0035 F200.00
G01 X38.9021 Y-45.9723 F200.00
G01 X39.4541 Y-42.2307 F200.00
G01 X39.4557 Y-42.2084 F200.00
G01 X39.6395 Y-38.4515 F200.00
G01 X39.6400 Y-38.4300 F200.00
G01 X39.6249 Y-37.3489 F200.00
G01 X39.6237 Y-37.3213 F200.00
G01 X39.3351 Y-33.5709 F200.00
G01 X39.3291 Y-33.5284 F200.00
G01 X39.3297 Y-33.5283 F200.00
G01 X38.6747 Y-29.8141 F200.00
G01 X38.6670 Y-29.7821 F200.00
G01 X37.6555 Y-26.1592 F200.00
G01 X37.6491 Y-26.1384 F200.00
G01 X37.6419 Y-26.1184 F200.00
G01 X36.2817 Y-22.6115 F200.00
G01 X36.2736 Y-22.5919 F200.00
G01 X36.2642 Y-22.5723 F200.00
G01 X34.5602 Y-19.1996 F200.00
G01 X34.5471 Y-19.1775 F200.00
G01 X32.5316 Y-16.0016 F200.00
G01 X32.5068 Y-15.9665 F200.00
G01 X30.1910 Y-13.0024 F200.00
G01 X30.1629 Y-12.9699 F200.00
G01 X27.5615 Y-10.2383 F200.00
G01 X27.5379 Y-10.2163 F200.00
G01 X24.6893 Y-7.7575 F200.00
G01 X24.6566 Y-7.7320 F200.00
G01 X21.5830 Y-5.5638 F200.00
G01 X21.5467 Y-5.5408 F200.00
G01 X18.2761 Y-3.6829 F200.00
G01 X18.2556 Y-3.6719 F200.00
G01 X14.8012 Y-2.1335 F200.00
G01 X14.7614 Y-2.1180 F200.00
G01 X11.1798 Y-0.9268 F200.00
G01 X11.1509 Y-0.9192 F200.00
G01 X7.4829 Y-0.0858 F200.00
G01 X7.4406 Y-0.0784 F200.00
G01 X3.6975 Y0.3943 F200.00
G01 X3.6660 Y0.3964 F200.00
G01 X-0.1063 Y0.5016 F200.00
G01 X-0.1370 Y0.5005 F200.00
G01 X-3.9023 Y0.2370 F200.00
G01 X-3.9319 Y0.2330 F200.00
G01 X-7.6407 Y-0.3943 F200.00
G01 X-7.6628 Y-0.3986 F200.00
G01 X-7.6827 Y-0.4035 F200.00
G01 X-11.3125 Y-1.3897 F200.00
G01 X-11.3534 Y-1.4030 F200.00
G01 X-14.8697 Y-2.7387 F200.00
G01 X-14.9091 Y-2.7559 F200.00
G01 X-18.2963 Y-4.4379 F200.00
G01 X-18.3158 Y-4.4494 F200.00
G01 X-21.5056 Y-6.4426 F200.00
G01 X-21.5365 Y-6.4638 F200.00
G01 X-24.5211 Y-8.7622 F200.00
G01 X-24.5390 Y-8.7767 F200.00
G01 X-27.3057 Y-11.3745 F200.00
G01 X-27.3256 Y-11.3958 F200.00
G01 X-29.8033 Y-14.2260 F200.00
G01 X-29.8242 Y-14.2518 F200.00
G01 X-32.0196 Y-17.3181 F200.00
G01 X-32.0429 Y-17.3542 F200.00
G01 X-33.9236 Y-20.6117 F200.00
G01 X-33.9432 Y-20.6500 F200.00
G01 X-35.4985 Y-24.0785 F200.00
G01 X-35.5129 Y-24.1154 F200.00
G01 X-36.7251 Y-27.6762 F200.00
G01 X-36.7369 Y-27.7175 F200.00
G01 X-37.5959 Y-31.3795 F200.00
G01 X-37.6036 Y-31.4218 F200.00
G01 X-38.1028 Y-35.1646 F200.00
G01 X-38.1047 Y-35.1930 F200.00
G01 X-38.2014 Y-37.9618 F200.00
G01 X-38.2045 Y-37.9773 F200.00
G01 X-38.2108 Y-38.0200 F200.00
G01 X-38.2140 Y-38.0527 F200.00
G01 X-38.2181 Y-38.0764 F200.00
G01 X-38.2225 Y-38.1103 F200.00
G01 X-38.2268 Y-38.1818 F200.00
G01 X-38.2349 Y-38.2642 F200.00
G01 X-38.2370 Y-38.3073 F200.00
G01 X-38.2370 Y-38.3640 F200.00
G01 X-38.2393 Y-38.4049 F200.00
G01 X-45.2055 Y-38.4049 F200.00
G01 X-45.2278 Y-38.3777 F200.00
G01 X-45.2727 Y-38.3275 F200.00
G01 X-45.2896 Y-38.3096 F200.00
G01 X-45.3075 Y-38.2927 F200.00
G01 X-45.3577 Y-38.2478 F200.00
G01 X-45.3808 Y-38.2286 F200.00
G01 X-45.4512 Y-38.1781 F200.00
G01 X-45.4794 Y-38.1597 F200.00
G01 X-45.5518 Y-38.1193 F200.00
G01 X-45.5963 Y-38.0979 F200.00
G01 X-45.6634 Y-38.0701 F200.00
G01 X-45.7050 Y-38.0559 F200.00
G01 X-45.7427 Y-38.0450 F200.00
G01 X-45.7050 Y-38.0341 F200.00
G01 X-45.6634 Y-38.0199 F200.00
G01 X-45.5963 Y-37.9921 F200.00
G01 X-45.5518 Y-37.9707 F200.00
G01 X-45.4794 Y-37.9303 F200.00
G01 X-45.4512 Y-37.9119 F200.00
G01 X-45.3963 Y-37.8729 F200.00
G01 X-45.3808 Y-37.8614 F200.00
G01 X-45.3577 Y-37.8422 F200.00
G01 X-45.3075 Y-37.7973 F200.00
G01 X-45.2896 Y-37.7804 F200.00
G01 X-45.2727 Y-37.7625 F200.00
G01 X-45.2278 Y-37.7123 F200.00
G01 X-45.2086 Y-37.6892 F200.00
G01 X-45.1971 Y-37.6737 F200.00
G01 X-45.1581 Y-37.6188 F200.00
G01 X-45.1397 Y-37.5906 F200.00
G01 X-45.0993 Y-37.5182 F200.00
G01 X-45.0779 Y-37.4737 F200.00
G01 X-45.0501 Y-37.4066 F200.00
G01 X-45.0359 Y-37.3650 F200.00
G01 X-45.0155 Y-37.2943 F200.00
G01 X-45.0063 Y-37.2522 F200.00
G01 X-44.9950 Y-37.1859 F200.00
G01 X-44.9906 Y-37.1520 F200.00
G01 X-44.9857 Y-37.0697 F200.00
G01 X-44.9850 Y-37.0450 F200.00
G01 X-44.9857 Y-37.0203 F200.00
G01 X-44.9906 Y-36.9380 F200.00
G01 X-44.9950 Y-36.9041 F200.00
G01 X-45.0063 Y-36.8378 F200.00
G01 X-45.0155 Y-36.7957 F200.00
G01 X-45.0359 Y-36.7250 F200.00
G01 X-45.0501 Y-36.6834 F200.00
G01 X-45.0779 Y-36.6163 F200.00
G01 X-45.0993 Y-36.5718 F200.00
G01 X-45.1319 Y-36.5129 F200.00
G01 X-45.1397 Y-36.4994 F200.00
G01 X-45.1581 Y-36.4712 F200.00
G01 X-45.2086 Y-36.4008 F200.00
G01 X-45.2278 Y-36.3777 F200.00
G01 X-45.2727 Y-36.3275 F200.00
G01 X-45.2896 Y-36.3096 F200.00
G01 X-45.3075 Y-36.2927 F200.00
G01 X-45.3577 Y-36.2478 F200.00
G01 X-45.3808 Y-36.2286 F200.00
G01 X-45.3963 Y-36.2171 F200.00
G01 X-45.4512 Y-36.1781 F200.00
G01 X-45.4794 Y-36.1597 F200.00
G01 X-45.5518 Y-36.1193 F200.00
G01 X-45.5963 Y-36.0979 F200.00
G01 X-45.6634 Y-36.0701 F200.00
G01 X-45.7050 Y-36.0559 F200.00
G01 X-45.7427 Y-36.0450 F200.00
G01 X-45.7050 Y-36.0341 F200.00
G01 X-45.6634 Y-36.0199 F200.00
G01 X-45.5963 Y-35.9921 F200.00
G01 X-45.5518 Y-35.9707 F200.00
G01 X-45.4794 Y-35.9303 F200.00
G01 X-45.4512 Y-35.9119 F200.00
G01 X-45.3808 Y-35.8614 F200.00
G01 X-45.3577 Y-35.8422 F200.00
G01 X-45.3075 Y-35.7973 F200.00
G01 X-45.2896 Y-35.7804 F200.00
G01 X-45.2727 Y-35.7625 F200.00
G01 X-45.2278 Y-35.7123 F200.00
G01 X-45.2086 Y-35.6892 F200.00
G01 X-45.1971 Y-35.6737 F200.00
G01 X-45.1581 Y-35.6188 F200.00
G01 X-45.1397 Y-35.5906 F200.00
G01 X-45.0993 Y-35.5182 F200.00
G01 X-45.0779 Y-35.4737 F200.00
G01 X-45.0501 Y-35.4066 F200.00
G01 X-45.0359 Y-35.3650 F200.00
G01 X-45.0172 Y-35.3003 F200.00
G01 X-45.0063 Y-35.2522 F200.00
G01 X-44.9950 Y-35.1859 F200.00
G01 X-44.9906 Y-35.1520 F200.00
G01 X-44.9857 Y-35.0697 F200.00
G01 X-44.9850 Y-35.0450 F200.00
G01 X-44.9857 Y-35.0203 F200.00
G01 X-44.9906 Y-34.9380 F200.00
G01 X-44.9950 Y-34.9041 F200.00
G01 X-45.0063 Y-34.8378 F200.00
G01 X-45.0155 Y-34.7957 F200.00
G01 X-45.0359 Y-34.7250 F200.00
G01 X-45.0522 Y-34.6785 F200.00
G01 X-45.0779 Y-34.6163 F200.00
G01 X-45.0993 Y-34.5718 F200.00
G01 X-45.1397 Y-34.4994 F200.00
G01 X-45.1581 Y-34.4712 F200.00
G01 X-45.2086 Y-34.4008 F200.00
G01 X-45.2278 Y-34.3777 F200.00
G01 X-45.2727 Y-34.3275 F200.00
G01 X-45.2896 Y-34.3096 F200.00
G01 X-45.3075 Y-34.2927 F200.00
G01 X-45.3577 Y-34.2478 F200.00
G01 X-45.3808 Y-34.2286 F200.00
G01 X-45.4512 Y-34.1781 F200.00
G01 X-45.4794 Y-34.1597 F200.00
G01 X-45.5518 Y-34.1193 F200.00
G01 X-45.5963 Y-34.0979 F200.00
G01 X-45.6314 Y-34.0834 F200.00
G01 X-45.6067 Y-34.0816 F200.00
G01 X-45.5859 Y-34.0790 F200.00
G01 X-45.5308 Y-34.0697 F200.00
G01 X-45.4760 Y-34.0557 F200.00
G01 X-45.4542 Y-34.0485 F200.00
G01 X-45.4311 Y-34.0402 F200.00
G01 X-45.4006 Y-34.0280 F200.00
G01 X-45.3604 Y-34.0090 F200.00
G01 X-45.3310 Y-33.9929 F200.00
G01 X-45.2920 Y-33.9690 F200.00
G01 X-45.2543 Y-33.9417 F200.00
G01 X-45.2209 Y-33.9143 F200.00
G01 X-45.1871 Y-33.8829 F200.00
G01 X-45.1477 Y-33.8399 F200.00
G01 X-45.1137 Y-33.7960 F200.00
G01 X-45.1010 Y-33.7780 F200.00
G01 X-45.0897 Y-33.7601 F200.00
G01 X-45.0771 Y-33.7390 F200.00
G01 X-45.0610 Y-33.7096 F200.00
G01 X-45.0420 Y-33.6694 F200.00
G01 X-45.0298 Y-33.6389 F200.00
G01 X-45.0143 Y-33.5940 F200.00
G01 X-45.0003 Y-33.5392 F200.00
G01 X-44.9946 Y-33.5083 F200.00
G01 X-44.9884 Y-33.4633 F200.00
G01 X-44.9855 Y-33.4166 F200.00
G01 X-44.9850 Y-33.3950 F200.00
G01 X-44.9850 Y-32.6950 F200.00
G01 X-44.9867 Y-32.6489 F200.00
G01 X-44.9884 Y-32.6267 F200.00
G01 X-44.9946 Y-32.5817 F200.00
G01 X-45.0003 Y-32.5508 F200.00
G01 X-45.0143 Y-32.4960 F200.00
G01 X-45.0215 Y-32.4742 F200.00
G01 X-45.0298 Y-32.4511 F200.00
G01 X-45.0420 Y-32.4206 F200.00
G01 X-45.0610 Y-32.3804 F200.00
G01 X-45.0771 Y-32.3510 F200.00
G01 X-45.0897 Y-32.3299 F200.00
G01 X-45.1010 Y-32.3120 F200.00
G01 X-45.1137 Y-32.2940 F200.00
G01 X-45.1477 Y-32.2501 F200.00
G01 X-45.1722 Y-32.2227 F200.00
G01 X-45.1871 Y-32.2071 F200.00
G01 X-45.2027 Y-32.1922 F200.00
G01 X-45.2301 Y-32.1677 F200.00
G01 X-45.2740 Y-32.1337 F200.00
G01 X-45.2920 Y-32.1210 F200.00
G01 X-45.3099 Y-32.1097 F200.00
G01 X-45.3310 Y-32.0971 F200.00
G01 X-45.3604 Y-32.0810 F200.00
G01 X-45.4006 Y-32.0620 F200.00
G01 X-45.4311 Y-32.0498 F200.00
G01 X-45.4760 Y-32.0343 F200.00
G01 X-45.5308 Y-32.0203 F200.00
G01 X-45.5859 Y-32.0110 F200.00
G01 X-45.6067 Y-32.0084 F200.00
G01 X-45.6289 Y-32.0067 F200.00
G01 X-45.6750 Y-32.0050 F200.00
G01 X-46.9250 Y-32.0050 F200.00
G01 X-46.9711 Y-32.0067 F200.00
G01 X-46.9933 Y-32.0084 F200.00
G01 X-47.0383 Y-32.0146 F200.00
G01 X-47.0692 Y-32.0203 F200.00
G01 X-47.1045 Y-32.0289 F200.00
G01 X-47.1240 Y-32.0343 F200.00
G01 X-47.1689 Y-32.0498 F200.00
G01 X-47.1994 Y-32.0620 F200.00
G01 X-47.2396 Y-32.0810 F200.00
G01 X-47.2690 Y-32.0971 F200.00
G01 X-47.2901 Y-32.1097 F200.00
G01 X-47.3080 Y-32.1210 F200.00
G01 X-47.3260 Y-32.1337 F200.00
G01 X-47.3457 Y-32.1483 F200.00
G01 X-47.3791 Y-32.1757 F200.00
G01 X-47.4129 Y-32.2071 F200.00
G01 X-47.4278 Y-32.2227 F200.00
G01 X-47.4523 Y-32.2501 F200.00
G01 X-47.4717 Y-32.2743 F200.00
G01 X-47.4990 Y-32.3120 F200.00
G01 X-47.5229 Y-32.3510 F200.00
G01 X-47.5390 Y-32.3804 F200.00
G01 X-47.5580 Y-32.4206 F200.00
G01 X-47.5702 Y-32.4511 F200.00
G01 X-47.5857 Y-32.4960 F200.00
G01 X-47.5997 Y-32.5508 F200.00
G01 X-47.6054 Y-32.5817 F200.00
G01 X-47.6116 Y-32.6267 F200.00
G01 X-47.6133 Y-32.6489 F200.00
G01 X-47.6150 Y-32.6950 F200.00
G01 X-47.6150 Y-33.3950 F200.00
G01 X-47.6133 Y-33.4411 F200.00
G01 X-47.6116 Y-33.4633 F200.00
G01 X-47.6090 Y-33.4841 F200.00
G01 X-47.6054 Y-33.5083 F200.00
G01 X-47.5970 Y-33.5507 F200.00
G01 X-47.5857 Y-33.5940 F200.00
G01 X-47.5702 Y-33.6389 F200.00
G01 X-47.5580 Y-33.6694 F200.00
G01 X-47.5390 Y-33.7096 F200.00
G01 X-47.5229 Y-33.7390 F200.00
G01 X-47.5103 Y-33.7601 F200.00
G01 X-47.4990 Y-33.7780 F200.00
G01 X-47.4863 Y-33.7960 F200.00
G01 X-47.4523 Y-33.8399 F200.00
G01 X-47.4129 Y-33.8829 F200.00
G01 X-47.3791 Y-33.9143 F200.00
G01 X-47.3457 Y-33.9417 F200.00
G01 X-47.3080 Y-33.9690 F200.00
G01 X-47.2690 Y-33.9929 F200.00
G01 X-47.2396 Y-34.0090 F200.00
G01 X-47.1994 Y-34.0280 F200.00
G01 X-47.1689 Y-34.0402 F200.00
G01 X-47.1458 Y-34.0485 F200.00
G01 X-47.1240 Y-34.0557 F200.00
G01 X-47.0692 Y-34.0697 F200.00
G01 X-47.0141 Y-34.0790 F200.00
G01 X-46.9933 Y-34.0816 F200.00
G01 X-46.9686 Y-34.0834 F200.00
G01 X-47.0037 Y-34.0979 F200.00
G01 X-47.0482 Y-34.1193 F200.00
G01 X-47.1206 Y-34.1597 F200.00
G01 X-47.1488 Y-34.1781 F200.00
G01 X-47.2192 Y-34.2286 F200.00
G01 X-47.2423 Y-34.2478 F200.00
G01 X-47.2925 Y-34.2927 F200.00
G01 X-47.3104 Y-34.3096 F200.00
G01 X-47.3273 Y-34.3275 F200.00
G01 X-47.3722 Y-34.3777 F200.00
G01 X-47.3914 Y-34.4008 F200.00
G01 X-47.4419 Y-34.4712 F200.00
G01 X-47.4603 Y-34.4994 F200.00
G01 X-47.5007 Y-34.5718 F200.00
G01 X-47.5221 Y-34.6163 F200.00
G01 X-47.5478 Y-34.6785 F200.00
G01 X-47.5641 Y-34.7250 F200.00
G01 X-47.5845 Y-34.7957 F200.00
G01 X-47.5937 Y-34.8378 F200.00
G01 X-47.6050 Y-34.9041 F200.00
G01 X-47.6094 Y-34.9380 F200.00
G01 X-47.6143 Y-35.0203 F200.00
G01 X-47.6150 Y-35.0450 F200.00
G01 X-47.6143 Y-35.0697 F200.00
G01 X-47.6094 Y-35.1520 F200.00
G01 X-47.6050 Y-35.1859 F200.00
G01 X-47.5937 Y-35.2522 F200.00
G01 X-47.5828 Y-35.3003 F200.00
G01 X-47.5641 Y-35.3650 F200.00
G01 X-47.5499 Y-35.4066 F200.00
G01 X-47.5221 Y-35.4737 F200.00
G01 X-47.5007 Y-35.5182 F200.00
G01 X-47.4603 Y-35.5906 F200.00
G01 X-47.4419 Y-35.6188 F200.00
G01 X-47.4029 Y-35.6737 F200.00
G01 X-47.3914 Y-35.6892 F200.00
G01 X-47.3722 Y-35.7123 F200.00
G01 X-47.3273 Y-35.7625 F200.00
G01 X-47.3104 Y-35.7804 F200.00
G01 X-47.2925 Y-35.7973 F200.00
G01 X-47.2423 Y-35.8422 F200.00
G01 X-47.2192 Y-35.8614 F200.00
G01 X-47.1488 Y-35.9119 F200.00
G01 X-47.1206 Y-35.9303 F200.00
G01 X-47.0482 Y-35.9707 F200.00
G01 X-47.0037 Y-35.9921 F200.00
G01 X-46.9366 Y-36.0199 F200.00
G01 X-46.8950 Y-36.0341 F200.00
G01 X-46.8573 Y-36.0450 F200.00
G01 X-46.8950 Y-36.0559 F200.00
G01 X-46.9366 Y-36.0701 F200.00
G01 X-47.0037 Y-36.0979 F200.00
G01 X-47.0482 Y-36.1193 F200.00
G01 X-47.1206 Y-36.1597 F200.00
G01 X-47.1488 Y-36.1781 F200.00
G01 X-47.2192 Y-36.2286 F200.00
G01 X-47.2423 Y-36.2478 F200.00
G01 X-47.2925 Y-36.2927 F200.00
G01 X-47.3104 Y-36.3096 F200.00
G01 X-47.3273 Y-36.3275 F200.00
G01 X-47.3722 Y-36.3777 F200.00
G01 X-47.3914 Y-36.4008 F200.00
G01 X-47.4419 Y-36.4712 F200.00
G01 X-47.4603 Y-36.4994 F200.00
G01 X-47.4681 Y-36.5129 F200.00
G01 X-47.5007 Y-36.5718 F200.00
G01 X-47.5221 Y-36.6163 F200.00
G01 X-47.5478 Y-36.6785 F200.00
G01 X-47.5641 Y-36.7250 F200.00
G01 X-47.5845 Y-36.7957 F200.00
G01 X-47.5937 Y-36.8378 F200.00
G01 X-47.6050 Y-36.9041 F200.00
G01 X-47.6094 Y-36.9380 F200.00
G01 X-47.6143 Y-37.0203 F200.00
G01 X-47.6150 Y-37.0450 F200.00
G01 X-47.6143 Y-37.0697 F200.00
G01 X-47.6094 Y-37.1520 F200.00
G01 X-47.6050 Y-37.1859 F200.00
G01 X-47.5937 Y-37.2522 F200.00
G01 X-47.5845 Y-37.2943 F200.00
G01 X-47.5641 Y-37.3650 F200.00
G01 X-47.5499 Y-37.4066 F200.00
G01 X-47.5221 Y-37.4737 F200.00
G01 X-47.5007 Y-37.5182 F200.00
G01 X-47.4603 Y-37.5906 F200.00
G01 X-47.4419 Y-37.6188 F200.00
G01 X-47.4029 Y-37.6737 F200.00
G01 X-47.3914 Y-37.6892 F200.00
G01 X-47.3722 Y-37.7123 F200.00
G01 X-47.3273 Y-37.7625 F200.00
G01 X-47.3104 Y-37.7804 F200.00
G01 X-47.2925 Y-37.7973 F200.00
G01 X-47.2423 Y-37.8422 F200.00
G01 X-47.2192 Y-37.8614 F200.00
G01 X-47.1488 Y-37.9119 F200.00
G01 X-47.1206 Y-37.9303 F200.00
G01 X-47.0482 Y-37.9707 F200.00
G01 X-47.0037 Y-37.9921 F200.00
G01 X-46.9366 Y-38.0199 F200.00
G01 X-46.8950 Y-38.0341 F200.00
G01 X-46.8573 Y-38.0450 F200.00
G01 X-46.8950 Y-38.0559 F200.00
G01 X-46.9366 Y-38.0701 F200.00
G01 X-47.0037 Y-38.0979 F200.00
G01 X-47.0482 Y-38.1193 F200.00
G01 X-47.1206 Y-38.1597 F200.00
G01 X-47.1488 Y-38.1781 F200.00
G01 X-47.2192 Y-38.2286 F200.00
G01 X-47.2423 Y-38.2478 F200.00
G01 X-47.2925 Y-38.2927 F200.00
G01 X-47.3104 Y-38.3096 F200.00
G01 X-47.3273 Y-38.3275 F200.00
G01 X-47.3722 Y-38.3777 F200.00
G01 X-47.3914 Y-38.4008 F200.00
G01 X-47.4419 Y-38.4712 F200.00
G01 X-47.4603 Y-38.4994 F200.00
G01 X-47.5007 Y-38.5718 F200.00
G01 X-47.5218 Y-38.6164 F200.00
G01 X-47.5499 Y-38.6834 F200.00
G00 Z2.5400
G00 X-47.6788 Y-38.5514
G01 F100.00
G01 Z-0.1500
G01 F200.00
G01 X-47.7077 Y-38.6203 F200.00
G01 X-47.7275 Y-38.6780 F200.00
G01 X-47.7485 Y-38.7510 F200.00
G01 X-47.7613 Y-38.8093 F200.00
G01 X-47.7726 Y-38.8756 F200.00
G01 X-47.7787 Y-38.9226 F200.00
G01 X-47.7840 Y-39.0108 F200.00
G01 X-47.7850 Y-39.0450 F200.00
G01 X-47.7840 Y-39.0792 F200.00
G01 X-47.7787 Y-39.1674 F200.00
G01 X-47.7726 Y-39.2144 F200.00
G01 X-47.7613 Y-39.2807 F200.00
G01 X-47.7485 Y-39.3390 F200.00
G01 X-47.7275 Y-39.4120 F200.00
G01 X-47.7077 Y-39.4697 F200.00
G01 X-47.6791 Y-39.5388 F200.00
G01 X-47.6495 Y-39.6004 F200.00
G01 X-47.6061 Y-39.6781 F200.00
G01 X-47.5805 Y-39.7172 F200.00
G01 X-47.5256 Y-39.7936 F200.00
G01 X-47.4989 Y-39.8256 F200.00
G01 X-47.4541 Y-39.8757 F200.00
G01 X-47.4306 Y-39.9006 F200.00
G01 X-47.4057 Y-39.9241 F200.00
G01 X-47.3556 Y-39.9689 F200.00
G01 X-47.3236 Y-39.9956 F200.00
G01 X-47.3021 Y-40.0116 F200.00
G01 X-47.2472 Y-40.0505 F200.00
G01 X-47.2081 Y-40.0761 F200.00
G01 X-47.1304 Y-40.1195 F200.00
G01 X-47.0688 Y-40.1491 F200.00
G01 X-47.0066 Y-40.1749 F200.00
G01 X-46.9420 Y-40.1975 F200.00
G01 X-46.8690 Y-40.2185 F200.00
G01 X-46.8107 Y-40.2313 F200.00
G01 X-46.7444 Y-40.2426 F200.00
G01 X-46.6974 Y-40.2487 F200.00
G01 X-46.6764 Y-40.2503 F200.00
G01 X-46.6092 Y-40.2540 F200.00
G01 X-46.5750 Y-40.2550 F200.00
G01 X-46.0250 Y-40.2550 F200.00
G01 X-45.9908 Y-40.2540 F200.00
G01 X-45.9026 Y-40.2487 F200.00
G01 X-45.8556 Y-40.2426 F200.00
G01 X-45.7893 Y-40.2313 F200.00
G01 X-45.7310 Y-40.2185 F200.00
G01 X-45.6580 Y-40.1975 F200.00
G01 X-45.6003 Y-40.1777 F200.00
G01 X-45.5312 Y-40.1491 F200.00
G01 X-45.4696 Y-40.1195 F200.00
G01 X-45.3919 Y-40.0761 F200.00
G01 X-45.3528 Y-40.0505 F200.00
G01 X-45.2979 Y-40.0116 F200.00
G01 X-45.2764 Y-39.9956 F200.00
G01 X-45.2444 Y-39.9689 F200.00
G01 X-45.1943 Y-39.9241 F200.00
G01 X-45.1694 Y-39.9006 F200.00
G01 X-45.1275 Y-39.8551 F200.00
G01 X-38.3516 Y-39.8551 F200.00
G01 X-38.1670 Y-42.7823 F200.00
G01 X-38.1622 Y-42.8191 F200.00
G01 X-37.5608 Y-46.5321 F200.00
G01 X-37.5568 Y-46.5542 F200.00
G01 X-37.5484 Y-46.5904 F200.00
G01 X-36.5876 Y-50.2271 F200.00
G01 X-36.5765 Y-50.2641 F200.00
G01 X-36.5696 Y-50.2839 F200.00
G01 X-35.2585 Y-53.8094 F200.00
G01 X-35.2441 Y-53.8445 F200.00
G01 X-33.5861 Y-57.2449 F200.00
G01 X-33.5574 Y-57.2971 F200.00
G01 X-31.5842 Y-60.5045 F200.00
G01 X-31.5528 Y-60.5500 F200.00
G01 X-29.2786 Y-63.5461 F200.00
G01 X-29.2518 Y-63.5790 F200.00
G01 X-26.6684 Y-66.3685 F200.00
G01 X-26.6420 Y-66.3934 F200.00
G01 X-23.8212 Y-68.8977 F200.00
G01 X-23.7828 Y-68.9280 F200.00
G01 X-20.7397 Y-71.1389 F200.00
G01 X-20.7045 Y-71.1627 F200.00
G01 X-17.4456 Y-73.0750 F200.00
G01 X-17.4331 Y-73.0821 F200.00
G01 X-17.3928 Y-73.1026 F200.00
G01 X-13.9782 Y-74.6803 F200.00
