(G-CODE GENERATED BY FLATCAM v8.913 - www.flatcam.org - Version Date: 2019/04/13)

(Name: slip_ring-PTH.drl_cnc)
(Type: G-code from Excellon)
(Units: MM)

(Created on Thursday, 06 June 2019 at 23:54)

(Feedrate: 50.0 mm/min)
(Feedrate rapids 100.0 mm/min)

(Z_Cut: -2.0 mm)
(Z_Move: 2.54 mm)
(Z Toolchange: 20.0 mm)
(X,Y Toolchange: 0.0000, 0.0000 mm)
(Z Start: None mm)
(Z End: 20.0 mm)
(Steps per circle: 64)
(Postprocessor Excellon: grbl_11)
(X range:  -46.6750 ...  -19.5750  mm)
(Y range:  -39.4200 ...  -32.6700  mm)

(Spindle Speed: 20000.0 RPM)


G21
G90
G94
G17

G01 F50.00
G00 Z2.5400

M03 S20000
G4 P1.0
G00 X-46.3000 Y-33.0450
G01 Z-2.0000
G00 Z2.5400
G00 X-46.3000 Y-35.0450
G01 Z-2.0000
G00 Z2.5400
G00 X-46.3000 Y-37.0450
G01 Z-2.0000
G00 Z2.5400
G00 X-46.3000 Y-39.0450
G01 Z-2.0000
G00 Z2.5400
M05
G00 Z20.00
G00 X0.0 Y0.0

M02